<?xml version="1.0" encoding="UTF-8"?>
<map version="1.11" tiledversion="1.11.2" orientation="orthogonal" renderorder="right-down" width="30" height="20" tilewidth="32" tileheight="32" infinite="0" nextlayerid="4" nextobjectid="1">
 <tileset firstgid="1" source="../TileSets/MuddyGround.tsx"/>
 <tileset firstgid="17" source="../TileSets/Wall.tsx"/>
 <layer id="2" name="Ground" width="30" height="20">
  <data encoding="csv">
0,0,0,0,0,0,0,0,0,0,0,0,0,0,0,0,0,0,0,0,0,0,0,0,0,0,0,0,0,0,
0,10,9,11,2,12,12,10,9,11,4,9,10,10,3,11,10,12,9,9,3,10,9,10,12,9,11,9,3,0,
0,9,12,5,11,10,2,12,10,9,8,9,2,12,3,4,11,9,10,11,9,2,12,9,11,6,9,12,12,0,
0,11,8,6,9,4,11,11,11,10,12,10,10,10,10,12,6,9,11,10,10,9,10,6,12,10,10,6,9,0,
0,10,9,10,11,2,10,11,9,10,12,9,12,9,12,4,12,7,8,3,9,9,4,2,11,10,9,10,9,0,
0,11,2,11,10,10,11,10,11,2,9,11,9,11,8,10,11,11,3,10,10,12,12,8,7,10,2,12,4,0,
0,12,9,10,10,11,11,9,11,10,10,9,3,10,9,11,11,9,11,10,4,11,8,12,11,9,10,11,11,0,
0,9,9,11,5,9,11,10,11,10,9,11,11,10,9,12,12,10,9,9,12,7,10,10,11,11,11,11,4,0,
0,9,12,11,10,11,11,8,10,4,11,11,9,12,11,9,11,1,9,4,11,10,2,11,11,6,10,2,11,0,
0,12,10,11,9,11,9,11,11,12,12,3,10,10,10,9,7,9,9,12,12,10,12,11,11,12,12,9,10,0,
0,11,11,10,9,10,2,12,11,5,12,11,5,12,12,9,11,11,9,11,11,12,11,10,7,5,12,5,11,0,
0,12,9,8,10,11,12,11,10,11,9,11,11,9,11,12,12,10,11,3,12,11,3,9,9,12,11,10,11,0,
0,9,10,11,3,11,10,3,12,12,9,9,4,6,12,12,10,10,9,10,9,11,10,9,10,10,11,9,9,0,
0,4,11,12,9,11,9,12,8,10,4,9,10,12,9,10,12,10,11,12,12,2,11,9,10,8,9,12,10,0,
0,12,9,9,12,12,10,2,2,10,11,2,11,12,11,4,11,4,11,3,10,11,9,10,9,11,12,11,10,0,
0,12,10,10,4,12,4,3,9,4,10,9,12,12,12,2,9,12,12,7,6,11,4,10,12,12,7,12,9,0,
0,10,9,4,12,10,5,10,12,12,11,10,10,10,12,9,12,4,9,12,3,11,12,10,3,9,10,10,12,0,
0,3,9,11,10,10,11,4,9,3,10,6,4,10,2,2,12,10,9,2,5,9,9,9,11,12,10,9,12,0,
0,9,11,9,9,3,12,9,10,6,3,2,11,9,12,9,9,3,12,11,10,9,9,11,9,10,12,2,11,0,
0,0,0,0,0,0,0,0,0,0,0,0,0,0,0,0,0,0,0,0,0,0,0,0,0,0,0,0,0,0
</data>
 </layer>
 <layer id="3" name="Wall" width="30" height="20" tintcolor="#3599a7">
  <data encoding="csv">
81,82,82,82,82,82,82,82,82,82,82,82,82,82,82,82,82,82,82,82,82,82,82,82,82,82,82,82,82,83,
97,40,40,40,40,40,40,40,40,40,40,40,40,40,40,40,40,40,40,40,40,40,40,40,40,40,40,40,40,99,
97,40,40,26,27,56,56,56,56,27,27,56,56,56,27,27,56,56,27,56,56,56,56,56,56,56,28,40,40,99,
97,40,26,57,0,0,0,0,0,0,0,0,0,0,0,0,0,0,0,0,0,0,0,0,0,0,55,28,40,99,
97,40,41,0,0,0,0,0,0,0,0,0,0,0,0,0,0,0,0,0,0,0,0,0,0,0,0,44,40,99,
97,40,41,0,0,0,0,0,0,0,20,30,50,30,22,0,0,0,0,0,0,0,0,0,0,0,0,39,40,99,
97,40,42,0,0,0,0,0,20,50,51,0,0,0,52,18,22,0,0,0,0,0,0,0,0,0,0,39,40,99,
97,40,41,0,0,0,0,0,35,0,0,0,0,0,0,0,52,22,0,0,0,0,0,0,0,0,0,39,40,99,
97,40,41,0,0,0,0,0,61,0,0,0,0,0,0,0,0,33,0,0,0,0,0,0,0,0,0,39,40,99,
97,40,41,0,0,0,0,0,77,0,0,0,0,0,0,0,0,35,0,0,0,0,0,0,0,0,0,39,40,99,
97,40,42,0,0,0,0,0,0,0,0,0,0,0,0,0,0,61,0,0,0,0,0,0,0,0,0,44,40,99,
97,40,42,0,0,0,0,0,0,0,0,0,0,0,0,0,20,51,0,0,0,0,0,0,0,0,0,44,40,99,
97,40,41,0,0,0,0,0,0,0,0,0,0,0,20,18,54,0,0,0,0,0,0,0,0,0,0,39,40,99,
97,40,41,0,0,0,0,0,0,0,0,0,20,30,51,0,0,0,0,0,0,0,0,0,0,0,0,39,40,99,
97,40,41,0,0,0,0,0,29,30,30,50,53,30,50,30,50,50,31,0,0,0,0,0,0,0,0,39,40,99,
97,40,41,0,0,0,0,0,0,0,0,0,0,0,0,0,0,0,0,0,0,0,0,0,0,0,0,44,40,99,
97,40,58,25,0,0,0,0,0,0,0,0,0,0,0,0,0,0,0,0,0,0,0,0,0,0,23,60,40,99,
97,40,40,58,24,59,24,24,59,24,59,24,59,59,59,24,24,59,59,59,59,59,24,24,24,59,60,40,40,99,
97,40,40,40,40,40,40,40,40,40,40,40,40,40,40,40,40,40,40,40,40,40,40,40,40,40,40,40,40,99,
113,114,114,114,114,114,114,114,114,114,114,114,114,114,114,114,114,114,114,114,114,114,114,114,114,114,114,114,114,115
</data>
 </layer>
</map>
