<?xml version="1.0" encoding="UTF-8"?>
<map version="1.10" tiledversion="1.11.2" orientation="orthogonal" renderorder="right-down" width="30" height="20" tilewidth="32" tileheight="32" infinite="0" nextlayerid="3" nextobjectid="1">
 <tileset firstgid="1" source="../TileSets/GreenWall.tsx"/>
 <tileset firstgid="129" source="../TileSets/MuddyGround.tsx"/>
 <layer id="2" name="Ground" width="30" height="20">
  <data encoding="csv">
137,137,139,140,140,138,131,130,137,139,138,139,140,139,139,140,130,140,130,131,131,140,140,137,140,137,140,138,140,132,
138,137,138,139,137,132,139,140,130,130,140,138,140,137,131,138,130,136,130,132,140,139,135,138,139,137,134,139,140,139,
132,137,139,135,140,139,137,134,138,134,139,132,137,138,137,133,140,140,140,139,138,138,139,137,138,139,138,137,139,140,
139,131,138,138,138,133,138,137,137,140,137,137,138,139,132,140,137,131,139,140,138,139,131,137,139,137,136,133,131,140,
130,138,139,138,139,132,138,137,140,137,131,138,139,140,140,138,139,138,137,140,138,137,137,139,138,131,140,137,138,140,
140,138,140,137,140,137,138,138,132,140,140,139,138,137,137,139,140,139,136,133,139,138,137,135,138,140,140,140,139,139,
138,137,133,138,139,140,140,135,139,140,129,140,139,139,139,139,138,139,137,139,140,139,138,138,139,140,138,132,139,130,
138,140,137,140,137,133,138,140,140,135,140,138,139,140,137,136,139,130,140,137,138,138,138,130,137,139,132,132,137,140,
140,131,137,139,140,138,131,134,137,140,139,137,140,139,138,140,139,138,139,138,137,135,140,140,137,131,137,137,140,133,
138,138,140,139,140,139,138,139,139,138,137,136,134,140,132,132,137,134,130,136,137,137,140,138,138,137,139,140,137,139,
140,139,138,137,130,140,131,137,137,137,137,139,130,139,140,139,130,137,140,139,131,140,140,138,134,138,137,138,137,138,
140,140,138,138,138,139,140,140,137,137,134,139,140,139,140,140,140,138,139,140,140,137,139,131,139,138,130,139,132,134,
138,140,139,138,139,137,137,139,131,139,140,140,136,138,138,137,140,137,139,140,139,139,137,130,137,140,138,139,140,137,
139,138,138,136,138,140,135,137,139,139,133,132,129,140,139,139,140,131,137,139,134,130,135,138,139,139,140,131,138,140,
137,132,140,137,139,140,138,138,138,140,140,139,137,134,140,138,130,139,139,138,137,139,140,138,140,134,137,138,134,138,
140,137,140,140,139,138,138,140,137,137,137,137,140,130,138,139,140,138,132,131,138,140,130,138,139,139,140,140,140,133,
138,129,130,138,140,140,134,139,139,140,137,140,138,139,137,139,139,139,140,139,140,138,139,137,138,139,137,138,138,137,
140,140,139,132,139,139,138,136,132,139,137,140,132,140,139,139,137,131,139,140,139,137,140,130,138,131,137,133,140,139,
137,137,137,130,138,137,139,132,140,137,130,140,132,137,137,138,139,139,138,138,138,130,137,138,136,130,138,138,137,140,
132,138,140,137,137,137,139,139,140,138,139,137,136,132,133,138,138,140,139,140,139,139,139,131,140,138,140,139,132,132
</data>
 </layer>
 <layer id="1" name="Wall" width="30" height="20">
  <data encoding="csv">
71,65,66,66,66,66,66,66,66,66,66,66,66,66,66,66,66,66,66,66,66,66,66,66,66,66,66,66,67,71,
65,68,10,40,40,40,40,11,40,40,12,10,11,40,40,11,11,40,11,40,11,40,11,40,40,40,11,12,70,67,
81,10,41,0,0,0,0,0,0,0,28,26,0,0,0,0,0,0,0,0,0,0,0,0,0,0,0,39,12,83,
81,26,0,0,0,0,0,0,0,0,28,26,0,0,0,0,0,0,0,0,0,0,0,0,0,0,0,0,28,83,
81,25,0,0,0,0,0,0,0,0,28,25,0,0,0,0,0,0,0,0,0,0,0,0,0,0,0,0,23,83,
68,42,8,9,0,0,7,8,43,8,44,25,0,0,0,0,0,0,0,0,0,0,0,0,0,0,0,0,23,83,
40,40,11,41,0,0,39,11,11,40,11,41,0,0,0,0,0,0,0,0,0,0,0,0,0,0,0,0,28,83,
0,0,0,0,0,0,0,0,0,0,0,0,0,0,0,0,0,0,0,0,0,0,0,0,0,0,0,0,28,83,
0,0,0,0,0,0,0,0,0,0,0,0,0,0,0,0,0,0,0,0,0,0,0,0,0,0,0,0,28,83,
8,9,0,0,0,0,0,0,0,0,0,0,0,0,0,0,0,0,0,0,7,8,43,8,8,8,43,8,44,83,
100,26,0,0,0,0,0,0,0,0,0,0,0,0,0,0,0,0,0,0,28,10,40,11,40,40,40,40,12,83,
81,25,0,0,0,0,0,0,0,0,0,0,0,0,0,0,0,0,0,0,28,26,0,0,0,0,0,0,23,83,
81,26,0,0,0,0,0,0,0,0,0,0,0,0,0,0,0,0,0,0,28,26,0,0,0,0,0,0,28,83,
81,26,0,0,0,0,0,0,0,0,0,0,0,0,0,0,0,0,0,0,39,41,0,0,0,0,0,0,28,83,
81,26,0,0,0,0,0,0,0,0,0,0,0,0,0,0,0,0,0,0,0,0,0,0,0,0,0,0,28,83,
81,26,0,0,0,0,0,0,0,0,0,0,0,0,0,0,0,0,0,0,0,0,0,0,0,0,0,0,28,83,
81,25,0,0,0,0,0,0,0,0,0,0,0,0,0,0,0,0,0,0,7,9,0,0,0,0,0,0,28,83,
81,42,9,0,0,0,0,0,0,0,0,0,0,0,0,0,0,0,0,0,28,26,0,0,0,0,0,7,44,83,
97,100,42,8,43,8,43,43,43,8,8,8,43,8,43,8,43,43,8,43,44,42,8,8,43,8,43,44,102,99,
71,97,98,98,98,98,98,98,98,98,98,98,98,98,98,98,98,98,98,98,98,98,98,98,98,98,98,98,99,71
</data>
 </layer>
</map>
