<?xml version="1.0" encoding="UTF-8"?>
<map version="1.11" tiledversion="1.11.2" orientation="orthogonal" renderorder="right-down" width="100" height="100" tilewidth="32" tileheight="32" infinite="0" nextlayerid="3" nextobjectid="1">
 <tileset firstgid="1" source="../TileSets/MuddyGround.tsx"/>
 <tileset firstgid="17" source="../TileSets/Wall.tsx"/>
 <layer id="2" name="Ground" width="100" height="100" locked="1">
  <data encoding="csv">
0,0,0,0,0,0,0,0,0,0,0,0,0,0,0,0,0,0,0,0,0,0,0,0,0,0,0,0,0,0,0,0,0,0,0,0,0,0,0,0,0,0,0,0,0,0,0,0,0,0,0,0,0,0,0,0,0,0,0,0,0,0,0,0,0,0,0,0,0,0,0,0,0,0,0,0,0,0,0,0,0,0,0,0,0,0,0,0,0,0,0,0,0,0,0,0,0,0,0,0,
0,12,9,9,4,10,12,12,11,9,10,6,3,10,9,12,9,11,4,11,12,11,12,11,11,11,11,10,10,1,12,9,11,7,10,10,7,4,10,6,8,11,3,9,10,12,11,10,10,9,11,12,9,10,12,9,2,4,9,12,10,12,10,4,12,3,9,3,10,12,7,10,10,10,11,10,11,3,11,6,11,5,12,9,12,10,5,12,9,2,10,9,11,11,11,11,9,9,9,0,
0,10,5,12,11,4,10,9,8,12,10,9,9,10,10,12,12,9,8,10,9,9,10,8,12,7,12,10,9,12,12,3,9,3,10,9,3,4,10,12,4,10,11,10,9,12,12,11,11,10,12,11,10,12,11,8,9,4,9,8,12,10,11,9,10,12,2,7,10,11,10,11,7,12,11,9,11,2,4,9,11,12,11,11,11,3,2,2,12,12,3,12,9,3,10,9,10,10,9,0,
0,12,9,7,11,9,10,10,9,11,11,9,10,11,8,3,10,9,12,10,10,12,10,12,10,10,10,10,9,11,10,10,9,12,6,12,6,3,9,12,9,11,10,12,12,10,11,2,11,11,12,6,10,11,10,12,9,12,11,9,9,12,11,9,1,11,11,10,10,12,12,11,9,11,10,6,12,9,12,9,10,12,2,10,9,11,9,12,10,12,10,9,11,10,11,12,9,11,3,0,
0,6,11,12,11,11,12,12,11,10,2,10,12,11,12,11,12,11,12,12,11,9,11,12,2,12,11,2,11,12,8,12,11,11,3,10,10,11,9,12,10,12,12,10,12,10,9,9,11,11,11,12,12,11,9,9,11,9,9,2,9,2,9,2,9,9,10,6,9,6,10,10,11,7,10,12,10,5,4,3,4,12,11,2,12,12,9,8,4,10,7,9,9,11,9,9,10,11,2,0,
0,3,11,10,9,11,2,11,12,8,11,12,9,5,10,3,12,12,9,10,12,9,11,2,10,12,10,11,11,11,12,9,9,11,10,10,11,2,9,11,12,4,9,10,2,2,10,11,10,11,10,9,11,12,3,12,10,10,12,9,12,10,10,2,11,11,10,12,12,12,12,9,9,9,12,11,12,9,10,12,12,12,12,10,11,9,12,9,9,5,12,4,12,11,9,10,9,3,11,0,
0,2,11,12,11,10,11,12,10,11,3,9,9,9,5,10,10,9,12,11,12,9,10,8,9,12,12,9,11,12,10,12,12,12,11,12,10,9,11,10,12,11,10,10,12,11,4,10,9,11,9,9,9,8,9,9,11,2,11,9,9,10,12,12,8,2,12,9,12,11,12,10,10,9,12,11,10,11,9,9,5,10,1,6,10,12,9,9,2,5,10,12,11,10,12,9,4,3,11,0,
0,9,12,11,10,12,11,4,11,11,12,9,2,11,9,9,5,9,11,12,9,12,11,9,12,4,9,9,11,10,10,9,9,9,10,4,11,11,10,10,3,9,12,10,3,12,11,10,11,11,4,11,4,11,9,12,3,12,12,12,11,9,10,11,12,5,5,11,11,12,3,11,11,9,3,8,10,3,5,12,2,3,9,10,11,2,9,9,10,12,2,9,9,11,5,10,9,9,12,0,
0,9,9,11,11,7,11,12,11,9,10,2,11,9,10,12,10,11,12,12,11,3,12,11,10,11,9,2,11,8,2,11,2,9,12,11,10,11,12,11,11,11,11,3,12,10,12,9,9,9,9,12,9,7,9,12,12,10,9,10,11,10,11,12,12,12,4,12,6,3,12,9,7,9,10,5,11,12,7,9,10,10,12,12,5,10,12,11,4,10,11,11,11,10,10,11,10,11,3,0,
0,11,12,9,10,9,11,9,9,4,12,11,6,10,11,11,12,12,10,5,6,10,10,10,10,9,10,3,11,10,6,6,6,12,2,10,11,9,12,12,10,11,12,10,9,3,11,8,12,10,9,12,12,11,9,12,3,12,11,12,11,11,4,12,11,9,12,10,11,11,10,11,9,9,11,11,11,11,10,10,10,11,10,10,5,8,10,9,11,9,10,12,12,10,9,10,9,11,10,0,
0,5,9,12,12,12,11,4,5,11,9,9,12,11,9,11,11,11,12,9,9,9,12,12,9,10,2,9,12,11,12,2,12,5,7,10,12,10,7,10,6,10,11,9,11,12,12,12,11,12,12,10,9,11,10,9,11,9,11,11,11,11,11,11,11,11,10,12,9,10,3,5,6,10,3,4,9,9,10,3,12,11,10,12,10,4,11,10,10,12,9,10,10,9,11,12,11,11,6,0,
0,9,10,9,11,11,12,9,11,9,10,9,10,9,2,12,9,11,11,10,11,7,9,11,2,12,11,11,12,11,9,9,12,9,9,11,12,11,9,12,9,12,6,10,12,12,9,11,9,10,10,9,11,9,11,4,7,5,10,11,12,12,2,12,9,9,11,11,12,8,11,10,9,9,10,10,10,11,5,7,9,9,9,12,12,6,3,12,5,11,11,10,9,9,10,3,11,10,11,0,
0,12,10,5,11,6,10,4,4,4,9,2,11,8,4,2,9,10,11,9,11,4,10,11,9,9,12,12,11,9,2,3,10,10,10,9,11,12,9,10,11,9,5,11,10,11,9,11,4,5,4,9,9,9,10,7,3,9,12,11,12,10,11,12,12,9,12,12,7,9,2,11,6,11,9,12,12,12,9,3,10,11,9,10,4,12,10,12,10,11,11,10,7,12,9,11,3,11,3,0,
0,10,4,10,11,9,11,9,4,11,10,11,12,9,10,9,12,11,10,9,3,9,11,11,7,9,10,10,10,12,10,9,12,10,12,12,12,2,11,5,4,11,3,12,9,11,4,8,4,4,2,9,11,11,6,12,10,10,12,10,6,7,9,8,10,11,2,9,8,10,10,9,9,11,12,7,2,11,9,12,7,10,10,10,9,4,12,11,11,12,12,12,9,12,4,12,9,11,12,0,
0,8,10,10,12,3,3,12,9,11,9,9,10,11,4,4,9,10,10,10,11,8,9,11,2,11,11,12,10,9,9,11,9,5,11,9,3,3,9,4,10,11,10,9,11,9,12,10,2,12,10,11,9,9,12,9,12,10,5,11,9,12,11,10,4,10,10,9,11,10,12,8,10,10,7,10,12,6,9,10,6,11,12,11,11,9,10,12,11,7,12,11,11,12,4,12,10,10,3,0,
0,10,10,11,12,11,8,4,12,12,6,9,9,4,12,6,9,12,12,3,12,11,9,11,11,11,11,12,12,12,10,10,12,11,9,11,4,10,9,10,9,12,9,9,8,5,9,12,10,3,6,12,11,12,10,11,10,10,11,11,11,12,12,11,9,12,10,11,9,12,9,12,11,3,12,12,12,10,12,11,4,12,9,9,11,10,9,11,11,11,11,12,9,9,10,2,12,11,10,0,
0,7,11,7,11,11,11,10,9,4,8,12,2,10,10,10,11,2,11,11,10,9,10,10,7,11,12,12,9,10,9,12,7,10,3,12,10,2,12,3,4,9,11,12,9,10,11,6,10,6,10,11,9,6,9,8,4,2,12,11,3,12,12,9,7,7,11,10,11,12,10,12,10,9,12,7,11,12,12,2,9,11,9,11,9,11,9,9,10,12,11,9,10,11,11,9,9,12,9,0,
0,11,5,11,10,10,9,10,9,11,10,12,10,9,12,12,9,9,10,11,6,9,12,11,12,10,9,11,9,9,9,11,9,12,9,11,9,10,11,11,11,11,3,11,12,9,3,10,6,12,11,9,2,7,2,12,12,11,9,2,12,5,11,11,9,11,9,11,5,12,9,11,11,12,9,9,11,10,9,11,4,8,5,12,11,11,10,10,7,9,6,10,12,9,9,11,10,10,9,0,
0,9,3,12,8,12,12,4,11,2,12,9,3,4,12,9,10,10,12,2,12,12,3,12,10,3,11,2,12,11,10,4,10,12,12,9,9,9,9,2,9,10,12,12,12,4,10,10,12,12,3,11,9,12,12,9,10,3,12,10,12,9,2,4,11,11,11,12,10,9,11,11,10,10,3,12,11,10,10,9,9,9,6,11,12,9,10,9,11,11,12,9,4,9,10,3,5,12,10,0,
0,10,9,10,12,4,12,10,11,11,10,9,12,2,3,12,10,10,11,10,7,12,11,10,11,11,11,11,9,9,9,11,10,9,10,12,9,12,9,12,12,11,2,12,10,10,10,9,11,9,11,11,10,12,4,12,11,9,9,9,4,12,2,10,12,12,10,10,9,11,12,10,2,10,11,10,3,9,9,12,12,11,4,9,11,11,12,9,9,2,7,11,9,11,2,11,12,8,12,0,
0,9,12,11,12,11,12,12,10,10,12,11,9,10,12,10,9,9,12,9,9,11,12,2,10,12,12,12,10,12,12,9,10,3,3,9,9,11,11,12,12,12,10,4,12,9,6,10,11,12,11,8,9,9,9,9,9,12,10,12,9,6,11,10,12,12,9,12,9,11,7,3,12,9,9,8,11,12,6,11,12,9,4,10,4,4,12,4,6,9,11,12,9,9,3,12,10,10,9,0,
0,9,11,10,2,5,12,4,11,10,11,9,9,11,11,2,10,11,8,9,12,9,10,9,12,12,12,11,12,12,10,10,11,8,10,11,10,9,10,9,3,11,9,12,8,10,7,3,12,11,10,5,12,6,10,3,11,11,11,11,10,11,10,12,2,12,11,12,10,2,11,10,7,8,9,12,10,12,2,7,10,5,10,12,10,9,12,11,8,11,9,4,12,11,9,7,9,10,12,0,
0,10,12,9,11,6,11,10,2,8,4,9,11,10,5,10,9,11,2,10,11,12,9,11,11,9,12,10,2,4,3,11,9,10,4,12,11,12,11,9,8,11,12,1,2,9,11,12,12,9,3,10,12,9,10,10,11,10,10,12,8,11,7,10,11,9,9,12,10,12,12,12,5,2,9,7,12,12,5,9,3,9,7,9,10,9,10,9,12,6,11,4,4,2,9,4,8,9,10,0,
0,4,11,9,10,10,9,10,11,11,9,10,9,11,8,10,9,10,10,8,10,10,12,11,12,12,9,5,12,11,10,12,9,10,12,10,11,2,10,5,9,3,11,10,11,12,9,10,5,11,11,11,2,12,12,10,4,9,3,11,9,12,11,11,11,10,9,12,10,4,11,12,2,9,11,12,12,9,3,4,9,9,2,2,9,9,12,10,9,2,11,12,10,12,11,12,12,11,11,0,
0,8,9,10,10,8,9,12,9,11,12,9,12,4,12,10,10,10,10,8,10,10,10,10,11,11,12,11,11,12,11,9,11,2,12,12,12,10,7,10,10,11,12,9,12,10,9,12,8,11,10,7,11,7,11,2,12,11,10,11,9,9,9,10,9,10,8,9,9,12,11,10,9,7,9,11,9,9,2,10,7,6,10,12,4,12,10,11,10,10,6,9,4,10,12,12,12,8,3,0,
0,3,11,12,9,9,11,4,12,9,11,12,10,9,9,12,12,11,10,11,8,12,12,7,9,2,11,9,10,3,12,11,4,8,10,4,9,3,11,10,9,9,11,4,2,6,12,12,12,2,12,12,11,10,9,9,11,9,11,6,10,10,10,9,12,9,9,9,9,11,10,10,10,4,12,9,11,5,12,11,5,11,9,4,6,9,9,10,10,12,2,12,11,8,9,11,12,9,3,0,
0,8,11,9,12,9,9,11,10,4,2,6,3,12,4,12,8,9,11,10,11,9,11,9,12,10,11,11,11,9,12,12,11,12,11,12,10,11,7,10,11,7,4,4,9,9,4,12,12,12,11,12,11,9,12,10,9,12,12,3,11,10,10,10,12,11,12,11,10,9,12,4,11,9,8,11,10,1,6,9,10,7,12,12,9,12,9,9,12,2,6,3,11,10,12,2,5,10,11,0,
0,11,10,11,10,11,9,10,9,9,9,10,10,9,11,9,3,3,11,12,10,12,11,12,7,10,1,5,12,10,9,9,12,11,11,10,7,7,10,12,10,11,11,11,9,2,10,9,4,12,10,2,12,12,6,9,10,12,11,9,10,9,12,7,12,11,11,11,9,12,3,12,11,9,12,3,2,12,11,9,9,12,10,10,2,11,11,12,11,9,3,11,9,6,3,9,10,9,11,0,
0,8,2,11,7,9,2,11,10,12,11,10,12,7,10,7,12,9,10,11,7,3,10,12,11,12,11,12,11,12,11,11,11,9,10,11,12,12,12,3,12,11,3,5,11,10,12,12,9,10,9,2,11,9,2,10,12,9,11,10,4,9,9,11,10,5,12,4,10,4,11,9,10,10,9,10,9,12,12,12,11,10,11,6,12,11,11,9,10,9,9,11,6,10,7,11,11,10,12,0,
0,12,10,10,10,11,11,4,12,10,9,12,2,10,12,12,9,11,9,4,11,10,10,9,9,8,11,10,9,12,9,10,8,3,7,9,9,11,9,9,2,1,2,9,11,12,9,12,3,10,4,10,9,7,2,8,12,12,8,9,9,9,12,12,9,9,11,3,10,11,12,9,12,11,10,11,6,12,10,4,9,12,12,12,10,9,12,9,9,8,3,11,10,10,12,4,9,10,7,0,
0,9,10,3,9,11,11,9,9,10,9,10,7,6,8,2,12,12,8,11,12,12,11,10,3,1,4,9,10,11,12,3,12,12,9,8,11,10,11,12,9,12,12,10,9,12,10,12,10,10,10,6,11,9,5,11,10,9,11,6,1,12,11,9,4,9,10,10,2,10,10,9,10,3,10,11,9,11,11,9,10,9,2,9,11,11,12,11,12,11,12,9,9,10,2,9,9,1,11,0,
0,11,12,9,10,10,11,11,9,10,11,5,12,2,11,11,7,9,5,8,10,12,6,5,11,3,9,11,9,12,11,6,12,3,9,11,4,9,12,10,11,11,11,9,10,10,11,9,11,10,10,10,11,2,11,10,12,5,4,3,4,9,12,3,9,4,12,9,2,12,11,4,10,12,11,10,11,11,12,9,3,12,9,5,12,11,5,11,8,11,12,11,3,10,11,7,12,10,11,0,
0,11,10,10,10,9,10,11,7,10,12,10,12,9,10,3,11,11,10,12,11,2,3,10,10,12,10,11,11,10,10,10,2,3,9,11,9,10,10,10,12,3,12,4,4,7,9,3,10,11,7,2,5,10,12,11,12,10,12,12,11,11,12,3,10,10,11,9,9,12,9,12,12,3,11,9,10,9,9,11,9,4,11,5,11,10,11,10,7,12,11,10,10,10,11,11,9,11,7,0,
0,12,12,9,4,6,9,11,9,11,9,12,11,6,10,11,11,8,11,12,10,10,12,10,9,11,12,10,11,4,12,3,11,8,10,9,12,4,4,10,11,12,2,11,11,10,9,8,11,9,11,10,10,11,9,8,11,12,2,10,9,4,9,10,10,9,9,2,12,10,3,12,9,11,11,10,12,11,12,12,11,11,6,7,11,10,4,10,12,3,2,11,12,9,11,9,5,12,9,0,
0,11,2,7,9,9,9,9,11,3,11,9,10,10,8,10,12,6,10,11,9,10,12,8,10,10,9,12,12,5,12,9,10,12,4,10,9,10,12,11,12,10,9,9,9,9,9,12,11,10,10,9,1,3,10,9,9,9,10,10,10,11,11,9,11,9,11,2,10,11,9,10,10,3,9,12,11,11,10,11,9,12,9,12,12,9,9,12,10,3,12,12,11,2,11,9,9,11,11,0,
0,10,10,10,12,10,12,6,9,10,11,2,10,9,9,2,11,10,4,12,11,9,10,11,10,5,12,5,12,9,11,5,11,3,3,3,10,4,9,10,9,7,12,11,10,11,10,10,3,10,8,12,11,11,10,9,12,10,10,9,11,11,11,12,2,12,8,12,11,4,10,11,11,9,10,2,9,4,9,6,9,11,10,12,7,11,10,12,12,9,9,12,9,11,9,10,12,11,11,0,
0,12,2,10,5,7,10,12,7,10,3,12,9,9,9,9,3,12,12,2,11,9,4,4,9,9,11,10,11,4,11,12,10,12,12,9,10,12,11,11,4,9,9,11,6,12,10,4,12,12,10,10,8,9,10,11,12,9,11,10,9,6,9,10,4,11,3,6,7,2,11,9,10,1,9,10,2,12,10,4,9,2,12,11,9,3,10,12,12,9,5,9,7,5,10,12,12,12,3,0,
0,2,3,4,11,11,12,11,12,9,11,12,4,6,12,8,12,10,10,11,10,11,12,4,3,10,10,5,9,12,12,12,9,10,4,3,12,9,9,1,9,11,4,12,9,11,9,10,9,10,12,9,12,5,2,3,9,10,4,10,10,12,9,10,9,10,6,10,9,10,11,11,10,11,10,9,12,11,12,11,12,11,12,10,9,4,9,11,12,2,8,11,11,3,11,10,9,9,9,0,
0,3,10,11,8,5,2,9,10,3,10,12,2,11,10,12,4,9,11,10,9,12,12,12,12,5,10,10,1,6,10,12,3,11,4,8,3,11,11,10,11,11,4,11,10,11,12,11,10,9,12,10,11,10,12,11,9,12,9,9,9,9,2,10,9,3,6,12,9,9,9,2,9,12,10,8,11,12,12,9,2,3,9,10,11,9,12,11,11,3,12,11,11,9,9,11,12,10,7,0,
0,5,11,3,11,6,10,12,9,9,11,11,9,10,11,8,4,10,12,11,11,12,11,10,10,9,10,5,10,12,12,3,11,12,11,10,10,11,12,12,9,11,9,9,11,9,2,12,10,10,9,12,11,2,9,10,4,9,9,6,10,11,11,11,12,10,12,11,11,2,9,12,12,7,6,9,9,10,9,10,12,12,9,3,9,1,9,10,11,11,11,9,9,12,12,12,10,9,10,0,
0,11,9,12,12,11,11,7,11,9,12,12,9,12,9,10,11,10,9,10,12,11,7,12,4,2,4,3,9,12,3,9,12,12,10,3,11,9,11,11,12,12,12,2,9,12,11,9,11,10,12,10,9,4,12,5,11,12,3,11,9,12,10,12,6,9,11,11,12,10,12,12,9,12,9,10,12,11,12,10,12,10,2,9,9,9,11,12,12,9,9,10,10,11,10,9,10,11,10,0,
0,2,11,10,2,12,10,10,2,11,9,2,11,9,11,9,11,10,12,12,3,12,10,10,9,12,11,4,11,9,11,5,9,11,11,12,11,12,2,3,9,10,12,10,12,11,8,10,9,3,12,12,10,12,11,9,3,9,8,9,11,9,11,4,12,3,9,9,9,3,4,11,10,12,11,11,9,12,11,11,10,10,11,6,9,10,9,6,11,12,12,11,10,11,11,9,10,10,12,0,
0,3,11,12,7,9,11,3,11,7,11,11,8,12,11,12,11,12,11,9,10,12,11,9,11,1,10,12,11,12,10,12,10,12,4,12,10,3,9,10,3,9,4,10,11,10,12,11,10,9,12,9,12,5,11,7,11,11,11,10,12,9,10,10,11,10,10,10,3,9,4,3,2,11,9,12,12,12,4,2,9,12,12,10,10,4,11,11,4,2,9,2,3,10,7,11,12,3,12,0,
0,9,7,9,10,9,11,9,3,9,9,9,9,10,10,8,10,10,11,12,9,9,11,9,11,12,9,10,7,10,11,9,11,11,10,11,11,11,12,12,7,2,7,10,2,11,7,5,10,4,10,4,10,11,12,10,11,11,11,9,11,10,11,12,10,12,10,10,4,2,9,11,12,10,9,2,9,9,10,9,10,11,9,12,12,2,10,11,10,11,11,11,11,11,3,11,6,9,12,0,
0,9,10,9,3,10,10,2,4,12,9,10,3,10,11,10,10,10,2,12,10,10,4,11,11,12,10,9,9,3,4,9,12,11,11,12,12,10,12,6,11,9,10,8,10,12,10,9,12,9,9,9,10,11,11,6,5,3,10,10,10,12,6,10,10,10,11,8,10,10,9,11,9,11,10,11,11,12,9,9,9,10,12,4,9,11,10,11,8,2,9,10,10,12,10,2,10,12,11,0,
0,10,9,11,4,9,10,11,12,11,4,3,9,10,12,4,9,9,8,12,10,10,12,11,10,9,4,11,11,10,11,9,12,9,10,10,12,6,4,9,11,9,5,6,10,10,9,3,12,12,9,10,10,9,9,4,11,12,10,11,2,2,9,11,9,4,9,9,12,10,12,4,2,10,3,9,12,9,12,9,9,4,10,9,10,11,11,4,11,10,10,4,12,10,10,11,11,11,10,0,
0,12,4,10,12,10,10,12,10,11,4,4,6,12,12,12,12,9,11,9,12,11,9,10,8,10,3,11,12,9,9,12,11,3,10,2,9,4,10,9,7,10,10,11,10,9,9,5,10,10,11,3,9,12,9,12,12,10,3,3,11,12,12,11,11,9,2,11,9,9,10,10,11,11,11,11,10,10,10,12,11,9,9,9,10,7,11,5,10,6,11,11,11,11,9,9,9,11,10,0,
0,6,1,10,9,10,10,9,12,9,9,10,1,11,9,9,9,11,9,12,12,11,12,10,12,11,10,11,4,3,12,10,5,12,12,10,3,9,12,10,11,11,10,10,12,11,9,9,9,11,10,12,11,3,11,11,12,12,10,3,11,12,11,12,5,9,3,3,9,9,11,7,2,12,10,11,12,12,9,12,12,10,4,11,8,10,10,11,2,9,11,9,9,11,9,11,12,12,3,0,
0,10,12,10,11,5,10,12,12,10,9,10,12,12,12,10,12,9,12,10,10,12,10,11,9,12,12,6,12,11,12,11,2,4,11,12,10,9,3,12,7,11,12,10,10,11,11,4,9,12,11,11,12,11,3,9,11,2,9,11,12,4,9,9,4,11,2,11,11,12,6,10,12,3,1,9,11,12,2,11,12,11,10,4,9,12,9,11,10,12,10,9,3,10,12,10,12,10,10,0,
0,2,12,10,11,2,12,12,10,7,12,11,12,10,12,9,9,12,10,12,12,4,12,4,9,10,9,4,9,9,10,10,9,11,11,12,2,10,3,11,10,3,4,11,11,11,9,9,3,10,10,11,10,11,9,11,4,12,2,2,10,10,9,10,11,12,11,11,11,2,9,12,12,11,9,11,3,11,10,11,9,4,10,6,10,6,11,10,2,10,10,10,10,2,11,11,12,12,9,0,
0,11,10,12,10,12,9,12,9,12,10,5,9,11,11,12,12,9,12,10,12,11,10,4,12,12,9,11,3,2,10,12,2,12,9,12,11,9,2,11,12,10,9,3,11,10,11,11,11,4,12,5,11,9,10,9,11,3,12,11,9,11,2,10,9,10,10,10,2,9,3,11,10,5,9,10,9,11,10,10,10,10,10,9,3,9,12,12,12,12,9,12,12,6,11,6,3,10,10,0,
0,3,12,9,12,4,1,9,9,10,9,10,2,9,10,12,10,9,10,12,9,2,10,9,12,11,10,10,9,11,9,9,10,12,2,4,12,10,5,10,12,12,12,9,9,9,12,6,11,12,7,9,9,11,11,3,12,11,11,12,11,4,10,10,11,2,10,12,9,10,7,9,11,9,12,11,9,10,12,11,9,10,11,10,10,3,9,4,10,3,12,9,12,11,10,12,10,10,10,0,
0,12,12,9,11,11,10,9,9,11,2,9,12,10,10,10,12,12,12,11,10,9,2,5,12,11,9,10,2,11,9,12,12,2,11,10,10,4,10,4,9,2,3,10,10,12,12,11,10,9,4,12,12,11,8,12,11,10,10,11,10,2,9,9,12,10,9,12,9,9,10,10,12,12,10,10,10,9,12,2,12,10,11,11,2,11,12,10,11,11,12,12,4,9,12,12,12,10,10,0,
0,11,12,7,8,11,8,12,12,10,11,11,9,9,11,12,12,10,8,10,2,10,2,9,12,2,10,7,10,11,10,3,9,10,9,12,12,2,3,4,9,9,11,12,2,11,10,11,10,12,11,9,10,12,11,12,10,11,7,11,3,3,10,5,10,11,10,11,9,12,12,9,9,10,9,12,12,11,11,5,2,7,5,10,10,10,9,12,12,12,9,9,11,12,10,7,11,4,9,0,
0,12,9,12,5,9,11,10,8,12,9,9,3,9,11,2,3,10,12,11,10,9,2,10,2,10,11,2,9,9,4,10,9,10,10,12,11,12,9,4,8,12,10,9,3,12,9,11,3,11,2,9,11,9,9,12,9,12,9,10,5,11,11,11,9,11,12,10,12,10,10,9,11,9,12,9,11,10,10,11,7,4,12,12,10,10,12,12,10,12,9,10,12,6,12,9,12,9,9,0,
0,11,11,4,9,6,11,10,9,10,9,9,2,12,12,12,11,12,9,10,2,10,9,11,3,3,10,11,4,10,12,12,5,10,9,10,11,12,5,9,8,10,11,9,9,11,8,10,12,9,9,12,11,9,4,6,10,3,10,12,7,11,10,10,11,10,10,12,4,9,9,11,3,4,11,5,4,11,10,11,12,9,12,12,12,12,11,12,9,2,12,9,9,10,2,7,10,4,11,0,
0,9,11,11,9,12,12,10,10,11,10,9,11,9,10,11,12,11,12,12,11,9,2,12,9,10,11,6,10,4,5,12,10,10,11,10,9,12,2,10,11,10,9,6,10,10,8,2,11,12,10,12,3,9,9,9,2,11,11,4,12,2,6,12,11,3,10,9,10,11,12,11,10,12,12,9,9,8,9,11,2,3,7,9,3,10,10,11,6,9,9,12,12,12,3,10,12,5,9,0,
0,12,11,2,12,2,9,11,11,9,10,9,12,12,11,12,11,10,7,9,9,5,7,8,12,3,10,6,12,10,12,10,7,9,9,12,12,8,11,2,6,9,11,12,9,3,3,12,12,4,4,12,3,11,12,5,12,12,10,11,10,11,9,11,11,7,10,12,10,10,12,9,12,6,3,5,10,12,9,11,6,9,11,11,3,11,4,9,3,7,11,9,10,9,11,11,7,8,10,0,
0,10,4,9,12,11,4,10,10,12,11,9,10,12,12,10,12,3,9,11,9,10,10,11,11,11,12,9,12,9,9,10,10,12,11,11,11,12,8,12,9,9,9,12,11,3,2,10,9,9,3,2,12,12,3,12,4,11,11,8,11,9,12,10,10,11,4,12,9,11,11,10,5,11,10,11,11,11,12,10,10,11,10,10,2,3,12,11,9,12,9,10,11,12,12,3,11,9,3,0,
0,4,9,12,9,12,11,9,9,12,8,6,10,7,8,2,5,11,12,5,9,10,12,9,10,12,12,10,10,9,6,11,4,11,12,12,11,4,9,9,9,5,9,12,11,12,10,10,4,12,10,9,12,11,11,7,11,9,10,9,10,9,12,9,12,12,3,10,8,10,12,9,7,10,2,11,11,2,9,10,7,12,11,10,12,10,10,10,2,11,4,12,9,12,12,1,12,9,9,0,
0,10,11,11,8,2,12,11,9,9,9,12,11,9,9,3,11,7,7,11,10,11,11,9,8,10,6,9,10,9,12,9,10,12,10,12,12,7,4,10,7,12,9,11,12,12,4,12,9,11,10,11,11,12,10,9,11,9,10,10,10,10,10,12,9,10,12,11,11,9,10,10,10,12,11,9,11,12,3,10,3,9,12,12,11,3,12,9,10,12,12,8,12,11,11,11,3,8,12,0,
0,9,10,12,11,9,10,12,12,9,3,9,6,10,9,9,4,11,5,7,11,12,10,11,11,9,9,9,11,12,12,12,12,11,10,8,12,3,4,5,10,11,10,6,10,9,11,9,10,10,4,11,10,9,2,10,10,2,9,12,10,8,10,11,11,10,11,2,12,10,3,10,9,4,9,10,12,3,11,12,12,10,4,12,10,11,10,9,3,9,3,12,11,12,9,12,10,9,9,0,
0,10,9,5,10,2,9,11,12,9,9,10,10,9,10,9,12,9,12,10,10,12,10,9,11,12,9,6,9,10,5,11,9,12,11,9,11,9,9,9,3,9,3,11,11,10,5,9,12,11,11,11,11,11,10,12,9,10,9,3,9,10,11,12,10,11,10,11,12,10,12,6,3,11,11,10,9,9,10,7,9,11,6,10,10,10,11,11,8,12,9,3,11,12,12,12,12,12,12,0,
0,4,12,9,11,2,9,9,11,12,12,10,9,5,9,9,9,9,10,10,3,9,9,11,11,10,10,9,4,12,2,11,11,10,11,11,10,12,11,11,10,11,9,12,9,11,10,10,11,11,12,11,10,12,12,12,5,9,11,12,12,12,2,11,8,11,11,10,10,10,11,8,11,9,10,12,12,12,11,11,5,9,9,10,2,12,9,12,11,12,9,2,12,11,12,9,9,10,7,0,
0,11,10,10,6,4,12,9,8,7,11,2,12,3,12,10,12,12,12,12,12,10,8,11,9,12,9,8,12,2,4,12,9,4,12,2,12,9,12,9,11,3,4,10,12,4,4,3,4,9,10,11,4,9,7,10,4,7,3,5,12,12,3,10,10,10,7,9,10,12,12,9,12,9,10,9,11,11,3,12,11,9,8,12,12,11,10,11,4,10,9,12,11,8,11,9,10,9,10,0,
0,9,9,10,11,5,11,9,5,12,12,3,9,11,11,11,12,12,10,10,9,5,11,10,9,10,12,11,10,12,12,9,11,11,8,2,12,10,11,9,12,9,9,10,9,12,10,11,7,12,12,12,1,3,11,8,4,9,10,8,4,11,11,12,10,11,8,9,11,11,2,12,12,3,10,5,11,9,10,5,11,7,11,2,4,9,3,9,9,9,10,10,9,9,11,9,3,11,9,0,
0,12,11,10,12,10,12,11,6,9,12,9,11,2,9,9,12,11,10,9,11,11,9,10,2,7,11,2,12,10,6,11,10,1,10,9,11,12,2,4,12,11,4,9,10,9,9,12,10,9,3,7,3,11,8,10,9,12,10,11,12,3,11,2,7,12,10,6,5,10,9,9,3,9,10,3,12,10,2,10,9,10,4,11,9,11,11,10,11,12,12,10,9,9,10,12,9,11,9,0,
0,12,10,10,10,10,10,12,10,10,11,4,9,5,10,10,10,12,9,5,9,9,9,10,12,9,9,10,10,5,12,2,12,7,4,10,11,11,9,12,2,12,9,11,12,9,10,11,11,11,12,9,12,9,9,12,9,10,10,5,9,9,10,10,11,9,9,3,9,10,12,9,8,9,11,11,10,11,10,12,9,4,9,11,11,12,11,4,12,10,12,12,9,11,9,10,11,9,3,0,
0,11,11,11,12,4,10,11,5,2,12,12,10,12,2,12,10,6,12,4,11,12,9,9,9,9,11,11,12,11,4,4,11,10,9,10,4,9,9,8,9,12,11,12,12,12,11,11,9,9,9,9,7,11,12,12,11,9,2,7,11,4,12,12,11,9,10,10,9,11,11,9,10,10,11,10,9,9,4,12,10,10,11,10,12,10,12,10,3,11,11,11,11,6,10,11,10,5,6,0,
0,10,11,10,10,3,11,10,9,12,9,11,4,10,11,11,10,11,4,7,12,9,6,12,12,9,5,10,9,11,9,11,10,3,12,11,10,6,2,9,12,12,11,10,11,9,12,10,12,10,7,10,9,12,1,10,3,12,11,1,9,10,9,10,11,10,11,5,4,11,9,3,11,9,10,10,12,12,10,12,12,9,7,11,8,12,12,9,11,3,10,10,10,10,9,3,9,11,10,0,
0,4,11,2,11,10,4,11,12,11,11,11,12,9,10,12,9,2,12,9,9,11,2,9,9,10,9,10,11,9,9,10,4,3,4,9,4,9,10,6,3,12,12,8,12,9,9,12,12,11,2,9,11,12,11,10,12,5,11,10,7,12,10,4,9,6,12,7,3,3,4,10,11,11,11,11,9,3,2,10,9,9,4,11,9,10,12,11,2,9,11,3,12,10,10,10,9,9,10,0,
0,11,9,10,11,6,12,12,9,9,7,11,10,12,5,3,12,10,7,9,9,10,10,12,11,11,10,6,11,12,10,10,12,11,9,12,9,10,11,4,9,9,12,9,6,11,3,11,12,11,2,2,9,6,3,11,12,12,9,2,9,12,11,3,11,12,12,10,10,3,11,12,10,10,9,4,9,9,9,10,5,11,10,10,12,11,12,10,9,10,12,2,9,12,10,12,11,11,10,0,
0,11,12,12,9,11,10,12,11,4,9,12,11,10,12,10,8,4,10,12,9,9,10,11,9,11,10,12,9,9,12,11,11,9,10,12,9,11,10,12,2,6,9,10,8,12,9,10,12,9,12,12,3,11,12,12,12,11,11,10,12,9,9,4,1,9,2,9,9,12,2,8,11,2,7,7,9,9,12,4,9,11,10,12,10,9,10,12,2,10,10,11,9,12,12,12,3,9,11,0,
0,11,8,6,9,11,9,4,5,9,10,12,8,9,10,12,6,10,12,9,9,6,9,11,10,12,10,10,3,5,11,9,2,12,12,9,10,10,9,11,7,9,10,4,4,12,9,10,10,8,9,6,6,9,3,10,7,9,9,10,12,12,9,10,12,11,12,9,10,5,10,4,10,9,10,2,4,9,10,10,12,3,11,12,10,12,9,12,9,3,12,10,10,9,12,6,11,12,9,0,
0,10,5,12,10,12,9,12,4,11,9,10,12,10,10,8,11,10,9,12,10,9,2,10,9,10,9,11,10,12,5,10,12,6,10,9,2,11,11,7,10,5,3,11,9,12,9,12,3,12,12,10,11,3,9,9,9,11,6,11,9,12,12,12,10,9,12,5,12,12,9,9,9,11,9,8,10,12,3,10,6,11,12,7,9,9,10,12,12,10,10,11,3,10,12,9,10,9,9,0,
0,9,10,6,11,10,9,10,12,1,11,10,3,11,10,9,9,9,12,11,2,12,9,8,11,11,9,12,9,12,8,9,12,12,12,9,9,11,11,11,12,11,11,12,12,11,12,9,9,11,3,2,11,10,11,11,12,10,11,10,10,11,3,3,12,10,10,11,4,10,12,11,10,12,12,10,9,11,11,12,9,8,9,9,12,3,10,11,12,11,2,11,9,9,2,11,12,10,11,0,
0,4,11,11,12,10,10,10,11,8,10,5,10,12,12,7,12,7,9,9,9,11,2,6,12,9,6,9,10,3,5,10,9,7,2,12,11,9,2,11,9,6,9,12,9,12,10,12,9,3,12,10,12,9,10,3,11,3,8,10,12,12,5,9,10,9,12,11,9,9,12,10,9,9,10,9,12,11,11,10,10,2,12,11,11,10,10,12,2,12,12,11,4,11,12,12,11,11,11,0,
0,2,11,12,3,12,9,10,10,3,11,11,12,12,10,10,11,11,8,11,11,10,8,2,10,2,10,10,10,5,9,9,10,12,12,9,12,10,9,4,3,10,12,12,11,11,11,12,11,9,9,12,3,2,9,12,11,10,10,1,10,10,11,2,4,10,12,10,12,3,7,12,9,10,10,12,10,10,10,12,9,8,10,12,11,9,10,12,11,9,10,10,10,12,12,10,12,11,12,0,
0,4,11,10,9,12,12,9,4,4,7,1,12,12,9,3,9,11,9,2,11,9,10,12,12,10,12,12,11,11,9,12,9,6,11,11,9,3,11,11,11,3,9,10,9,10,9,12,4,4,4,11,12,9,12,11,12,2,12,11,11,12,11,10,11,11,2,11,3,11,12,11,9,9,12,10,9,10,11,3,3,11,11,10,3,9,7,11,9,11,11,11,11,2,4,11,9,11,9,0,
0,3,12,9,12,12,11,5,11,4,9,3,9,4,9,9,10,9,2,11,11,10,9,9,12,10,12,9,2,10,2,12,9,10,10,10,11,3,9,10,7,11,11,12,9,11,6,3,11,11,9,12,4,10,9,10,4,2,10,2,12,9,2,9,12,6,9,4,12,12,11,9,4,11,12,6,10,9,4,9,11,11,5,12,5,12,12,10,5,9,9,12,11,10,2,11,2,10,9,0,
0,11,2,11,7,11,5,7,3,9,12,12,9,9,9,10,11,9,10,12,1,10,3,9,8,11,12,12,11,10,10,9,10,2,9,12,10,11,12,3,12,11,11,7,10,11,12,10,12,11,2,12,9,10,12,10,2,9,11,10,12,12,9,10,9,10,6,2,10,9,5,10,10,9,6,3,12,11,11,10,9,8,11,10,11,9,10,10,9,11,9,12,10,10,11,11,12,9,6,0,
0,12,2,12,4,9,9,12,6,12,10,10,9,11,12,10,10,11,12,11,10,11,9,2,9,12,11,12,10,11,12,4,12,9,12,9,11,10,4,9,12,12,9,10,12,3,3,10,10,10,12,9,12,10,10,11,4,10,12,9,11,11,9,12,12,9,9,3,12,3,10,11,10,11,5,9,10,12,12,9,9,9,9,12,10,12,7,3,11,11,10,8,5,9,4,12,9,12,12,0,
0,5,10,8,10,10,11,9,10,9,9,10,11,12,2,10,11,10,10,11,12,10,10,3,11,6,9,4,9,9,11,10,9,7,3,9,9,9,4,10,11,10,9,9,11,9,11,10,10,10,2,2,11,9,9,9,10,9,9,11,3,10,10,12,12,9,3,10,11,3,5,9,9,2,9,11,10,11,11,11,10,11,10,11,10,9,10,9,6,10,12,5,9,9,10,10,12,10,11,0,
0,11,10,9,11,11,9,2,12,9,10,12,12,7,3,12,10,3,11,12,12,10,10,11,11,9,12,12,12,9,12,9,6,2,9,4,9,11,9,12,9,3,3,10,11,9,11,11,9,2,11,11,10,11,10,2,10,12,9,9,11,10,6,12,6,9,11,10,12,10,9,12,12,10,12,3,12,10,9,9,11,11,9,11,11,12,12,3,3,10,3,8,3,10,12,11,9,11,12,0,
0,11,12,12,2,10,11,12,10,12,9,10,9,10,9,11,10,11,9,11,10,5,9,12,12,9,11,2,10,10,11,12,12,6,12,9,12,10,10,9,12,10,12,9,12,9,12,8,12,10,9,4,9,12,2,9,9,9,12,12,9,12,12,8,10,12,10,9,12,6,2,11,10,11,10,2,11,12,11,10,10,12,11,12,4,9,7,12,10,9,11,2,11,9,12,3,3,12,10,0,
0,11,9,9,11,12,9,10,12,9,9,12,11,2,9,8,9,9,10,4,10,9,12,4,9,3,10,2,2,2,9,12,9,11,12,11,11,11,9,11,11,10,9,12,11,11,9,9,12,11,9,9,7,9,10,11,9,8,12,9,7,4,10,4,9,12,11,11,10,10,4,12,12,3,10,11,10,10,11,4,2,10,4,11,11,9,11,9,6,9,8,10,10,9,10,9,5,11,10,0,
0,10,11,12,10,10,11,10,12,9,9,10,10,12,9,11,9,11,9,9,9,4,10,3,11,11,11,12,9,11,10,11,11,9,10,10,9,12,11,10,9,11,9,11,12,11,10,10,7,12,10,9,9,2,10,10,11,11,4,9,12,10,12,12,10,4,12,11,11,11,11,9,11,10,11,12,11,9,12,11,4,10,12,11,10,4,11,9,10,1,5,10,9,11,5,11,10,11,10,0,
0,4,10,11,8,11,9,9,11,5,9,9,10,9,4,9,10,11,6,4,8,10,9,7,5,10,11,11,11,9,9,12,12,9,11,8,12,11,9,11,11,2,12,9,12,12,12,9,12,12,8,11,9,9,3,10,12,12,3,12,10,9,4,11,9,10,11,6,9,4,10,10,12,9,9,12,11,9,2,9,11,12,3,9,10,12,11,12,11,9,10,10,11,12,10,9,11,2,10,0,
0,9,9,12,3,9,7,10,11,9,11,12,11,10,12,11,11,12,10,10,7,11,9,11,12,10,12,11,12,10,10,2,11,10,9,11,12,10,10,12,9,9,10,11,7,11,5,11,8,10,7,11,9,6,10,10,11,12,11,12,4,12,9,9,11,12,9,11,11,11,9,9,9,3,9,12,4,11,12,11,12,12,12,2,11,10,4,2,5,9,10,12,11,5,12,11,10,10,10,0,
0,10,10,12,11,9,11,10,3,2,11,11,10,9,10,11,10,12,9,12,12,10,9,12,11,11,10,3,3,2,11,9,9,12,9,9,12,3,11,9,12,10,9,10,9,9,3,12,11,11,12,12,11,12,12,2,10,9,11,10,9,10,4,1,12,10,11,11,12,9,2,10,11,10,3,10,11,10,8,9,9,12,11,3,9,9,4,9,12,12,9,10,10,11,9,9,9,9,10,0,
0,2,2,10,11,11,11,12,6,8,9,10,11,12,11,9,10,11,9,8,10,12,9,5,3,12,10,12,11,12,12,11,10,9,8,3,3,10,11,8,6,9,12,5,12,3,11,9,11,11,10,12,12,12,10,7,11,5,8,11,11,9,10,9,9,12,10,2,12,10,12,3,11,8,11,9,11,8,12,10,10,8,9,12,10,12,7,3,7,12,11,12,10,9,6,3,10,9,9,0,
0,11,12,11,10,11,3,9,10,12,11,6,8,11,12,12,12,10,9,9,10,12,5,10,10,3,11,4,12,6,9,10,11,10,12,12,11,4,11,7,12,8,11,5,12,10,11,2,9,9,1,11,10,6,4,9,11,12,12,6,10,2,10,9,10,3,12,10,12,12,11,10,9,3,12,11,10,4,11,10,4,9,12,11,12,8,12,12,12,11,9,11,9,9,2,9,10,11,11,0,
0,10,12,10,8,11,5,11,10,9,10,3,10,9,10,5,11,9,10,12,8,9,12,11,11,9,10,3,11,5,11,2,12,11,5,12,11,12,11,9,9,10,11,12,11,10,4,10,11,9,10,11,9,5,11,8,11,9,9,9,10,3,10,11,5,11,11,8,7,11,3,9,10,4,12,12,10,10,9,10,12,11,11,2,12,10,12,12,12,2,11,11,9,10,10,12,11,3,9,0,
0,11,12,10,7,10,11,9,11,9,2,9,11,5,11,10,10,12,3,5,11,2,4,2,12,11,12,7,7,9,11,6,12,11,12,11,9,9,10,4,5,12,10,11,11,9,5,8,9,11,4,12,9,9,11,7,10,12,10,11,10,2,10,7,3,11,12,12,11,9,12,2,4,11,9,9,9,12,2,7,9,10,12,12,12,9,9,7,11,4,8,9,11,1,9,11,11,11,5,0,
0,4,2,12,10,10,9,9,10,9,11,11,9,12,3,10,9,11,9,11,10,9,10,12,9,9,9,9,12,10,12,11,9,10,10,2,12,9,12,10,11,12,12,4,9,10,3,7,11,10,10,10,10,12,11,10,10,6,10,10,6,4,2,12,12,9,10,11,11,9,10,11,4,9,10,12,10,11,3,10,10,3,10,10,2,2,11,3,11,9,11,9,7,10,6,9,9,11,10,0,
0,2,12,10,12,11,11,4,10,4,10,12,8,10,10,9,9,9,11,10,10,9,9,10,11,12,8,11,3,10,12,11,8,11,12,11,10,11,12,11,10,9,7,10,11,10,8,10,11,9,12,11,12,8,9,9,9,12,10,11,6,9,12,6,11,11,9,12,9,11,10,8,11,9,12,10,9,11,9,9,9,11,10,9,10,11,12,10,11,9,2,10,11,10,9,11,10,9,4,0,
0,10,11,2,11,11,11,9,12,6,11,10,12,11,9,9,9,4,12,10,12,10,5,12,4,9,12,3,11,10,12,9,10,12,10,12,12,9,11,10,12,10,4,10,9,11,10,11,9,11,9,11,12,9,2,10,12,12,10,11,11,10,9,11,10,10,2,5,12,9,11,9,9,10,10,12,12,7,11,9,4,3,12,12,12,9,4,6,2,10,6,10,9,2,8,11,11,10,12,0,
0,7,9,11,10,11,6,9,12,11,12,11,12,11,7,9,9,10,9,10,3,10,11,12,12,11,10,10,12,9,9,9,9,12,10,10,9,9,9,5,11,9,8,12,10,9,3,9,12,11,9,11,11,9,11,9,9,10,12,11,12,11,9,9,9,10,12,7,9,12,12,3,11,10,3,12,10,3,8,10,12,11,2,10,10,2,11,9,11,3,10,10,8,9,9,10,4,10,9,0,
0,11,9,7,11,10,10,10,11,9,12,11,11,11,12,11,9,9,10,12,12,11,9,9,10,12,12,10,10,6,9,12,12,10,10,11,5,4,11,12,11,12,6,12,9,9,12,10,9,10,11,9,7,11,12,10,11,10,10,11,10,11,9,9,10,10,10,2,10,10,11,9,4,12,10,12,12,12,10,10,10,12,2,10,10,12,8,12,12,9,11,9,9,10,11,10,9,12,10,0,
0,0,0,0,0,0,0,0,0,0,0,0,0,0,0,0,0,0,0,0,0,0,0,0,0,0,0,0,0,0,0,0,0,0,0,0,0,0,0,0,0,0,0,0,0,0,0,0,0,0,0,0,0,0,0,0,0,0,0,0,0,0,0,0,0,0,0,0,0,0,0,0,0,0,0,0,0,0,0,0,0,0,0,0,0,0,0,0,0,0,0,0,0,0,0,0,0,0,0,0
</data>
 </layer>
 <layer id="1" name="Wall" width="100" height="100" tintcolor="#3599a7">
  <data encoding="csv">
23,24,59,24,59,59,59,59,59,24,24,59,24,24,24,24,24,59,24,24,24,59,59,59,24,24,59,59,24,59,24,59,24,24,59,24,59,24,24,59,24,24,59,59,59,24,24,59,59,59,59,59,59,59,24,24,24,24,59,59,59,59,59,24,59,59,24,59,24,59,24,59,59,59,59,59,59,24,24,24,24,59,59,24,59,24,24,24,59,59,24,59,24,24,59,24,24,59,59,25,
44,40,40,40,40,40,40,40,40,40,40,40,40,40,40,40,40,40,40,40,40,40,40,40,40,40,40,40,40,40,40,40,40,40,40,40,40,40,40,40,40,40,40,40,40,40,40,40,40,40,40,40,40,40,40,40,40,40,40,40,40,40,40,40,40,40,40,40,40,40,40,40,40,40,40,40,40,40,40,40,40,40,40,40,40,40,40,40,40,40,40,40,40,40,40,40,40,40,40,41,
44,40,40,26,56,56,56,56,56,27,56,56,56,56,56,56,56,56,56,56,56,27,27,56,56,56,56,56,27,56,56,56,27,27,56,27,27,56,56,56,56,56,27,56,27,56,56,27,56,27,56,56,56,27,27,27,56,56,27,27,27,27,27,27,56,27,27,56,27,56,56,56,56,56,27,56,27,56,27,56,56,27,56,56,27,27,27,56,27,27,27,27,27,27,27,56,28,40,40,41,
39,40,26,57,0,0,0,0,0,0,0,0,0,0,0,0,0,0,0,0,0,0,0,0,0,0,0,0,0,0,0,0,0,0,0,0,0,0,0,0,0,0,0,0,0,0,0,0,0,0,0,0,0,0,0,0,0,0,0,0,0,0,0,0,0,0,0,0,0,0,0,0,0,0,0,0,0,0,0,0,0,0,0,0,0,0,0,0,0,0,0,0,0,0,0,0,55,28,40,41,
44,40,42,0,0,0,0,0,0,0,0,0,0,0,0,0,0,0,0,0,0,0,0,0,0,0,0,0,0,0,0,0,0,0,0,0,0,0,0,0,0,0,0,0,0,0,0,0,0,0,0,0,0,0,0,0,0,0,0,0,0,0,0,0,0,0,0,0,0,0,0,0,0,0,0,0,0,0,0,0,0,0,0,0,0,0,0,0,0,0,0,0,0,0,0,0,0,44,40,41,
44,40,41,0,0,0,0,0,0,0,0,0,0,0,0,0,0,0,0,0,0,0,0,0,0,0,0,0,0,0,0,0,0,0,0,0,0,0,0,0,0,0,0,0,0,0,0,0,0,0,0,0,0,0,0,0,0,0,0,0,0,0,0,0,0,0,0,0,0,0,0,0,0,0,0,0,0,0,0,0,0,0,0,0,0,0,0,0,0,0,0,0,0,0,0,0,0,44,40,41,
44,40,42,0,0,0,0,0,0,0,0,0,0,0,0,0,0,0,0,0,0,0,0,0,0,0,0,0,0,0,0,0,0,0,0,0,0,0,0,0,0,0,0,0,0,0,0,0,0,0,0,0,0,0,0,0,0,0,0,0,0,0,0,0,0,0,0,0,0,0,0,0,0,0,0,0,0,0,0,0,0,0,0,0,0,0,0,0,0,0,0,0,0,0,0,0,0,39,40,42,
39,40,41,0,0,0,0,0,0,0,0,0,0,17,18,18,50,30,19,0,0,0,0,0,0,0,0,0,0,0,0,0,0,0,0,0,0,0,0,0,0,0,0,0,0,0,0,0,0,0,0,0,0,0,0,0,0,0,0,0,0,0,0,0,0,0,0,0,0,0,0,0,0,0,0,0,0,0,0,0,0,0,0,0,0,0,0,0,0,0,0,0,0,0,0,0,0,39,40,41,
39,40,42,0,0,0,0,0,0,0,0,0,0,77,0,0,0,0,52,19,0,0,0,0,0,0,0,0,0,0,0,0,0,0,0,0,0,0,0,0,0,0,0,0,0,0,0,0,0,0,0,0,0,0,0,0,0,0,0,0,0,0,0,0,0,0,0,0,0,0,0,0,0,0,0,0,0,0,0,0,0,0,0,0,0,0,0,0,0,0,0,0,0,0,0,0,0,39,40,42,
39,40,42,0,0,0,0,0,0,0,0,0,0,0,0,0,0,0,0,52,19,0,0,0,0,0,0,0,0,0,0,0,0,0,0,0,0,0,0,0,0,0,0,0,0,0,0,0,0,0,0,0,0,0,0,0,0,0,0,0,0,0,0,0,0,0,0,0,0,0,0,0,0,0,0,0,0,0,0,0,0,0,0,0,0,0,0,0,0,0,0,0,0,0,0,0,0,39,40,41,
39,40,42,0,0,0,0,0,0,0,0,0,0,0,0,0,0,0,0,0,52,22,0,0,0,0,0,0,0,0,0,0,0,0,0,0,0,0,0,0,0,0,0,0,0,0,0,0,0,0,0,0,0,0,0,0,0,0,0,0,0,0,0,0,0,0,0,0,0,0,0,0,0,0,0,0,0,0,0,0,0,0,0,0,0,0,0,0,0,0,0,0,0,0,0,0,0,39,40,42,
39,40,41,0,0,0,0,0,0,0,0,0,0,0,0,0,0,0,0,0,0,33,0,0,0,0,0,0,0,0,0,0,0,0,0,0,0,0,0,0,0,0,0,0,0,0,0,0,0,0,0,0,0,0,0,0,0,0,0,0,0,0,0,0,0,0,0,0,0,0,0,0,0,0,0,0,0,0,0,0,0,0,0,0,0,0,0,0,0,0,0,0,0,0,0,0,0,39,40,42,
39,40,42,0,0,0,0,0,0,0,0,0,0,0,0,0,0,0,0,0,0,35,0,0,0,0,0,0,0,0,0,0,0,0,0,0,0,0,0,0,0,0,0,0,0,0,0,0,0,0,0,0,0,0,0,0,0,0,0,0,0,0,0,0,0,0,0,0,0,0,0,0,0,0,0,0,0,0,0,0,0,0,0,0,0,0,0,0,0,0,0,0,0,0,0,0,0,39,40,41,
44,40,42,0,0,0,0,0,0,0,0,0,0,0,0,0,0,0,0,17,50,54,0,0,0,0,0,0,0,0,0,0,0,0,0,0,0,0,0,0,0,0,0,0,0,0,0,0,0,0,0,0,0,0,0,0,0,0,0,0,0,0,0,0,0,0,0,0,0,0,0,0,0,0,0,0,0,0,0,0,0,0,0,0,0,0,0,0,0,0,0,0,0,0,0,0,0,44,40,41,
39,40,42,0,0,0,0,0,0,0,0,0,0,0,29,30,30,30,30,53,19,0,0,0,0,0,0,0,0,0,0,0,0,0,0,0,0,0,0,0,0,0,0,0,0,0,0,0,0,0,0,0,0,0,0,0,0,0,0,0,0,0,0,0,0,0,0,0,0,0,0,0,0,0,0,0,0,0,0,0,0,0,0,0,0,0,0,0,0,0,0,0,0,0,0,0,0,44,40,41,
39,40,41,0,0,0,0,0,0,0,0,0,0,0,0,0,0,0,0,0,49,19,0,0,0,0,0,0,0,0,0,0,0,0,0,0,0,0,0,0,0,0,0,0,0,0,0,0,0,0,0,0,0,0,0,0,0,0,0,0,0,0,0,0,0,0,0,0,0,0,0,0,0,0,0,0,0,0,0,0,0,0,0,0,0,0,0,0,0,0,0,0,0,0,0,0,0,44,40,42,
44,40,42,0,0,0,0,0,0,0,0,0,0,0,0,0,0,0,0,0,0,61,0,0,0,0,0,0,0,0,0,0,0,0,0,0,0,0,0,150,151,152,150,151,152,150,151,152,150,151,152,150,151,152,0,0,0,0,0,0,0,0,0,0,0,0,0,0,0,0,0,0,0,0,0,0,0,0,0,0,0,0,0,0,0,0,0,0,0,0,0,0,0,0,0,0,0,39,40,41,
44,40,42,0,0,0,0,0,0,0,0,0,0,0,0,0,0,0,0,0,0,35,0,0,0,0,0,0,0,0,0,0,0,0,0,0,0,0,0,166,167,168,166,167,168,166,167,168,166,167,168,166,167,168,150,151,152,150,151,152,150,151,152,150,151,152,150,151,152,0,0,0,0,0,0,0,0,0,0,0,0,0,0,0,0,0,0,0,0,0,0,0,0,0,0,0,0,39,40,42,
44,40,41,0,0,0,0,0,0,0,0,0,0,0,0,0,0,0,0,0,0,33,0,0,0,0,0,0,0,0,0,0,166,0,150,151,152,150,151,182,183,184,182,183,184,182,183,184,182,183,184,182,183,184,166,167,168,166,167,168,166,167,168,166,167,168,166,167,168,0,0,0,0,0,0,0,0,0,0,0,0,0,0,0,0,0,0,0,0,0,0,0,0,0,0,0,0,39,40,42,
39,40,42,0,0,0,0,0,0,0,0,0,0,0,0,0,0,0,0,20,30,51,0,0,0,0,0,0,0,0,0,0,167,150,166,167,168,166,167,168,150,151,152,150,151,150,151,152,150,151,152,150,151,152,150,151,152,150,151,152,150,151,152,150,151,152,150,151,152,0,0,0,0,0,0,0,0,0,0,0,0,0,0,0,0,0,0,0,0,0,0,0,0,0,0,0,0,44,40,41,
39,40,41,0,0,0,0,0,0,0,0,29,19,0,0,0,0,17,18,51,0,0,0,0,0,0,0,0,0,0,0,0,166,166,182,183,184,182,183,184,166,167,168,166,167,166,167,168,166,167,168,166,167,168,166,167,168,166,167,168,166,167,168,166,167,150,151,152,168,0,0,0,0,0,0,0,0,0,0,0,0,0,0,0,0,0,0,0,0,0,0,0,0,0,0,0,0,44,40,42,
39,40,41,0,0,0,0,0,0,0,0,0,49,18,50,50,50,51,0,0,0,0,0,0,0,0,0,0,0,0,0,183,152,150,151,152,166,182,183,184,182,183,184,182,183,182,183,184,182,183,184,182,183,184,182,183,184,182,183,184,182,183,184,182,183,166,167,168,184,152,0,0,0,0,0,0,0,0,0,0,0,0,0,0,0,0,0,0,0,0,0,0,0,0,0,0,0,44,40,42,
44,40,41,0,0,0,0,0,0,0,0,0,0,0,0,0,0,0,0,0,0,0,0,0,0,0,0,0,150,150,151,152,150,151,152,150,182,183,184,0,0,0,0,0,0,0,0,0,0,0,0,0,182,183,184,182,150,151,152,150,150,151,152,151,152,182,183,184,167,168,0,0,0,0,0,0,0,0,0,0,0,0,0,0,0,0,0,0,0,0,0,0,0,0,0,0,0,44,40,41,
39,40,42,0,0,0,0,0,0,0,0,0,0,0,0,0,0,0,0,0,0,0,0,0,0,0,0,0,166,150,151,152,150,151,150,166,182,183,184,0,0,0,0,0,0,0,0,0,0,0,0,0,0,0,0,0,166,167,168,166,166,167,168,167,168,150,151,152,150,151,152,150,151,152,150,151,152,0,0,0,0,0,0,0,0,0,0,0,0,0,0,0,0,0,0,0,0,39,40,42,
39,40,41,0,0,0,0,0,0,0,0,0,0,0,0,0,0,0,0,0,0,0,0,0,0,0,0,0,182,150,151,150,150,150,166,182,183,184,0,0,0,0,0,0,0,0,0,0,0,0,0,0,0,0,0,0,182,183,184,182,182,183,184,183,184,166,167,168,166,167,168,166,167,168,166,167,168,150,151,152,150,151,152,0,0,0,0,0,0,0,0,0,0,0,0,0,0,44,40,41,
44,40,41,0,0,0,0,0,0,0,0,0,0,0,0,0,0,0,0,0,0,0,0,0,0,0,0,0,0,150,150,166,150,166,182,183,184,0,0,0,0,0,0,0,0,0,0,0,0,0,0,0,0,0,0,0,0,0,0,0,0,0,150,151,152,182,183,184,182,183,184,182,183,184,182,183,184,166,167,168,166,167,168,0,0,0,0,0,0,0,0,0,0,0,0,0,0,44,40,41,
44,40,42,0,0,0,0,0,0,0,0,0,0,0,0,0,0,0,0,0,0,0,0,0,0,0,0,0,0,166,166,182,166,182,183,184,0,0,0,0,0,0,0,0,0,0,0,0,0,0,0,0,0,0,0,0,0,0,0,0,0,0,166,167,168,150,151,152,150,151,152,0,0,0,0,0,0,182,183,184,182,183,184,0,0,0,0,0,0,0,0,0,0,0,0,0,0,44,40,42,
39,40,42,0,0,0,0,0,0,0,0,0,0,0,0,0,0,0,0,0,0,0,0,0,0,0,0,0,0,182,182,183,182,183,184,0,0,0,0,0,0,0,0,0,0,0,0,0,0,0,0,0,0,0,0,0,0,0,0,0,0,0,182,183,184,166,167,168,166,167,168,0,0,0,0,0,0,0,0,0,0,0,0,0,0,0,0,0,0,0,0,0,0,0,0,0,0,39,40,42,
44,40,42,0,0,0,0,0,0,0,0,0,0,0,0,0,0,0,0,0,0,0,0,0,0,0,0,0,0,0,150,182,166,0,0,0,0,0,0,0,0,0,0,0,0,0,0,0,0,0,0,0,0,0,0,0,0,0,0,0,0,0,0,0,150,182,183,184,182,183,184,0,0,0,0,0,0,0,0,0,0,0,0,0,0,0,0,0,0,0,0,0,0,0,0,0,0,39,40,42,
39,40,42,0,0,0,0,0,0,0,0,0,0,0,0,0,0,0,0,0,0,0,0,0,0,0,0,0,0,168,168,168,152,0,0,0,0,0,0,0,0,0,0,0,0,0,0,0,0,0,0,0,0,0,0,0,0,0,0,0,0,0,0,0,166,150,151,152,150,151,152,0,0,0,0,0,0,0,0,0,0,0,0,0,0,0,0,0,0,0,0,0,0,0,0,0,0,44,40,42,
44,40,41,0,0,0,0,0,0,0,0,0,0,0,0,0,0,0,0,0,0,0,0,0,0,0,0,0,0,167,167,166,182,167,167,0,0,0,0,0,0,0,0,0,0,0,0,0,0,0,0,0,0,0,0,0,0,0,0,0,0,0,0,0,182,166,167,168,166,167,168,0,0,0,0,0,0,0,0,0,0,0,0,0,0,0,0,0,0,0,0,0,0,0,0,0,0,44,40,41,
44,40,42,0,0,0,0,0,0,0,0,0,0,0,0,0,0,0,0,0,0,0,0,0,0,0,0,0,0,182,182,183,151,151,0,0,0,0,0,0,0,0,0,0,0,0,0,0,0,0,0,0,0,0,0,0,0,0,0,0,0,0,0,0,0,182,183,184,182,183,184,0,0,0,0,0,0,0,0,0,0,0,0,0,0,0,0,0,0,0,0,0,0,0,0,0,0,44,40,41,
39,40,42,0,0,0,0,0,0,0,0,0,0,0,0,0,0,0,0,0,0,0,0,0,0,0,0,0,0,151,151,152,182,183,0,0,0,0,0,0,0,0,0,0,0,0,0,0,0,0,0,0,0,0,0,0,0,0,0,0,0,0,0,0,0,150,151,152,150,151,152,0,0,0,0,0,0,0,0,0,0,0,0,0,0,0,0,0,0,0,0,0,0,0,0,0,0,44,40,41,
39,40,41,0,0,0,0,0,0,0,0,0,0,0,0,0,0,0,0,0,0,0,0,0,0,0,0,0,0,184,0,182,184,0,0,0,0,0,0,0,0,0,0,0,0,0,0,0,0,0,0,0,0,0,0,0,0,0,0,0,0,0,0,0,0,166,167,168,166,167,168,0,0,0,0,0,0,0,0,0,0,0,0,0,0,0,0,0,0,0,0,0,0,0,0,0,0,39,40,42,
39,40,41,0,0,0,0,0,0,0,0,0,0,0,0,0,0,0,0,0,0,0,0,0,0,0,0,0,0,184,0,168,0,0,0,0,0,0,0,0,0,0,0,0,0,0,0,0,0,0,0,0,0,0,0,0,0,0,0,0,0,0,0,0,0,182,183,184,182,183,184,152,0,0,0,0,0,0,0,0,0,0,0,0,0,0,0,0,0,0,0,0,0,0,0,0,0,44,40,41,
39,40,42,0,0,0,0,0,0,0,0,0,0,0,0,0,0,0,0,0,0,0,0,0,0,0,0,0,0,0,0,150,0,0,0,0,0,0,0,0,0,0,0,0,0,0,0,0,0,0,0,0,0,0,0,0,0,0,0,0,0,0,0,0,0,150,151,152,150,151,152,168,0,0,0,0,0,0,0,0,0,0,0,0,0,0,0,0,0,0,0,0,0,0,0,0,0,39,40,41,
44,40,41,0,0,0,0,0,0,0,0,0,0,0,0,0,0,0,0,0,0,0,0,0,0,0,0,0,0,0,0,0,0,0,0,0,0,0,0,0,0,0,0,0,0,0,0,0,0,0,0,0,0,0,0,0,0,0,0,0,0,0,0,0,0,166,167,168,166,167,168,184,0,0,0,0,0,0,0,0,0,0,0,0,0,0,0,0,0,0,0,0,0,0,0,0,0,39,40,42,
39,40,42,0,0,0,0,0,0,0,0,0,0,0,0,0,0,0,0,0,0,0,0,0,0,0,0,0,0,0,0,0,0,0,0,0,0,0,0,0,0,0,0,0,0,0,0,0,0,0,0,0,0,0,0,0,0,0,0,0,0,0,0,0,0,182,183,184,182,183,184,150,151,152,0,0,0,0,0,0,0,0,0,0,0,0,0,0,0,0,0,0,0,0,0,0,0,39,40,41,
44,40,42,0,0,0,0,0,0,0,0,0,0,0,0,0,0,0,0,0,0,0,0,0,0,0,0,0,0,0,0,0,0,0,0,0,0,0,0,0,0,0,0,0,0,0,0,0,0,0,0,0,0,0,0,0,0,0,0,0,0,0,0,0,0,150,151,152,150,151,152,166,167,168,0,0,0,0,0,0,0,0,0,0,0,0,0,0,0,0,0,0,0,0,0,0,0,39,40,42,
39,40,42,0,0,0,0,0,0,0,0,0,0,0,0,0,0,0,0,0,0,0,0,0,0,0,0,0,0,0,0,0,0,0,0,0,0,0,0,0,0,0,0,0,0,0,0,0,0,0,0,0,0,0,0,0,0,0,0,0,0,0,0,0,0,166,167,168,166,167,168,182,183,184,0,0,0,0,0,0,0,0,0,0,0,0,0,0,0,0,0,0,0,0,0,0,0,44,40,42,
39,40,42,0,0,0,0,0,0,0,0,0,0,0,0,0,0,0,0,0,0,0,0,0,0,0,0,0,0,0,0,0,0,0,0,0,0,0,0,0,0,0,0,0,0,0,0,0,0,0,0,0,0,0,0,0,0,0,0,0,0,0,0,0,0,182,183,184,182,183,184,0,0,150,151,152,0,0,0,0,0,0,0,0,0,0,0,0,0,0,0,0,0,0,0,0,0,44,40,41,
44,40,42,0,0,0,0,0,0,0,0,0,0,0,0,0,0,0,0,0,0,0,0,0,0,0,0,0,0,0,0,0,0,0,0,0,0,0,0,0,0,0,0,0,0,0,0,0,0,0,0,0,0,0,0,0,0,0,0,0,0,0,0,0,0,150,151,152,150,151,152,0,0,166,167,168,0,0,0,0,0,0,0,0,0,0,0,0,0,0,0,0,0,0,0,0,0,44,40,42,
39,40,42,0,0,0,0,0,0,0,0,0,0,0,0,0,0,0,0,0,0,0,0,0,0,0,0,0,0,0,0,0,0,0,0,0,0,0,0,0,0,0,0,0,0,0,0,0,0,0,0,0,0,0,0,0,0,0,0,0,0,0,0,0,0,166,167,168,166,167,168,0,0,182,183,184,0,0,0,0,0,0,0,0,0,0,0,0,0,0,0,0,0,0,0,0,0,44,40,42,
39,40,41,0,0,0,0,0,0,0,0,0,0,0,0,0,0,0,0,0,0,0,0,0,0,0,0,0,0,0,0,0,0,0,0,0,0,0,0,0,0,0,0,0,0,0,150,151,152,150,151,152,150,151,152,150,151,152,150,151,152,150,151,152,150,151,152,150,151,152,184,0,0,0,0,0,150,151,152,0,0,0,0,0,0,0,0,0,0,0,0,0,0,0,0,0,0,39,40,41,
44,40,42,0,0,0,0,0,0,0,0,0,0,0,0,0,0,0,0,0,0,0,0,0,0,0,0,0,0,0,0,0,0,0,0,0,0,0,0,0,0,0,0,0,0,0,166,167,168,166,167,168,166,167,168,166,167,168,166,167,168,166,167,168,166,167,168,166,167,168,152,0,0,0,0,0,166,167,168,0,0,0,0,0,0,0,0,0,0,0,0,0,0,0,0,0,0,44,40,41,
39,40,42,0,0,0,0,0,0,0,0,0,0,0,0,0,0,0,0,0,0,0,0,0,0,0,0,0,0,0,0,0,0,0,0,0,0,0,0,0,0,0,0,0,0,0,182,183,184,182,183,184,182,183,184,182,183,184,182,183,184,182,183,184,182,183,184,182,183,184,168,0,0,0,0,0,182,183,184,0,0,0,0,0,0,0,0,0,0,0,0,0,0,0,0,0,0,39,40,41,
39,40,41,0,0,0,0,0,0,0,0,0,0,0,0,0,0,0,0,0,0,0,0,0,150,151,152,150,151,152,150,151,152,0,0,0,0,0,0,0,0,0,150,151,152,150,151,152,150,151,152,150,151,152,150,151,152,150,151,152,150,151,152,150,151,152,150,151,152,183,184,0,0,0,0,0,0,0,0,0,0,0,0,0,0,0,0,0,0,0,0,0,0,0,0,0,0,44,40,42,
44,40,42,0,0,0,0,0,0,0,0,0,0,0,0,0,0,0,0,0,0,0,0,0,166,167,168,166,167,168,166,167,168,150,151,152,150,151,152,150,151,152,150,151,152,150,151,152,150,151,152,166,167,168,166,167,168,166,167,168,166,167,168,166,167,168,166,167,168,152,0,0,0,0,0,0,0,0,0,0,0,0,0,0,0,0,0,0,0,0,0,0,0,0,0,0,0,44,40,42,
39,40,41,0,0,0,0,0,0,0,0,0,0,0,0,0,0,0,0,0,0,0,0,0,182,183,184,182,183,184,182,183,184,166,167,168,166,167,168,166,167,168,166,167,168,166,167,168,166,167,168,150,151,152,150,151,152,150,151,152,150,151,152,182,183,184,182,183,184,168,0,0,0,0,0,0,0,0,0,0,0,0,0,0,0,0,0,0,0,0,0,0,0,0,0,0,0,39,40,41,
44,40,42,0,0,0,0,0,0,0,0,0,0,0,0,0,0,0,0,0,0,0,0,0,0,0,0,0,0,0,150,151,152,150,151,152,150,151,152,150,151,152,150,151,152,150,151,152,182,183,184,166,167,168,166,167,168,166,167,168,166,167,168,0,0,182,183,150,151,152,0,0,0,0,0,0,0,0,0,0,0,0,0,0,0,0,0,0,0,0,0,0,0,0,0,0,0,44,40,41,
44,40,41,0,0,0,0,0,0,0,0,0,0,0,0,0,0,0,0,0,0,0,0,0,0,0,0,0,0,0,166,167,168,166,167,168,166,167,168,166,167,168,166,167,168,166,167,168,150,151,152,150,151,152,150,151,152,150,151,152,150,151,152,0,0,150,151,166,167,168,0,0,0,0,0,0,0,0,0,0,0,0,0,0,0,0,0,0,0,0,0,0,0,0,0,0,0,44,40,41,
39,40,41,0,0,0,0,0,0,0,0,0,0,0,0,0,0,0,0,0,0,0,0,0,0,0,0,0,0,0,182,183,184,182,183,184,182,183,184,182,183,184,182,183,184,150,151,152,150,151,152,150,151,152,150,151,152,150,151,152,150,151,152,150,151,152,150,151,152,150,151,152,150,151,152,0,0,0,0,0,0,0,0,0,0,0,0,0,0,0,0,0,0,0,0,0,0,44,40,42,
39,40,41,0,0,0,0,0,0,0,0,0,0,0,0,0,0,0,0,0,0,0,0,0,0,0,0,0,0,0,0,0,0,0,0,0,0,0,0,0,0,0,0,0,0,166,167,168,166,167,168,166,167,168,166,167,168,166,167,168,166,167,168,166,167,168,166,167,168,166,167,168,166,167,168,0,0,0,0,0,0,0,0,0,0,0,0,0,0,0,0,0,0,0,0,0,0,44,40,41,
44,40,41,0,0,0,0,0,0,0,0,0,0,0,0,0,0,0,0,0,0,0,0,0,0,0,0,0,0,0,0,0,0,0,0,0,0,0,0,0,0,0,0,0,0,182,183,184,182,183,184,182,183,184,182,183,150,151,152,150,151,152,150,151,152,150,151,152,150,151,152,150,151,152,184,0,0,0,0,0,0,0,0,0,0,0,0,0,0,0,0,0,0,0,0,0,0,39,40,42,
44,40,42,0,0,0,0,0,0,0,0,0,0,0,0,0,0,0,0,0,0,0,0,0,0,0,0,0,0,0,0,0,0,0,0,0,0,0,0,0,0,0,0,0,0,0,0,0,0,0,0,0,0,0,0,0,166,167,168,166,167,168,166,167,168,166,167,168,166,167,168,166,167,168,0,0,0,0,0,0,0,0,0,0,0,0,0,0,0,0,0,0,0,0,0,0,0,39,40,41,
39,40,42,0,0,0,0,0,0,0,0,0,0,0,0,0,0,0,0,0,0,0,0,0,0,0,0,0,0,0,0,0,0,0,0,0,0,0,0,0,0,0,0,0,0,0,0,0,0,0,0,0,0,0,0,0,182,183,184,150,151,152,150,151,152,150,151,152,150,151,152,150,151,152,0,0,0,0,0,0,0,0,0,0,0,0,0,0,0,0,0,0,0,0,0,0,0,44,40,42,
44,40,41,0,0,0,0,0,0,0,0,0,0,0,0,0,0,0,0,0,0,0,0,0,0,0,0,0,0,0,0,0,0,0,0,0,0,0,0,0,0,0,0,0,0,0,0,0,0,0,0,0,0,0,0,0,0,0,0,166,167,168,166,167,168,166,167,168,166,167,168,166,167,168,0,0,0,0,0,0,0,0,0,0,0,0,0,0,0,0,0,0,0,0,0,0,0,39,40,42,
39,40,41,0,0,0,0,0,0,0,0,0,0,0,0,0,0,0,0,0,0,0,0,0,0,0,0,0,0,0,0,0,0,0,0,0,0,0,0,0,0,0,0,0,0,0,0,0,0,0,0,0,0,0,150,151,152,150,151,182,183,184,182,183,184,182,183,184,182,183,184,182,183,184,0,0,0,0,0,0,0,0,0,0,0,0,0,0,0,0,0,0,0,0,0,0,0,44,40,42,
39,40,41,0,0,0,0,0,0,0,0,0,0,0,0,0,0,0,0,0,0,0,0,0,0,0,0,0,0,0,0,0,0,0,0,0,0,0,0,0,0,0,0,0,0,0,0,0,0,0,0,0,0,0,166,167,168,166,167,168,166,167,168,166,167,168,166,167,168,166,167,168,0,0,0,0,0,0,0,0,0,0,0,0,0,0,0,0,0,0,0,0,0,0,0,0,0,44,40,42,
39,40,42,0,0,0,0,0,0,0,0,0,0,0,0,0,0,0,0,0,0,0,0,0,0,0,0,0,0,0,0,0,0,0,0,0,0,0,0,0,0,0,0,0,0,0,0,0,0,0,0,0,0,0,182,183,184,182,183,184,182,183,184,182,183,184,182,150,151,152,150,151,152,0,0,0,0,0,0,0,0,0,0,0,0,0,0,0,0,0,0,0,0,0,0,0,0,44,40,42,
44,40,41,0,0,0,0,0,0,0,0,0,0,0,0,0,0,0,0,0,0,0,0,0,0,0,0,0,0,0,0,0,0,0,0,0,0,0,0,0,0,0,0,0,0,0,0,0,0,0,0,0,0,0,0,0,0,0,0,0,0,150,151,152,150,151,152,166,167,168,166,167,168,0,0,0,0,0,0,0,0,0,0,0,0,0,0,0,0,0,0,0,0,0,0,0,0,39,40,41,
44,40,42,0,0,0,0,0,0,0,0,0,0,0,0,0,0,0,0,0,0,0,0,0,0,0,0,0,0,0,0,0,0,0,0,0,0,0,0,0,0,0,0,0,0,0,0,0,0,0,0,0,0,0,0,0,0,0,0,0,0,166,167,168,166,167,168,182,183,184,182,183,184,0,0,0,0,0,0,0,0,0,0,0,0,0,0,0,0,0,0,0,0,0,0,0,0,39,40,41,
44,40,42,0,0,0,0,0,0,0,0,0,0,0,0,0,0,0,0,0,0,0,0,0,0,0,0,0,0,0,0,0,0,0,0,0,0,0,0,0,0,0,0,0,0,0,0,0,0,0,0,0,0,0,0,0,0,0,0,0,0,182,183,184,182,183,184,166,167,168,0,0,0,0,0,0,0,0,0,0,0,0,0,0,0,0,0,0,0,0,0,0,0,0,0,0,0,44,40,42,
44,40,42,0,0,0,0,0,0,0,0,0,0,0,0,0,0,0,0,0,0,0,0,0,0,0,0,0,0,0,0,0,0,0,0,0,0,0,0,0,0,0,0,0,0,0,0,0,0,0,0,0,0,0,0,0,0,0,0,0,0,0,0,0,0,166,167,182,183,184,0,0,0,0,0,0,0,0,0,0,0,0,0,0,0,0,0,0,0,0,0,0,0,0,0,0,0,44,40,41,
39,40,41,0,0,0,0,0,0,0,0,0,0,0,0,0,0,0,0,0,0,0,0,0,0,0,0,0,0,0,0,0,0,0,0,0,0,0,0,0,0,0,0,0,0,0,0,0,0,0,0,0,0,0,0,0,0,0,0,0,0,0,0,0,0,182,183,184,150,151,152,0,0,0,0,0,0,0,0,0,0,0,0,0,0,0,0,0,0,0,0,0,0,0,0,0,0,44,40,42,
44,40,42,0,0,0,0,0,0,0,0,0,0,0,0,0,0,0,0,0,0,0,0,0,0,0,0,0,0,0,0,0,0,0,0,0,0,0,0,0,0,0,0,0,0,0,0,0,0,0,0,0,0,0,0,0,0,0,0,0,0,0,0,0,0,150,151,152,166,167,168,0,0,0,0,0,0,0,0,0,0,0,0,0,0,0,0,0,0,0,0,0,0,0,0,0,0,44,40,41,
44,40,41,0,0,0,0,0,0,0,0,0,0,0,0,0,0,0,0,0,0,0,0,0,0,0,0,0,0,0,0,0,0,0,0,0,0,0,0,0,0,0,0,0,0,0,0,0,0,0,0,0,0,0,0,0,0,0,0,0,0,0,0,0,0,166,167,168,182,183,184,0,0,0,0,0,0,0,0,0,0,0,0,0,0,0,0,0,0,0,0,0,0,0,0,0,0,39,40,41,
44,40,42,0,0,0,0,0,0,0,0,0,0,0,0,0,0,0,0,0,0,0,0,0,0,0,0,0,0,0,0,0,0,0,0,0,0,0,0,0,0,0,0,0,0,0,0,0,0,0,0,0,0,0,0,0,0,0,0,0,0,0,0,0,0,182,183,184,150,151,152,0,0,0,0,0,0,0,0,0,0,0,0,0,0,0,0,0,0,0,0,0,0,0,0,0,0,39,40,41,
44,40,41,0,0,0,0,0,0,0,0,0,0,0,0,0,0,0,0,0,0,0,0,0,0,0,0,0,0,0,0,0,0,0,0,0,0,0,0,0,0,0,0,0,0,0,0,0,0,0,0,0,0,0,0,0,0,0,0,0,0,0,0,0,0,150,151,152,166,167,168,0,0,0,0,0,0,0,0,0,0,0,0,0,0,0,0,0,0,0,0,0,0,0,0,0,0,44,40,41,
39,40,42,0,0,0,0,0,0,0,0,0,0,0,0,0,0,0,0,0,0,0,0,0,0,0,0,0,0,0,0,0,0,0,0,0,0,0,0,0,0,0,0,0,0,0,0,0,0,0,0,0,0,0,0,0,0,0,0,0,0,0,0,0,0,166,167,168,182,183,184,0,0,0,0,0,0,0,0,0,0,0,0,0,0,0,0,0,0,0,0,0,0,0,0,0,0,39,40,42,
44,40,42,0,0,0,0,0,0,0,0,0,0,0,0,0,0,0,0,0,0,0,0,0,0,0,0,0,0,0,0,0,0,0,0,0,0,0,0,0,0,0,0,0,0,0,0,0,0,0,0,0,0,0,0,0,0,0,0,0,0,0,0,0,150,151,152,184,150,151,152,0,0,0,0,0,0,0,0,0,0,0,0,0,0,0,0,0,0,0,0,0,0,0,0,0,0,39,40,42,
39,40,41,0,0,0,0,0,0,0,0,0,0,0,0,0,0,0,0,0,0,0,0,0,0,0,0,0,0,0,0,0,0,0,0,0,0,0,0,0,0,0,0,0,0,0,0,0,0,0,0,0,0,0,0,0,0,0,0,0,0,0,0,0,166,167,168,152,166,167,168,0,0,0,0,0,0,0,0,0,0,0,0,0,0,0,0,0,0,0,0,0,0,0,0,0,0,39,40,41,
44,40,41,0,0,0,0,0,0,0,0,0,0,0,0,0,0,0,0,0,0,0,0,0,0,0,0,0,0,0,0,0,0,0,0,0,0,0,0,0,0,0,0,0,0,0,0,0,0,0,0,0,0,0,0,0,0,0,0,0,0,0,0,0,182,183,184,168,182,183,184,0,0,0,0,0,0,0,0,0,0,0,0,0,0,0,0,0,0,0,0,0,0,0,0,0,0,44,40,41,
44,40,42,0,0,0,0,0,0,0,0,0,0,0,0,0,0,0,0,0,0,0,0,0,0,0,0,0,0,0,0,0,0,0,0,0,0,0,0,0,0,0,0,0,0,0,0,0,0,0,0,0,0,0,0,0,0,0,0,0,0,150,151,152,150,151,152,184,150,151,152,0,0,0,0,0,0,0,0,0,0,0,0,0,0,0,0,0,0,0,0,0,0,0,0,0,0,44,40,42,
39,40,41,0,0,0,0,0,0,0,0,0,0,0,0,0,0,0,0,0,0,0,0,0,0,0,0,0,0,0,0,0,0,0,0,0,0,0,0,0,0,0,0,0,0,0,0,0,0,0,0,0,0,0,0,0,0,0,0,0,0,166,167,168,166,167,168,152,166,167,168,0,0,0,0,0,0,0,0,0,0,0,0,0,0,0,0,0,0,0,0,0,0,0,0,0,0,39,40,42,
44,40,41,0,0,0,0,0,0,0,0,0,0,0,0,0,0,0,0,0,150,151,152,150,151,152,150,151,152,0,0,0,0,0,0,0,0,0,0,0,0,0,0,0,0,0,0,0,0,0,0,0,0,0,0,0,0,0,0,0,0,182,183,184,182,183,184,168,182,183,184,0,0,0,0,0,0,0,0,0,0,0,0,0,0,0,0,0,0,0,0,0,0,0,0,0,0,39,40,42,
44,40,42,0,0,0,0,0,0,0,0,0,0,0,0,0,0,0,0,0,166,167,168,166,167,168,166,167,168,150,151,152,150,151,152,150,151,152,150,151,152,0,0,0,0,0,0,0,0,0,0,0,0,0,0,0,0,0,0,0,0,150,151,152,150,151,152,184,0,0,0,0,0,0,0,0,0,0,0,0,0,0,0,0,0,0,0,0,0,0,0,0,0,0,0,0,0,39,40,42,
39,40,42,0,0,0,0,0,0,0,0,0,0,0,0,0,0,150,151,152,150,151,152,150,151,152,150,151,152,150,151,152,166,167,168,166,167,168,166,167,168,150,151,152,150,151,152,150,151,152,150,151,152,150,151,152,0,0,0,0,0,166,167,168,166,167,168,152,0,0,0,0,0,0,0,0,0,0,0,0,0,0,0,0,0,0,0,0,0,0,0,0,0,0,0,0,0,39,40,41,
39,40,41,0,0,0,0,0,0,0,0,0,0,0,0,0,0,166,167,168,166,167,168,166,167,168,166,167,168,166,167,168,182,183,184,182,183,184,182,183,184,166,167,168,166,167,168,166,167,168,166,167,168,166,167,168,150,151,152,150,151,152,183,184,182,183,184,168,0,0,0,0,0,0,0,0,0,0,0,0,0,0,0,0,0,0,0,0,0,0,0,0,0,0,0,0,0,39,40,41,
39,40,42,0,0,0,0,0,0,0,0,0,0,0,0,0,0,182,183,184,182,183,184,182,183,184,182,183,184,182,183,184,0,0,0,0,0,0,0,0,0,182,183,184,182,183,184,182,183,184,182,183,184,182,183,184,166,167,168,166,167,168,151,152,150,151,152,184,0,0,0,0,0,0,0,0,0,0,0,0,0,0,0,0,0,0,0,0,0,0,0,0,0,0,0,0,0,39,40,42,
39,40,42,0,0,0,0,0,0,0,0,0,0,0,0,0,0,0,0,0,0,0,0,150,151,152,150,151,152,150,151,152,150,151,152,150,151,152,150,151,152,150,151,152,150,151,152,150,151,152,150,151,152,150,151,152,182,183,184,182,183,184,150,151,152,167,168,152,0,0,0,0,0,0,0,0,0,0,0,0,0,0,0,0,0,0,0,0,0,0,0,0,0,0,0,0,0,44,40,42,
44,40,41,0,0,0,0,0,0,0,0,0,0,0,0,0,0,0,0,0,0,0,0,166,167,168,150,151,152,150,151,152,150,151,152,150,151,152,150,151,152,166,167,168,166,167,168,166,167,168,166,167,168,166,167,168,166,167,168,166,167,168,166,167,168,183,184,168,0,0,0,0,0,0,0,0,0,0,0,0,0,0,0,0,0,0,0,0,0,0,0,0,0,0,0,0,0,44,40,42,
44,40,41,0,0,0,0,0,0,0,0,0,0,0,0,0,0,0,0,0,0,0,0,182,183,184,166,167,168,166,167,168,166,167,168,166,167,168,166,167,168,150,151,152,150,151,152,150,151,152,150,151,152,150,151,152,150,151,152,182,183,184,182,183,184,182,183,184,0,0,0,0,0,0,0,0,0,0,0,0,0,0,0,0,0,0,0,0,0,0,0,0,0,0,0,0,0,39,40,41,
44,40,42,0,0,0,0,0,0,0,0,0,0,0,0,0,0,0,0,0,0,0,0,0,0,150,151,152,150,151,152,150,151,152,150,151,152,150,151,152,150,151,152,150,151,152,150,151,152,168,166,167,168,166,167,168,166,167,168,0,0,166,167,168,0,150,151,152,0,0,0,0,0,0,0,0,0,0,0,0,0,0,0,0,0,0,0,0,0,0,0,0,0,0,0,0,0,44,40,42,
44,40,41,0,0,0,0,0,0,0,0,0,0,0,0,0,0,0,0,0,0,0,0,0,0,166,167,168,166,167,168,166,167,168,166,167,168,166,167,168,166,167,168,166,167,168,166,167,168,184,182,183,184,182,183,184,182,183,184,0,0,182,183,184,0,166,167,168,0,0,0,0,0,0,0,0,0,0,0,0,0,0,0,0,0,0,0,0,0,0,0,0,0,0,0,0,0,39,40,42,
44,40,41,0,0,0,0,0,0,0,0,0,0,0,0,0,0,0,0,0,0,0,0,0,0,182,183,184,182,183,184,182,183,184,182,183,184,182,183,184,182,183,184,182,183,184,182,183,184,0,0,0,0,0,0,0,0,0,0,0,0,0,0,0,0,182,183,184,0,0,0,0,0,0,0,0,0,0,0,0,0,0,0,0,0,0,0,0,0,0,0,0,0,0,0,0,0,39,40,42,
44,40,42,0,0,0,0,0,0,0,0,0,0,0,0,0,0,0,0,0,0,0,0,0,0,0,0,0,0,0,0,0,0,0,0,0,0,0,0,0,0,0,0,0,0,0,0,0,0,0,0,0,0,0,0,0,0,0,0,0,0,0,0,0,0,150,151,152,0,0,0,0,0,0,0,0,0,0,0,0,0,0,0,0,0,0,0,0,0,0,0,0,0,0,0,0,0,44,40,42,
39,40,41,0,0,0,0,0,0,0,0,0,0,0,0,0,0,0,0,0,0,0,0,0,0,0,0,0,0,0,0,0,0,0,0,0,0,0,0,0,0,0,0,0,0,0,0,0,0,0,0,0,0,0,0,0,0,0,0,0,0,0,0,0,0,166,167,168,0,0,0,0,0,0,0,0,0,0,0,0,0,0,0,0,0,0,0,0,0,0,0,0,0,0,0,0,0,39,40,42,
44,40,42,0,0,0,0,0,0,0,0,0,0,0,0,0,0,0,0,0,0,0,0,0,0,0,0,0,0,0,0,0,0,0,0,0,0,0,0,0,0,0,0,0,0,0,0,0,0,0,0,0,0,0,0,0,0,0,0,0,0,0,0,0,0,182,183,184,0,0,0,0,0,0,0,0,0,0,0,0,0,0,0,0,0,0,0,0,0,0,0,0,0,0,0,0,0,44,40,42,
44,40,42,0,0,0,0,0,0,0,0,0,0,0,0,0,0,0,0,0,0,0,0,0,0,0,0,0,0,0,0,0,0,0,0,0,0,0,0,0,0,0,0,0,0,0,0,0,0,0,0,0,0,0,0,0,0,0,0,0,0,0,0,0,0,150,151,152,0,0,0,0,0,0,0,0,0,0,0,0,0,0,0,0,0,0,0,0,0,0,0,0,0,0,0,0,0,39,40,41,
39,40,42,0,0,0,0,0,0,0,0,0,0,0,0,0,0,0,0,0,0,0,0,0,0,0,0,0,0,0,0,0,0,0,0,0,0,0,0,0,0,0,0,0,0,0,0,0,0,0,0,0,0,0,0,0,0,0,0,0,0,0,0,0,0,166,167,168,0,0,0,0,0,0,0,0,0,0,0,0,0,0,0,0,0,0,0,0,0,0,0,0,0,0,0,0,0,44,40,41,
44,40,41,0,0,0,0,0,0,0,0,0,0,0,0,0,0,0,0,0,0,0,0,0,0,0,0,0,0,0,0,0,0,0,0,0,0,0,0,0,0,0,0,0,0,0,0,0,0,0,0,0,0,0,0,0,0,0,0,0,0,0,0,0,0,182,183,184,0,0,0,0,0,0,0,0,0,0,0,0,0,0,0,0,0,0,0,0,0,0,0,0,0,0,0,0,0,44,40,42,
39,40,42,0,0,0,0,0,0,0,0,0,0,0,0,0,0,0,0,0,0,0,0,0,0,0,0,0,0,0,0,0,0,0,0,0,0,0,0,0,0,0,0,0,0,0,0,0,0,0,0,0,0,0,0,0,0,0,0,0,0,0,0,0,0,150,151,152,0,0,0,0,0,0,0,0,0,0,0,0,0,0,0,0,0,0,0,0,0,0,0,0,0,0,0,0,0,44,40,41,
39,40,41,0,0,0,0,0,0,0,0,0,0,0,0,0,0,0,0,0,0,0,0,0,0,0,0,0,0,0,0,0,0,0,0,0,0,0,0,0,0,0,0,0,0,0,0,0,0,0,0,0,0,0,0,0,0,0,0,0,0,0,0,0,0,166,167,168,0,0,0,0,0,0,0,0,0,0,0,0,0,0,0,0,0,0,0,0,0,0,0,0,0,0,0,0,0,39,40,42,
39,40,41,0,0,0,0,0,0,0,0,0,0,0,0,0,0,0,0,0,0,0,0,0,0,0,0,0,0,0,0,0,0,0,0,0,0,0,0,0,0,0,0,0,0,0,0,0,0,0,0,0,0,0,0,0,0,0,0,0,0,0,0,0,0,182,183,184,0,0,0,0,0,0,0,0,0,0,0,0,0,0,0,0,0,0,0,0,0,0,0,0,0,0,0,0,0,44,40,42,
39,40,42,0,0,0,0,0,0,0,0,0,0,0,0,0,0,0,0,0,0,0,0,0,0,0,0,0,0,0,0,0,0,0,0,0,0,0,0,0,0,0,0,0,0,0,0,0,0,0,0,0,0,0,0,0,0,0,0,0,0,0,0,0,0,0,0,0,0,0,0,0,0,0,0,0,0,0,0,0,0,0,0,0,0,0,0,0,0,0,0,0,0,0,0,0,0,44,40,41,
44,40,58,25,0,0,0,0,0,0,0,0,0,0,0,0,0,0,0,0,0,0,0,0,0,0,0,0,0,0,0,0,0,0,0,0,0,0,0,0,0,0,0,0,0,0,0,0,0,0,0,0,0,0,0,0,0,0,0,0,0,0,0,0,0,0,0,0,0,0,0,0,0,0,0,0,0,0,0,0,0,0,0,0,0,0,0,0,0,0,0,0,0,0,0,0,23,60,40,42,
39,40,40,58,59,59,59,59,59,59,24,24,24,59,59,24,59,24,24,24,24,59,24,59,24,59,24,59,24,59,59,59,59,59,24,59,59,24,24,59,24,24,24,59,24,24,24,59,59,24,59,59,59,59,24,59,24,24,24,59,24,24,59,24,24,59,24,59,59,59,24,24,24,59,24,59,24,59,24,24,59,24,24,24,24,59,24,59,59,24,59,24,24,24,24,24,60,40,40,41,
44,40,40,40,40,40,40,40,40,40,40,40,40,40,40,40,40,40,40,40,40,40,40,40,40,40,40,40,40,40,40,40,40,40,40,40,40,40,40,40,40,40,40,40,40,40,40,40,40,40,40,40,40,40,40,40,40,40,40,40,40,40,40,40,40,40,40,40,40,40,40,40,40,40,40,40,40,40,40,40,40,40,40,40,40,40,40,40,40,40,40,40,40,40,40,40,40,40,40,41,
55,27,56,56,56,56,56,27,56,27,27,27,56,27,27,56,56,27,56,27,56,27,27,27,27,56,56,27,56,56,56,56,27,27,27,56,27,56,27,56,27,27,56,56,27,56,27,56,27,56,27,27,27,27,27,27,56,56,56,27,27,56,27,56,27,56,27,56,27,27,56,27,56,27,56,27,56,27,56,27,27,27,27,56,56,27,27,27,27,56,56,56,56,27,56,27,56,27,56,57
</data>
 </layer>
</map>
