<?xml version="1.0" encoding="UTF-8"?>
<map version="1.11" tiledversion="1.11.2" orientation="orthogonal" renderorder="right-down" width="100" height="100" tilewidth="32" tileheight="32" infinite="0" nextlayerid="4" nextobjectid="3">
 <tileset firstgid="1" source="../TileSets/MuddyGround.tsx"/>
 <tileset firstgid="257" source="../TileSets/Wall.tsx"/>
 <layer id="2" name="Ground" width="100" height="100" locked="1">
  <data encoding="csv">
0,0,0,0,0,0,0,0,0,0,0,0,0,0,0,0,0,0,0,0,0,0,0,0,0,0,0,0,0,0,0,0,0,0,0,0,0,0,0,0,0,0,0,0,0,0,0,0,0,0,0,0,0,0,0,0,0,0,0,0,0,0,0,0,0,0,0,0,0,0,0,0,0,0,0,0,0,0,0,0,0,0,0,0,0,0,0,0,0,0,0,0,0,0,0,0,0,0,0,0,
0,36,33,33,4,34,36,36,35,33,34,18,3,34,33,36,33,35,4,35,36,35,36,35,35,35,35,34,34,1,36,33,35,19,34,34,19,4,34,18,20,35,3,33,34,36,35,34,34,33,35,36,33,34,36,33,2,4,33,36,34,36,34,4,36,3,33,3,34,36,19,34,34,34,35,34,35,3,35,18,35,17,36,33,36,34,17,36,33,2,34,33,35,35,35,35,33,33,33,0,
0,34,17,36,35,4,34,33,20,36,34,33,33,34,34,36,36,33,20,34,33,33,34,20,36,19,36,34,33,36,36,3,33,3,34,33,3,4,34,36,4,34,35,34,33,36,36,35,35,34,36,35,34,36,35,20,33,4,33,20,36,34,35,33,34,36,2,19,34,35,34,35,19,36,35,33,35,2,4,33,35,36,35,35,35,3,2,2,36,36,3,36,33,3,34,33,34,34,33,0,
0,36,33,19,35,33,34,34,33,35,35,33,34,35,20,3,34,33,36,34,34,36,34,36,34,34,34,34,33,35,34,34,33,36,18,36,18,3,33,36,33,35,34,36,36,34,35,2,35,35,36,18,34,35,34,36,33,36,35,33,33,36,35,33,1,35,35,34,34,36,36,35,33,35,34,18,36,33,36,33,34,36,2,34,33,35,33,36,34,36,34,33,35,34,35,36,33,35,3,0,
0,18,35,36,35,35,36,36,35,34,2,34,36,35,36,35,36,35,36,36,35,33,35,36,2,36,35,2,35,36,20,36,35,35,3,34,34,35,33,36,34,36,36,34,36,34,33,33,35,35,35,36,36,35,33,33,35,33,33,2,33,2,33,2,33,33,34,18,33,18,34,34,35,19,34,36,34,17,4,3,4,36,35,2,36,36,33,20,4,34,19,33,33,35,33,33,34,35,2,0,
0,3,35,34,33,35,2,35,36,20,35,36,33,17,34,3,36,36,33,34,36,33,35,2,34,36,34,35,35,35,36,33,33,35,34,34,35,2,33,35,36,4,33,34,2,2,34,35,34,35,34,33,35,36,3,36,34,34,36,33,36,34,34,2,35,35,34,36,36,36,36,33,33,33,36,35,36,33,34,36,36,36,36,34,35,33,36,33,33,17,36,4,36,35,33,34,33,3,35,0,
0,2,35,36,35,34,35,36,34,35,3,33,33,33,17,34,34,33,36,35,36,33,34,20,33,36,36,33,35,36,34,36,36,36,35,36,34,33,35,34,36,35,34,34,36,35,4,34,33,35,33,33,33,20,33,33,35,2,35,33,33,34,36,36,20,2,36,33,36,35,36,34,34,33,36,35,34,35,33,33,17,34,1,18,34,36,33,33,2,17,34,36,35,34,36,33,4,3,35,0,
0,33,36,35,34,36,35,4,35,35,36,33,2,35,33,33,17,33,35,36,33,36,35,33,36,4,33,33,35,34,34,33,33,33,34,4,35,35,34,34,3,33,36,34,3,36,35,34,35,35,4,35,4,35,33,36,3,36,36,36,35,33,34,35,36,17,17,35,35,36,3,35,35,33,3,20,34,3,17,36,2,3,33,34,35,2,33,33,34,36,2,33,33,35,17,34,33,33,36,0,
0,33,33,35,35,19,35,36,35,33,34,2,35,33,34,36,34,35,36,36,35,3,36,35,34,35,33,2,35,20,2,35,2,33,36,35,34,35,36,35,35,35,35,3,36,34,36,33,33,33,33,36,33,19,33,36,36,34,33,34,35,34,35,36,36,36,4,36,18,3,36,33,19,33,34,17,35,36,19,33,34,34,36,36,17,34,36,35,4,34,35,35,35,34,34,35,34,35,3,0,
0,35,36,33,34,33,35,33,33,4,36,35,18,34,35,35,36,36,34,17,18,34,34,34,34,33,34,3,35,34,18,18,18,36,2,34,35,33,36,36,34,35,36,34,33,3,35,20,36,34,33,36,36,35,33,36,3,36,35,36,35,35,4,36,35,33,36,34,35,35,34,35,33,33,35,35,35,35,34,34,34,35,34,34,17,20,34,33,35,33,34,36,36,34,33,34,33,35,34,0,
0,17,33,36,36,36,35,4,17,35,33,33,36,35,33,35,35,35,36,33,33,33,36,36,33,34,2,33,36,35,36,2,36,17,19,34,36,34,19,34,18,34,35,33,35,36,36,36,35,36,36,34,33,35,34,33,35,33,35,35,35,35,35,35,35,35,34,36,33,34,3,17,18,34,3,4,33,33,34,3,36,35,34,36,34,4,35,34,34,36,33,34,34,33,35,36,35,35,18,0,
0,33,34,33,35,35,36,33,35,33,34,33,34,33,2,36,33,35,35,34,35,19,33,35,2,36,35,35,36,35,33,33,36,33,33,35,36,35,33,36,33,36,18,34,36,36,33,35,33,34,34,33,35,33,35,4,19,17,34,35,36,36,2,36,33,33,35,35,36,20,35,34,33,33,34,34,34,35,17,19,33,33,33,36,36,18,3,36,17,35,35,34,33,33,34,3,35,34,35,0,
0,36,34,17,35,18,34,4,4,4,33,2,35,20,4,2,33,34,35,33,35,4,34,35,33,33,36,36,35,33,2,3,34,34,34,33,35,36,33,34,35,33,17,35,34,35,33,35,4,17,4,33,33,33,34,19,3,33,36,35,36,34,35,36,36,33,36,36,19,33,2,35,18,35,33,36,36,36,33,3,34,35,33,34,4,36,34,36,34,35,35,34,19,36,33,35,3,35,3,0,
0,34,4,34,35,33,35,33,4,35,34,35,36,33,34,33,36,35,34,33,3,33,35,35,19,33,34,34,34,36,34,33,36,34,36,36,36,2,35,17,4,35,3,36,33,35,4,20,4,4,2,33,35,35,18,36,34,34,36,34,18,19,33,20,34,35,2,33,20,34,34,33,33,35,36,19,2,35,33,36,19,34,34,34,33,4,36,35,35,36,36,36,33,36,4,36,33,35,36,0,
0,20,34,34,36,3,3,36,33,35,33,33,34,35,4,4,33,34,34,34,35,20,33,35,2,35,35,36,34,33,33,35,33,17,35,33,3,3,33,4,34,35,34,33,35,33,36,34,2,36,34,35,33,33,36,33,36,34,17,35,33,36,35,34,4,34,34,33,35,34,36,20,34,34,19,34,36,18,33,34,18,35,36,35,35,33,34,36,35,19,36,35,35,36,4,36,34,34,3,0,
0,34,34,35,36,35,20,4,36,36,18,33,33,4,36,18,33,36,36,3,36,35,33,35,35,35,35,36,36,36,34,34,36,35,33,35,4,34,33,34,33,36,33,33,20,17,33,36,34,3,18,36,35,36,34,35,34,34,35,35,35,36,36,35,33,36,34,35,33,36,33,36,35,3,36,36,36,34,36,35,4,36,33,33,35,34,33,35,35,35,35,36,33,33,34,2,36,35,34,0,
0,19,35,19,35,35,35,34,33,4,20,36,2,34,34,34,35,2,35,35,34,33,34,34,19,35,36,36,33,34,33,36,19,34,3,36,34,2,36,3,4,33,35,36,33,34,35,18,34,18,34,35,33,18,33,20,4,2,36,35,3,36,36,33,19,19,35,34,35,36,34,36,34,33,36,19,35,36,36,2,33,35,33,35,33,35,33,33,34,36,35,33,34,35,35,33,33,36,33,0,
0,35,17,35,34,34,33,34,33,35,34,36,34,33,36,36,33,33,34,35,18,33,36,35,36,34,33,35,33,33,33,35,33,36,33,35,33,34,35,35,35,35,3,35,36,33,3,34,18,36,35,33,2,19,2,36,36,35,33,2,36,17,35,35,33,35,33,35,17,36,33,35,35,36,33,33,35,34,33,35,4,20,17,36,35,35,34,34,19,33,18,34,36,33,33,35,34,34,33,0,
0,33,3,36,20,36,36,4,35,2,36,33,3,4,36,33,34,34,36,2,36,36,3,36,34,3,35,2,36,35,34,4,34,36,36,33,33,33,33,2,33,34,36,36,36,4,34,34,36,36,3,35,33,36,36,33,34,3,36,34,36,33,2,4,35,35,35,36,34,33,35,35,34,34,3,36,35,34,34,33,33,33,18,35,36,33,34,33,35,35,36,33,4,33,34,3,17,36,34,0,
0,34,33,34,36,4,36,34,35,35,34,33,36,2,3,36,34,34,35,34,19,36,35,34,35,35,35,35,33,33,33,35,34,33,34,36,33,36,33,36,36,35,2,36,34,34,34,33,35,33,35,35,34,36,4,36,35,33,33,33,4,36,2,34,36,36,34,34,33,35,36,34,2,34,35,34,3,33,33,36,36,35,4,33,35,35,36,33,33,2,19,35,33,35,2,35,36,20,36,0,
0,33,36,35,36,35,36,36,34,34,36,35,33,34,36,34,33,33,36,33,33,35,36,2,34,36,36,36,34,36,36,33,34,3,3,33,33,35,35,36,36,36,34,4,36,33,18,34,35,36,35,20,33,33,33,33,33,36,34,36,33,18,35,34,36,36,33,36,33,35,19,3,36,33,33,20,35,36,18,35,36,33,4,34,4,4,36,4,18,33,35,36,33,33,3,36,34,34,33,0,
0,33,35,34,2,17,36,4,35,34,35,33,33,35,35,2,34,35,20,33,36,33,34,33,36,36,36,35,36,36,34,34,35,20,34,35,34,33,34,33,3,35,33,36,20,34,19,3,36,35,34,17,36,18,34,3,35,35,35,35,34,35,34,36,2,36,35,36,34,2,35,34,19,20,33,36,34,36,2,19,34,17,34,36,34,33,36,35,20,35,33,4,36,35,33,19,33,34,36,0,
0,34,36,33,35,18,35,34,2,20,4,33,35,34,17,34,33,35,2,34,35,36,33,35,35,33,36,34,2,4,3,35,33,34,4,36,35,36,35,33,20,35,36,1,2,33,35,36,36,33,3,34,36,33,34,34,35,34,34,36,20,35,19,34,35,33,33,36,34,36,36,36,17,2,33,19,36,36,17,33,3,33,19,33,34,33,34,33,36,18,35,4,4,2,33,4,20,33,34,0,
0,4,35,33,34,34,33,34,35,35,33,34,33,35,20,34,33,34,34,20,34,34,36,35,36,36,33,17,36,35,34,36,33,34,36,34,35,2,34,17,33,3,35,34,35,36,33,34,17,35,35,35,2,36,36,34,4,33,3,35,33,36,35,35,35,34,33,36,34,4,35,36,2,33,35,36,36,33,3,4,33,33,2,2,33,33,36,34,33,2,35,36,34,36,35,36,36,35,35,0,
0,20,33,34,34,20,33,36,33,35,36,33,36,4,36,34,34,34,34,20,34,34,34,34,35,35,36,35,35,36,35,33,35,2,36,36,36,34,19,34,34,35,36,33,36,34,33,36,20,35,34,19,35,19,35,2,36,35,34,35,33,33,33,34,33,34,20,33,33,36,35,34,33,19,33,35,33,33,2,34,19,18,34,36,4,36,34,35,34,34,18,33,4,34,36,36,36,20,3,0,
0,3,35,36,33,33,35,4,36,33,35,36,34,33,33,36,36,35,34,35,20,36,36,19,33,2,35,33,34,3,36,35,4,20,34,4,33,3,35,34,33,33,35,4,2,18,36,36,36,2,36,36,35,34,33,33,35,33,35,18,34,34,34,33,36,33,33,33,33,35,34,34,34,4,36,33,35,17,36,35,17,35,33,4,18,33,33,34,34,36,2,36,35,20,33,35,36,33,3,0,
0,20,35,33,36,33,33,35,34,4,2,18,3,36,4,36,20,33,35,34,35,33,35,33,36,34,35,35,35,33,36,36,35,36,35,36,34,35,19,34,35,19,4,4,33,33,4,36,36,36,35,36,35,33,36,34,33,36,36,3,35,34,34,34,36,35,36,35,34,33,36,4,35,33,20,35,34,1,18,33,34,19,36,36,33,36,33,33,36,2,18,3,35,34,36,2,17,34,35,0,
0,35,34,35,34,35,33,34,33,33,33,34,34,33,35,33,3,3,35,36,34,36,35,36,19,34,1,17,36,34,33,33,36,35,35,34,19,19,34,36,34,35,35,35,33,2,34,33,4,36,34,2,36,36,18,33,34,36,35,33,34,33,36,19,36,35,35,35,33,36,3,36,35,33,36,3,2,36,35,33,33,36,34,34,2,35,35,36,35,33,3,35,33,18,3,33,34,33,35,0,
0,20,2,35,19,33,2,35,34,36,35,34,36,19,34,19,36,33,34,35,19,3,34,36,35,36,35,36,35,36,35,35,35,33,34,35,36,36,36,3,36,35,3,17,35,34,36,36,33,34,33,2,35,33,2,34,36,33,35,34,4,33,33,35,34,17,36,4,34,4,35,33,34,34,33,34,33,36,36,36,35,34,35,18,36,35,35,33,34,33,33,35,18,34,19,35,35,34,36,0,
0,36,34,34,34,35,35,4,36,34,33,36,2,34,36,36,33,35,33,4,35,34,34,33,33,20,35,34,33,36,33,34,20,3,19,33,33,35,33,33,2,1,2,33,35,36,33,36,3,34,4,34,33,19,2,20,36,36,20,33,33,33,36,36,33,33,35,3,34,35,36,33,36,35,34,35,18,36,34,4,33,36,36,36,34,33,36,33,33,20,3,35,34,34,36,4,33,34,19,0,
0,33,34,3,33,35,35,33,33,34,33,34,19,18,20,2,36,36,20,35,36,36,35,34,3,1,4,33,34,35,36,3,36,36,33,20,35,34,35,36,33,36,36,34,33,36,34,36,34,34,34,18,35,33,17,35,34,33,35,18,1,36,35,33,4,33,34,34,2,34,34,33,34,3,34,35,33,35,35,33,34,33,2,33,35,35,36,35,36,35,36,33,33,34,2,33,33,1,35,0,
0,35,36,33,34,34,35,35,33,34,35,17,36,2,35,35,19,33,17,20,34,36,18,17,35,3,33,35,33,36,35,18,36,3,33,35,4,33,36,34,35,35,35,33,34,34,35,33,35,34,34,34,35,2,35,34,36,17,4,3,4,33,36,3,33,4,36,33,2,36,35,4,34,36,35,34,35,35,36,33,3,36,33,17,36,35,17,35,20,35,36,35,3,34,35,19,36,34,35,0,
0,35,34,34,34,33,34,35,19,34,36,34,36,33,34,3,35,35,34,36,35,2,3,34,34,36,34,35,35,34,34,34,2,3,33,35,33,34,34,34,36,3,36,4,4,19,33,3,34,35,19,2,17,34,36,35,36,34,36,36,35,35,36,3,34,34,35,33,33,36,33,36,36,3,35,33,34,33,33,35,33,4,35,17,35,34,35,34,19,36,35,34,34,34,35,35,33,35,19,0,
0,36,36,33,4,18,33,35,33,35,33,36,35,18,34,35,35,20,35,36,34,34,36,34,33,35,36,34,35,4,36,3,35,20,34,33,36,4,4,34,35,36,2,35,35,34,33,20,35,33,35,34,34,35,33,20,35,36,2,34,33,4,33,34,34,33,33,2,36,34,3,36,33,35,35,34,36,35,36,36,35,35,18,19,35,34,4,34,36,3,2,35,36,33,35,33,17,36,33,0,
0,35,2,19,33,33,33,33,35,3,35,33,34,34,20,34,36,18,34,35,33,34,36,20,34,34,33,36,36,17,36,33,34,36,4,34,33,34,36,35,36,34,33,33,33,33,33,36,35,34,34,33,1,3,34,33,33,33,34,34,34,35,35,33,35,33,35,2,34,35,33,34,34,3,33,36,35,35,34,35,33,36,33,36,36,33,33,36,34,3,36,36,35,2,35,33,33,35,35,0,
0,34,34,34,36,34,36,18,33,34,35,2,34,33,33,2,35,34,4,36,35,33,34,35,34,17,36,17,36,33,35,17,35,3,3,3,34,4,33,34,33,19,36,35,34,35,34,34,3,34,20,36,35,35,34,33,36,34,34,33,35,35,35,36,2,36,20,36,35,4,34,35,35,33,34,2,33,4,33,18,33,35,34,36,19,35,34,36,36,33,33,36,33,35,33,34,36,35,35,0,
0,36,2,34,17,19,34,36,19,34,3,36,33,33,33,33,3,36,36,2,35,33,4,4,33,33,35,34,35,4,35,36,34,36,36,33,34,36,35,35,4,33,33,35,18,36,34,4,36,36,34,34,20,33,34,35,36,33,35,34,33,18,33,34,4,35,3,18,19,2,35,33,34,1,33,34,2,36,34,4,33,2,36,35,33,3,34,36,36,33,17,33,19,17,34,36,36,36,3,0,
0,2,3,4,35,35,36,35,36,33,35,36,4,18,36,20,36,34,34,35,34,35,36,4,3,34,34,17,33,36,36,36,33,34,4,3,36,33,33,1,33,35,4,36,33,35,33,34,33,34,36,33,36,17,2,3,33,34,4,34,34,36,33,34,33,34,18,34,33,34,35,35,34,35,34,33,36,35,36,35,36,35,36,34,33,4,33,35,36,2,20,35,35,3,35,34,33,33,33,0,
0,3,34,35,20,17,2,33,34,3,34,36,2,35,34,36,4,33,35,34,33,36,36,36,36,17,34,34,1,18,34,36,3,35,4,20,3,35,35,34,35,35,4,35,34,35,36,35,34,33,36,34,35,34,36,35,33,36,33,33,33,33,2,34,33,3,18,36,33,33,33,2,33,36,34,20,35,36,36,33,2,3,33,34,35,33,36,35,35,3,36,35,35,33,33,35,36,34,19,0,
0,17,35,3,35,18,34,36,33,33,35,35,33,34,35,20,4,34,36,35,35,36,35,34,34,33,34,17,34,36,36,3,35,36,35,34,34,35,36,36,33,35,33,33,35,33,2,36,34,34,33,36,35,2,33,34,4,33,33,18,34,35,35,35,36,34,36,35,35,2,33,36,36,19,18,33,33,34,33,34,36,36,33,3,33,1,33,34,35,35,35,33,33,36,36,36,34,33,34,0,
0,35,33,36,36,35,35,19,35,33,36,36,33,36,33,34,35,34,33,34,36,35,19,36,4,2,4,3,33,36,3,33,36,36,34,3,35,33,35,35,36,36,36,2,33,36,35,33,35,34,36,34,33,4,36,17,35,36,3,35,33,36,34,36,18,33,35,35,36,34,36,36,33,36,33,34,36,35,36,34,36,34,2,33,33,33,35,36,36,33,33,34,34,35,34,33,34,35,34,0,
0,2,35,34,2,36,34,34,2,35,33,2,35,33,35,33,35,34,36,36,3,36,34,34,33,36,35,4,35,33,35,17,33,35,35,36,35,36,2,3,33,34,36,34,36,35,20,34,33,3,36,36,34,36,35,33,3,33,20,33,35,33,35,4,36,3,33,33,33,3,4,35,34,36,35,35,33,36,35,35,34,34,35,18,33,34,33,18,35,36,36,35,34,35,35,33,34,34,36,0,
0,3,35,36,19,33,35,3,35,19,35,35,20,36,35,36,35,36,35,33,34,36,35,33,35,1,34,36,35,36,34,36,34,36,4,36,34,3,33,34,3,33,4,34,35,34,36,35,34,33,36,33,36,17,35,19,35,35,35,34,36,33,34,34,35,34,34,34,3,33,4,3,2,35,33,36,36,36,4,2,33,36,36,34,34,4,35,35,4,2,33,2,3,34,19,35,36,3,36,0,
0,33,19,33,34,33,35,33,3,33,33,33,33,34,34,20,34,34,35,36,33,33,35,33,35,36,33,34,19,34,35,33,35,35,34,35,35,35,36,36,19,2,19,34,2,35,19,17,34,4,34,4,34,35,36,34,35,35,35,33,35,34,35,36,34,36,34,34,4,2,33,35,36,34,33,2,33,33,34,33,34,35,33,36,36,2,34,35,34,35,35,35,35,35,3,35,18,33,36,0,
0,33,34,33,3,34,34,2,4,36,33,34,3,34,35,34,34,34,2,36,34,34,4,35,35,36,34,33,33,3,4,33,36,35,35,36,36,34,36,18,35,33,34,20,34,36,34,33,36,33,33,33,34,35,35,18,17,3,34,34,34,36,18,34,34,34,35,20,34,34,33,35,33,35,34,35,35,36,33,33,33,34,36,4,33,35,34,35,20,2,33,34,34,36,34,2,34,36,35,0,
0,34,33,35,4,33,34,35,36,35,4,3,33,34,36,4,33,33,20,36,34,34,36,35,34,33,4,35,35,34,35,33,36,33,34,34,36,18,4,33,35,33,17,18,34,34,33,3,36,36,33,34,34,33,33,4,35,36,34,35,2,2,33,35,33,4,33,33,36,34,36,4,2,34,3,33,36,33,36,33,33,4,34,33,34,35,35,4,35,34,34,4,36,34,34,35,35,35,34,0,
0,36,4,34,36,34,34,36,34,35,4,4,18,36,36,36,36,33,35,33,36,35,33,34,20,34,3,35,36,33,33,36,35,3,34,2,33,4,34,33,19,34,34,35,34,33,33,17,34,34,35,3,33,36,33,36,36,34,3,3,35,36,36,35,35,33,2,35,33,33,34,34,35,35,35,35,34,34,34,36,35,33,33,33,34,19,35,17,34,18,35,35,35,35,33,33,33,35,34,0,
0,18,1,34,33,34,34,33,36,33,33,34,1,35,33,33,33,35,33,36,36,35,36,34,36,35,34,35,4,3,36,34,17,36,36,34,3,33,36,34,35,35,34,34,36,35,33,33,33,35,34,36,35,3,35,35,36,36,34,3,35,36,35,36,17,33,3,3,33,33,35,19,2,36,34,35,36,36,33,36,36,34,4,35,20,34,34,35,2,33,35,33,33,35,33,35,36,36,3,0,
0,34,36,34,35,17,34,36,36,34,33,34,36,36,36,34,36,33,36,34,34,36,34,35,33,36,36,18,36,35,36,35,2,4,35,36,34,33,3,36,19,35,36,34,34,35,35,4,33,36,35,35,36,35,3,33,35,2,33,35,36,4,33,33,4,35,2,35,35,36,18,34,36,3,1,33,35,36,2,35,36,35,34,4,33,36,33,35,34,36,34,33,3,34,36,34,36,34,34,0,
0,2,36,34,35,2,36,36,34,19,36,35,36,34,36,33,33,36,34,36,36,4,36,4,33,34,33,4,33,33,34,34,33,35,35,36,2,34,3,35,34,3,4,35,35,35,33,33,3,34,34,35,34,35,33,35,4,36,2,2,34,34,33,34,35,36,35,35,35,2,33,36,36,35,33,35,3,35,34,35,33,4,34,18,34,18,35,34,2,34,34,34,34,2,35,35,36,36,33,0,
0,35,34,36,34,36,33,36,33,36,34,17,33,35,35,36,36,33,36,34,36,35,34,4,36,36,33,35,3,2,34,36,2,36,33,36,35,33,2,35,36,34,33,3,35,34,35,35,35,4,36,17,35,33,34,33,35,3,36,35,33,35,2,34,33,34,34,34,2,33,3,35,34,17,33,34,33,35,34,34,34,34,34,33,3,33,36,36,36,36,33,36,36,18,35,18,3,34,34,0,
0,3,36,33,36,4,1,33,33,34,33,34,2,33,34,36,34,33,34,36,33,2,34,33,36,35,34,34,33,35,33,33,34,36,2,4,36,34,17,34,36,36,36,33,33,33,36,18,35,36,19,33,33,35,35,3,36,35,35,36,35,4,34,34,35,2,34,36,33,34,19,33,35,33,36,35,33,34,36,35,33,34,35,34,34,3,33,4,34,3,36,33,36,35,34,36,34,34,34,0,
0,36,36,33,35,35,34,33,33,35,2,33,36,34,34,34,36,36,36,35,34,33,2,17,36,35,33,34,2,35,33,36,36,2,35,34,34,4,34,4,33,2,3,34,34,36,36,35,34,33,4,36,36,35,20,36,35,34,34,35,34,2,33,33,36,34,33,36,33,33,34,34,36,36,34,34,34,33,36,2,36,34,35,35,2,35,36,34,35,35,36,36,4,33,36,36,36,34,34,0,
0,35,36,19,20,35,20,36,36,34,35,35,33,33,35,36,36,34,20,34,2,34,2,33,36,2,34,19,34,35,34,3,33,34,33,36,36,2,3,4,33,33,35,36,2,35,34,35,34,36,35,33,34,36,35,36,34,35,19,35,3,3,34,17,34,35,34,35,33,36,36,33,33,34,33,36,36,35,35,17,2,19,17,34,34,34,33,36,36,36,33,33,35,36,34,19,35,4,33,0,
0,36,33,36,17,33,35,34,20,36,33,33,3,33,35,2,3,34,36,35,34,33,2,34,2,34,35,2,33,33,4,34,33,34,34,36,35,36,33,4,20,36,34,33,3,36,33,35,3,35,2,33,35,33,33,36,33,36,33,34,17,35,35,35,33,35,36,34,36,34,34,33,35,33,36,33,35,34,34,35,19,4,36,36,34,34,36,36,34,36,33,34,36,18,36,33,36,33,33,0,
0,35,35,4,33,18,35,34,33,34,33,33,2,36,36,36,35,36,33,34,2,34,33,35,3,3,34,35,4,34,36,36,17,34,33,34,35,36,17,33,20,34,35,33,33,35,20,34,36,33,33,36,35,33,4,18,34,3,34,36,19,35,34,34,35,34,34,36,4,33,33,35,3,4,35,17,4,35,34,35,36,33,36,36,36,36,35,36,33,2,36,33,33,34,2,19,34,4,35,0,
0,33,35,35,33,36,36,34,34,35,34,33,35,33,34,35,36,35,36,36,35,33,2,36,33,34,35,18,34,4,17,36,34,34,35,34,33,36,2,34,35,34,33,18,34,34,20,2,35,36,34,36,3,33,33,33,2,35,35,4,36,2,18,36,35,3,34,33,34,35,36,35,34,36,36,33,33,20,33,35,2,3,19,33,3,34,34,35,18,33,33,36,36,36,3,34,36,17,33,0,
0,36,35,2,36,2,33,35,35,33,34,33,36,36,35,36,35,34,19,33,33,17,19,20,36,3,34,18,36,34,36,34,19,33,33,36,36,20,35,2,18,33,35,36,33,3,3,36,36,4,4,36,3,35,36,17,36,36,34,35,34,35,33,35,35,19,34,36,34,34,36,33,36,18,3,17,34,36,33,35,18,33,35,35,3,35,4,33,3,19,35,33,34,33,35,35,19,20,34,0,
0,34,4,33,36,35,4,34,34,36,35,33,34,36,36,34,36,3,33,35,33,34,34,35,35,35,36,33,36,33,33,34,34,36,35,35,35,36,20,36,33,33,33,36,35,3,2,34,33,33,3,2,36,36,3,36,4,35,35,20,35,33,36,34,34,35,4,36,33,35,35,34,17,35,34,35,35,35,36,34,34,35,34,34,2,3,36,35,33,36,33,34,35,36,36,3,35,33,3,0,
0,4,33,36,33,36,35,33,33,36,20,18,34,19,20,2,17,35,36,17,33,34,36,33,34,36,36,34,34,33,18,35,4,35,36,36,35,4,33,33,33,17,33,36,35,36,34,34,4,36,34,33,36,35,35,19,35,33,34,33,34,33,36,33,36,36,3,34,20,34,36,33,19,34,2,35,35,2,33,34,19,36,35,34,36,34,34,34,2,35,4,36,33,36,36,1,36,33,33,0,
0,34,35,35,20,2,36,35,33,33,33,36,35,33,33,3,35,19,19,35,34,35,35,33,20,34,18,33,34,33,36,33,34,36,34,36,36,19,4,34,19,36,33,35,36,36,4,36,33,35,34,35,35,36,34,33,35,33,34,34,34,34,34,36,33,34,36,35,35,33,34,34,34,36,35,33,35,36,3,34,3,33,36,36,35,3,36,33,34,36,36,20,36,35,35,35,3,20,36,0,
0,33,34,36,35,33,34,36,36,33,3,33,18,34,33,33,4,35,17,19,35,36,34,35,35,33,33,33,35,36,36,36,36,35,34,20,36,3,4,17,34,35,34,18,34,33,35,33,34,34,4,35,34,33,2,34,34,2,33,36,34,20,34,35,35,34,35,2,36,34,3,34,33,4,33,34,36,3,35,36,36,34,4,36,34,35,34,33,3,33,3,36,35,36,33,36,34,33,33,0,
0,34,33,17,34,2,33,35,36,33,33,34,34,33,34,33,36,33,36,34,34,36,34,33,35,36,33,18,33,34,17,35,33,36,35,33,35,33,33,33,3,33,3,35,35,34,17,33,36,35,35,35,35,35,34,36,33,34,33,3,33,34,35,36,34,35,34,35,36,34,36,18,3,35,35,34,33,33,34,19,33,35,18,34,34,34,35,35,20,36,33,3,35,36,36,36,36,36,36,0,
0,4,36,33,35,2,33,33,35,36,36,34,33,17,33,33,33,33,34,34,3,33,33,35,35,34,34,33,4,36,2,35,35,34,35,35,34,36,35,35,34,35,33,36,33,35,34,34,35,35,36,35,34,36,36,36,17,33,35,36,36,36,2,35,20,35,35,34,34,34,35,20,35,33,34,36,36,36,35,35,17,33,33,34,2,36,33,36,35,36,33,2,36,35,36,33,33,34,19,0,
0,35,34,34,18,4,36,33,20,19,35,2,36,3,36,34,36,36,36,36,36,34,20,35,33,36,33,20,36,2,4,36,33,4,36,2,36,33,36,33,35,3,4,34,36,4,4,3,4,33,34,35,4,33,19,34,4,19,3,17,36,36,3,34,34,34,19,33,34,36,36,33,36,33,34,33,35,35,3,36,35,33,20,36,36,35,34,35,4,34,33,36,35,20,35,33,34,33,34,0,
0,33,33,34,35,17,35,33,17,36,36,3,33,35,35,35,36,36,34,34,33,17,35,34,33,34,36,35,34,36,36,33,35,35,20,2,36,34,35,33,36,33,33,34,33,36,34,35,19,36,36,36,1,3,35,20,4,33,34,20,4,35,35,36,34,35,20,33,35,35,2,36,36,3,34,17,35,33,34,17,35,19,35,2,4,33,3,33,33,33,34,34,33,33,35,33,3,35,33,0,
0,36,35,34,36,34,36,35,18,33,36,33,35,2,33,33,36,35,34,33,35,35,33,34,2,19,35,2,36,34,18,35,34,1,34,33,35,36,2,4,36,35,4,33,34,33,33,36,34,33,3,19,3,35,20,34,33,36,34,35,36,3,35,2,19,36,34,18,17,34,33,33,3,33,34,3,36,34,2,34,33,34,4,35,33,35,35,34,35,36,36,34,33,33,34,36,33,35,33,0,
0,36,34,34,34,34,34,36,34,34,35,4,33,17,34,34,34,36,33,17,33,33,33,34,36,33,33,34,34,17,36,2,36,19,4,34,35,35,33,36,2,36,33,35,36,33,34,35,35,35,36,33,36,33,33,36,33,34,34,17,33,33,34,34,35,33,33,3,33,34,36,33,20,33,35,35,34,35,34,36,33,4,33,35,35,36,35,4,36,34,36,36,33,35,33,34,35,33,3,0,
0,35,35,35,36,4,34,35,17,2,36,36,34,36,2,36,34,18,36,4,35,36,33,33,33,33,35,35,36,35,4,4,35,34,33,34,4,33,33,20,33,36,35,36,36,36,35,35,33,33,33,33,19,35,36,36,35,33,2,19,35,4,36,36,35,33,34,34,33,35,35,33,34,34,35,34,33,33,4,36,34,34,35,34,36,34,36,34,3,35,35,35,35,18,34,35,34,17,18,0,
0,34,35,34,34,3,35,34,33,36,33,35,4,34,35,35,34,35,4,19,36,33,18,36,36,33,17,34,33,35,33,35,34,3,36,35,34,18,2,33,36,36,35,34,35,33,36,34,36,34,19,34,33,36,1,34,3,36,35,1,33,34,33,34,35,34,35,17,4,35,33,3,35,33,34,34,36,36,34,36,36,33,19,35,20,36,36,33,35,3,34,34,34,34,33,3,33,35,34,0,
0,4,35,2,35,34,4,35,36,35,35,35,36,33,34,36,33,2,36,33,33,35,2,33,33,34,33,34,35,33,33,34,4,3,4,33,4,33,34,18,3,36,36,20,36,33,33,36,36,35,2,33,35,36,35,34,36,17,35,34,19,36,34,4,33,18,36,19,3,3,4,34,35,35,35,35,33,3,2,34,33,33,4,35,33,34,36,35,2,33,35,3,36,34,34,34,33,33,34,0,
0,35,33,34,35,18,36,36,33,33,19,35,34,36,17,3,36,34,19,33,33,34,34,36,35,35,34,18,35,36,34,34,36,35,33,36,33,34,35,4,33,33,36,33,18,35,3,35,36,35,2,2,33,18,3,35,36,36,33,2,33,36,35,3,35,36,36,34,34,3,35,36,34,34,33,4,33,33,33,34,17,35,34,34,36,35,36,34,33,34,36,2,33,36,34,36,35,35,34,0,
0,35,36,36,33,35,34,36,35,4,33,36,35,34,36,34,20,4,34,36,33,33,34,35,33,35,34,36,33,33,36,35,35,33,34,36,33,35,34,36,2,18,33,34,20,36,33,34,36,33,36,36,3,35,36,36,36,35,35,34,36,33,33,4,1,33,2,33,33,36,2,20,35,2,19,19,33,33,36,4,33,35,34,36,34,33,34,36,2,34,34,35,33,36,36,36,3,33,35,0,
0,35,20,18,33,35,33,4,17,33,34,36,20,33,34,36,18,34,36,33,33,18,33,35,34,36,34,34,3,17,35,33,2,36,36,33,34,34,33,35,19,33,34,4,4,36,33,34,34,20,33,18,18,33,3,34,19,33,33,34,36,36,33,34,36,35,36,33,34,17,34,4,34,33,34,2,4,33,34,34,36,3,35,36,34,36,33,36,33,3,36,34,34,33,36,18,35,36,33,0,
0,34,17,36,34,36,33,36,4,35,33,34,36,34,34,20,35,34,33,36,34,33,2,34,33,34,33,35,34,36,17,34,36,18,34,33,2,35,35,19,34,17,3,35,33,36,33,36,3,36,36,34,35,3,33,33,33,35,18,35,33,36,36,36,34,33,36,17,36,36,33,33,33,35,33,20,34,36,3,34,18,35,36,19,33,33,34,36,36,34,34,35,3,34,36,33,34,33,33,0,
0,33,34,18,35,34,33,34,36,1,35,34,3,35,34,33,33,33,36,35,2,36,33,20,35,35,33,36,33,36,20,33,36,36,36,33,33,35,35,35,36,35,35,36,36,35,36,33,33,35,3,2,35,34,35,35,36,34,35,34,34,35,3,3,36,34,34,35,4,34,36,35,34,36,36,34,33,35,35,36,33,20,33,33,36,3,34,35,36,35,2,35,33,33,2,35,36,34,35,0,
0,4,35,35,36,34,34,34,35,20,34,17,34,36,36,19,36,19,33,33,33,35,2,18,36,33,18,33,34,3,17,34,33,19,2,36,35,33,2,35,33,18,33,36,33,36,34,36,33,3,36,34,36,33,34,3,35,3,20,34,36,36,17,33,34,33,36,35,33,33,36,34,33,33,34,33,36,35,35,34,34,2,36,35,35,34,34,36,2,36,36,35,4,35,36,36,35,35,35,0,
0,2,35,36,3,36,33,34,34,3,35,35,36,36,34,34,35,35,20,35,35,34,20,2,34,2,34,34,34,17,33,33,34,36,36,33,36,34,33,4,3,34,36,36,35,35,35,36,35,33,33,36,3,2,33,36,35,34,34,1,34,34,35,2,4,34,36,34,36,3,19,36,33,34,34,36,34,34,34,36,33,20,34,36,35,33,34,36,35,33,34,34,34,36,36,34,36,35,36,0,
0,4,35,34,33,36,36,33,4,4,19,1,36,36,33,3,33,35,33,2,35,33,34,36,36,34,36,36,35,35,33,36,33,18,35,35,33,3,35,35,35,3,33,34,33,34,33,36,4,4,4,35,36,33,36,35,36,2,36,35,35,36,35,34,35,35,2,35,3,35,36,35,33,33,36,34,33,34,35,3,3,35,35,34,3,33,19,35,33,35,35,35,35,2,4,35,33,35,33,0,
0,3,36,33,36,36,35,17,35,4,33,3,33,4,33,33,34,33,2,35,35,34,33,33,36,34,36,33,2,34,2,36,33,34,34,34,35,3,33,34,19,35,35,36,33,35,18,3,35,35,33,36,4,34,33,34,4,2,34,2,36,33,2,33,36,18,33,4,36,36,35,33,4,35,36,18,34,33,4,33,35,35,17,36,17,36,36,34,17,33,33,36,35,34,2,35,2,34,33,0,
0,35,2,35,19,35,17,19,3,33,36,36,33,33,33,34,35,33,34,36,1,34,3,33,20,35,36,36,35,34,34,33,34,2,33,36,34,35,36,3,36,35,35,19,34,35,36,34,36,35,2,36,33,34,36,34,2,33,35,34,36,36,33,34,33,34,18,2,34,33,17,34,34,33,18,3,36,35,35,34,33,20,35,34,35,33,34,34,33,35,33,36,34,34,35,35,36,33,18,0,
0,36,2,36,4,33,33,36,18,36,34,34,33,35,36,34,34,35,36,35,34,35,33,2,33,36,35,36,34,35,36,4,36,33,36,33,35,34,4,33,36,36,33,34,36,3,3,34,34,34,36,33,36,34,34,35,4,34,36,33,35,35,33,36,36,33,33,3,36,3,34,35,34,35,17,33,34,36,36,33,33,33,33,36,34,36,19,3,35,35,34,20,17,33,4,36,33,36,36,0,
0,17,34,20,34,34,35,33,34,33,33,34,35,36,2,34,35,34,34,35,36,34,34,3,35,18,33,4,33,33,35,34,33,19,3,33,33,33,4,34,35,34,33,33,35,33,35,34,34,34,2,2,35,33,33,33,34,33,33,35,3,34,34,36,36,33,3,34,35,3,17,33,33,2,33,35,34,35,35,35,34,35,34,35,34,33,34,33,18,34,36,17,33,33,34,34,36,34,35,0,
0,35,34,33,35,35,33,2,36,33,34,36,36,19,3,36,34,3,35,36,36,34,34,35,35,33,36,36,36,33,36,33,18,2,33,4,33,35,33,36,33,3,3,34,35,33,35,35,33,2,35,35,34,35,34,2,34,36,33,33,35,34,18,36,18,33,35,34,36,34,33,36,36,34,36,3,36,34,33,33,35,35,33,35,35,36,36,3,3,34,3,20,3,34,36,35,33,35,36,0,
0,35,36,36,2,34,35,36,34,36,33,34,33,34,33,35,34,35,33,35,34,17,33,36,36,33,35,2,34,34,35,36,36,18,36,33,36,34,34,33,36,34,36,33,36,33,36,20,36,34,33,4,33,36,2,33,33,33,36,36,33,36,36,20,34,36,34,33,36,18,2,35,34,35,34,2,35,36,35,34,34,36,35,36,4,33,19,36,34,33,35,2,35,33,36,3,3,36,34,0,
0,35,33,33,35,36,33,34,36,33,33,36,35,2,33,20,33,33,34,4,34,33,36,4,33,3,34,2,2,2,33,36,33,35,36,35,35,35,33,35,35,34,33,36,35,35,33,33,36,35,33,33,19,33,34,35,33,20,36,33,19,4,34,4,33,36,35,35,34,34,4,36,36,3,34,35,34,34,35,4,2,34,4,35,35,33,35,33,18,33,20,34,34,33,34,33,17,35,34,0,
0,34,35,36,34,34,35,34,36,33,33,34,34,36,33,35,33,35,33,33,33,4,34,3,35,35,35,36,33,35,34,35,35,33,34,34,33,36,35,34,33,35,33,35,36,35,34,34,19,36,34,33,33,2,34,34,35,35,4,33,36,34,36,36,34,4,36,35,35,35,35,33,35,34,35,36,35,33,36,35,4,34,36,35,34,4,35,33,34,1,17,34,33,35,17,35,34,35,34,0,
0,4,34,35,20,35,33,33,35,17,33,33,34,33,4,33,34,35,18,4,20,34,33,19,17,34,35,35,35,33,33,36,36,33,35,20,36,35,33,35,35,2,36,33,36,36,36,33,36,36,20,35,33,33,3,34,36,36,3,36,34,33,4,35,33,34,35,18,33,4,34,34,36,33,33,36,35,33,2,33,35,36,3,33,34,36,35,36,35,33,34,34,35,36,34,33,35,2,34,0,
0,33,33,36,3,33,19,34,35,33,35,36,35,34,36,35,35,36,34,34,19,35,33,35,36,34,36,35,36,34,34,2,35,34,33,35,36,34,34,36,33,33,34,35,19,35,17,35,20,34,19,35,33,18,34,34,35,36,35,36,4,36,33,33,35,36,33,35,35,35,33,33,33,3,33,36,4,35,36,35,36,36,36,2,35,34,4,2,17,33,34,36,35,17,36,35,34,34,34,0,
0,34,34,36,35,33,35,34,3,2,35,35,34,33,34,35,34,36,33,36,36,34,33,36,35,35,34,3,3,2,35,33,33,36,33,33,36,3,35,33,36,34,33,34,33,33,3,36,35,35,36,36,35,36,36,2,34,33,35,34,33,34,4,1,36,34,35,35,36,33,2,34,35,34,3,34,35,34,20,33,33,36,35,3,33,33,4,33,36,36,33,34,34,35,33,33,33,33,34,0,
0,2,2,34,35,35,35,36,18,20,33,34,35,36,35,33,34,35,33,20,34,36,33,17,3,36,34,36,35,36,36,35,34,33,20,3,3,34,35,20,18,33,36,17,36,3,35,33,35,35,34,36,36,36,34,19,35,17,20,35,35,33,34,33,33,36,34,2,36,34,36,3,35,20,35,33,35,20,36,34,34,20,33,36,34,36,19,3,19,36,35,36,34,33,18,3,34,33,33,0,
0,35,36,35,34,35,3,33,34,36,35,18,20,35,36,36,36,34,33,33,34,36,17,34,34,3,35,4,36,18,33,34,35,34,36,36,35,4,35,19,36,20,35,17,36,34,35,2,33,33,1,35,34,18,4,33,35,36,36,18,34,2,34,33,34,3,36,34,36,36,35,34,33,3,36,35,34,4,35,34,4,33,36,35,36,20,36,36,36,35,33,35,33,33,2,33,34,35,35,0,
0,34,36,34,20,35,17,35,34,33,34,3,34,33,34,17,35,33,34,36,20,33,36,35,35,33,34,3,35,17,35,2,36,35,17,36,35,36,35,33,33,34,35,36,35,34,4,34,35,33,34,35,33,17,35,20,35,33,33,33,34,3,34,35,17,35,35,20,19,35,3,33,34,4,36,36,34,34,33,34,36,35,35,2,36,34,36,36,36,2,35,35,33,34,34,36,35,3,33,0,
0,35,36,34,19,34,35,33,35,33,2,33,35,17,35,34,34,36,3,17,35,2,4,2,36,35,36,19,19,33,35,18,36,35,36,35,33,33,34,4,17,36,34,35,35,33,17,20,33,35,4,36,33,33,35,19,34,36,34,35,34,2,34,19,3,35,36,36,35,33,36,2,4,35,33,33,33,36,2,19,33,34,36,36,36,33,33,19,35,4,20,33,35,1,33,35,35,35,17,0,
0,4,2,36,34,34,33,33,34,33,35,35,33,36,3,34,33,35,33,35,34,33,34,36,33,33,33,33,36,34,36,35,33,34,34,2,36,33,36,34,35,36,36,4,33,34,3,19,35,34,34,34,34,36,35,34,34,18,34,34,18,4,2,36,36,33,34,35,35,33,34,35,4,33,34,36,34,35,3,34,34,3,34,34,2,2,35,3,35,33,35,33,19,34,18,33,33,35,34,0,
0,2,36,34,36,35,35,4,34,4,34,36,20,34,34,33,33,33,35,34,34,33,33,34,35,36,20,35,3,34,36,35,20,35,36,35,34,35,36,35,34,33,19,34,35,34,20,34,35,33,36,35,36,20,33,33,33,36,34,35,18,33,36,18,35,35,33,36,33,35,34,20,35,33,36,34,33,35,33,33,33,35,34,33,34,35,36,34,35,33,2,34,35,34,33,35,34,33,4,0,
0,34,35,2,35,35,35,33,36,18,35,34,36,35,33,33,33,4,36,34,36,34,17,36,4,33,36,3,35,34,36,33,34,36,34,36,36,33,35,34,36,34,4,34,33,35,34,35,33,35,33,35,36,33,2,34,36,36,34,35,35,34,33,35,34,34,2,17,36,33,35,33,33,34,34,36,36,19,35,33,4,3,36,36,36,33,4,18,2,34,18,34,33,2,20,35,35,34,36,0,
0,19,33,35,34,35,18,33,36,35,36,35,36,35,19,33,33,34,33,34,3,34,35,36,36,35,34,34,36,33,33,33,33,36,34,34,33,33,33,17,35,33,20,36,34,33,3,33,36,35,33,35,35,33,35,33,33,34,36,35,36,35,33,33,33,34,36,19,33,36,36,3,35,34,3,36,34,3,20,34,36,35,2,34,34,2,35,33,35,3,34,34,20,33,33,34,4,34,33,0,
0,35,33,19,35,34,34,34,35,33,36,35,35,35,36,35,33,33,34,36,36,35,33,33,34,36,36,34,34,18,33,36,36,34,34,35,17,4,35,36,35,36,18,36,33,33,36,34,33,34,35,33,19,35,36,34,35,34,34,35,34,35,33,33,34,34,34,2,34,34,35,33,4,36,34,36,36,36,34,34,34,36,2,34,34,36,20,36,36,33,35,33,33,34,35,34,33,36,34,0,
0,0,0,0,0,0,0,0,0,0,0,0,0,0,0,0,0,0,0,0,0,0,0,0,0,0,0,0,0,0,0,0,0,0,0,0,0,0,0,0,0,0,0,0,0,0,0,0,0,0,0,0,0,0,0,0,0,0,0,0,0,0,0,0,0,0,0,0,0,0,0,0,0,0,0,0,0,0,0,0,0,0,0,0,0,0,0,0,0,0,0,0,0,0,0,0,0,0,0,0
</data>
 </layer>
 <layer id="1" name="Wall" class="WallTileLayer" width="100" height="100" locked="1" tintcolor="#3599a7">
  <data encoding="csv">
263,264,299,264,299,299,299,299,299,264,264,299,264,264,264,264,264,299,264,264,264,299,299,299,264,264,299,299,264,299,264,299,264,264,299,264,299,264,264,299,264,264,299,299,299,264,264,299,299,299,299,299,299,299,264,264,264,264,299,299,299,299,299,264,299,299,264,299,264,299,264,299,299,299,299,299,299,264,264,264,264,299,299,264,299,264,264,264,299,299,264,299,264,264,299,264,264,299,299,265,
284,280,280,280,280,280,280,280,280,280,280,280,280,280,280,280,280,280,280,280,280,280,280,280,280,280,280,280,280,280,280,280,280,280,280,280,280,280,280,280,280,280,280,280,280,280,280,280,280,280,280,280,280,280,280,280,280,280,280,280,280,280,280,280,280,280,280,280,280,280,280,280,280,280,280,280,280,280,280,280,280,280,280,280,280,280,280,280,280,280,280,280,280,280,280,280,280,280,280,281,
284,280,280,266,296,296,296,296,296,267,296,296,296,296,296,296,296,296,296,296,296,267,267,296,296,296,296,296,267,296,296,296,267,267,296,267,267,296,296,296,296,296,267,296,267,296,296,267,296,267,296,296,296,267,267,267,296,296,267,267,267,267,267,267,296,267,267,296,267,296,296,296,296,296,267,296,267,296,267,296,296,267,296,296,267,267,267,296,267,267,267,267,267,267,267,296,268,280,280,281,
279,280,266,297,0,0,0,0,0,0,0,0,0,0,0,0,0,0,0,0,0,0,0,0,0,0,0,0,0,0,0,0,0,0,0,0,0,0,0,0,0,0,0,0,0,0,0,0,0,0,0,0,0,0,0,0,0,0,0,0,0,0,0,0,0,0,0,0,0,0,0,0,0,0,0,0,0,0,0,0,0,0,0,0,0,0,0,0,0,0,0,0,0,0,0,0,295,268,280,281,
284,280,282,0,0,0,0,0,0,0,0,0,0,0,0,0,0,0,0,0,0,0,0,0,0,0,0,0,0,0,0,0,0,0,0,0,0,0,0,0,0,0,0,0,0,0,0,0,0,0,0,0,0,0,0,0,0,0,0,0,0,0,0,0,0,0,0,0,0,0,0,0,0,0,0,0,0,0,0,0,0,0,0,0,0,0,0,0,0,0,0,0,0,0,0,0,0,284,280,281,
284,280,281,0,0,0,0,0,0,0,0,0,0,0,0,0,0,0,0,0,0,0,0,0,0,0,0,0,0,0,0,0,0,0,0,0,0,0,0,0,0,0,0,0,0,0,0,0,0,0,0,0,0,0,0,0,0,0,0,0,0,0,0,0,0,0,0,0,0,0,0,0,0,0,0,0,0,0,0,0,0,0,0,0,0,0,0,0,0,0,0,0,0,0,0,0,0,284,280,281,
284,280,282,0,0,0,0,0,0,0,0,0,0,0,0,0,0,0,0,0,0,0,0,0,0,0,0,0,0,0,0,0,0,0,0,0,0,0,0,0,0,0,0,0,0,0,0,0,0,0,0,0,0,0,0,0,0,0,0,0,0,0,0,0,0,0,0,0,0,0,0,0,0,0,0,0,0,0,0,0,0,0,0,0,0,0,0,0,0,0,0,0,0,0,0,0,0,279,280,282,
279,280,281,0,0,0,0,0,0,0,0,0,0,257,258,258,290,270,259,0,0,0,0,0,0,0,0,0,0,0,0,0,0,0,0,0,0,0,0,0,0,0,0,0,0,0,0,0,0,0,0,0,0,0,0,0,0,0,0,0,0,0,0,0,0,0,0,0,0,0,0,0,0,0,0,0,0,0,0,0,0,0,0,0,0,0,0,0,0,0,0,0,0,0,0,0,0,279,280,281,
279,280,282,0,0,0,0,0,0,0,0,0,0,317,0,0,0,0,292,259,0,0,0,0,0,0,0,0,0,0,0,0,0,0,0,0,0,0,0,0,0,0,0,0,0,0,0,0,0,0,0,0,0,0,0,0,0,0,0,0,0,0,0,0,0,0,0,0,0,0,0,0,0,0,0,0,0,0,0,0,0,0,0,0,0,0,0,0,0,0,0,0,0,0,0,0,0,279,280,282,
279,280,282,0,0,0,0,0,0,0,0,0,0,0,0,0,0,0,0,292,259,0,0,0,0,0,0,0,0,0,0,0,0,0,0,0,0,0,0,0,0,0,0,0,0,0,0,0,0,0,0,0,0,0,0,0,0,0,0,0,0,0,0,0,0,0,0,0,0,0,0,0,0,0,0,0,0,0,0,0,0,0,0,0,0,0,0,0,0,0,0,0,0,0,0,0,0,279,280,281,
279,280,282,0,0,0,0,0,0,0,0,0,0,0,0,0,0,0,0,0,292,262,0,0,0,0,0,0,0,0,0,0,0,0,0,0,0,0,0,0,0,0,0,0,0,0,0,0,0,0,0,0,0,0,0,0,0,0,0,0,0,0,0,0,0,0,0,0,0,0,0,0,0,0,0,0,0,0,0,0,0,0,0,0,0,0,0,0,0,0,0,0,0,0,0,0,0,279,280,282,
279,280,281,0,0,0,0,0,0,0,0,0,0,0,0,0,0,0,0,0,0,273,0,0,0,0,0,0,0,0,0,0,0,0,0,0,0,0,0,0,0,0,0,0,0,0,0,0,0,0,0,0,0,0,0,0,0,0,0,0,0,0,0,0,0,0,0,0,0,0,0,0,0,0,0,0,0,0,0,0,0,0,0,0,0,0,0,0,0,0,0,0,0,0,0,0,0,279,280,282,
279,280,282,0,0,0,0,0,0,0,0,0,0,0,0,0,0,0,0,0,0,275,0,0,0,0,0,0,0,0,0,0,0,0,0,0,0,0,0,0,0,0,0,0,0,0,0,0,0,0,0,0,0,0,0,0,0,0,0,0,0,0,0,0,0,0,0,0,0,0,0,0,0,0,0,0,0,0,0,0,0,0,0,0,0,0,0,0,0,0,0,0,0,0,0,0,0,279,280,281,
284,280,282,0,0,0,0,0,0,0,0,0,0,0,0,0,0,0,0,257,290,294,0,0,0,0,0,0,0,0,0,0,0,0,0,0,0,0,0,0,0,0,0,0,0,0,0,0,0,0,0,0,0,0,0,0,0,0,0,0,0,0,0,0,0,0,0,0,0,0,0,0,0,0,0,0,0,0,0,0,0,0,0,0,0,0,0,0,0,0,0,0,0,0,0,0,0,284,280,281,
279,280,282,0,0,0,0,0,0,0,0,0,0,0,269,270,270,270,270,293,259,0,0,0,0,0,0,0,0,0,0,0,0,0,0,0,0,0,0,0,0,0,0,0,0,0,0,0,0,0,0,0,0,0,0,0,0,0,0,0,0,0,0,0,0,0,0,0,0,0,0,0,0,0,0,0,0,0,0,0,0,0,0,0,0,0,0,0,0,0,0,0,0,0,0,0,0,284,280,281,
279,280,281,0,0,0,0,0,0,0,0,0,0,0,0,0,0,0,0,0,289,259,0,0,0,0,0,0,0,0,0,0,0,0,0,0,0,0,0,0,0,0,0,0,0,0,0,0,0,0,0,0,0,0,0,0,0,0,0,0,0,0,0,0,0,0,0,0,0,0,0,0,0,0,0,0,0,0,0,0,0,0,0,0,0,0,0,0,0,0,0,0,0,0,0,0,0,284,280,282,
284,280,282,0,0,0,0,0,0,0,0,0,0,0,0,0,0,0,0,0,0,301,0,0,0,0,0,0,0,0,0,0,0,0,0,0,0,0,0,0,0,0,0,0,0,0,0,0,0,0,0,0,0,0,0,0,0,0,0,0,0,0,0,0,0,0,0,0,0,0,0,0,0,0,0,0,0,0,0,0,0,0,0,0,0,0,0,0,0,0,0,0,0,0,0,0,0,279,280,281,
284,280,282,0,0,0,0,0,0,0,0,0,0,0,0,0,0,0,0,0,0,275,0,0,0,0,0,0,0,0,0,0,0,0,0,0,0,0,0,0,0,0,0,0,0,0,0,0,0,0,0,0,0,0,0,0,0,0,0,0,0,0,0,0,0,0,0,0,0,0,0,0,0,0,0,0,0,0,0,0,0,0,0,0,0,0,0,0,0,0,0,0,0,0,0,0,0,279,280,282,
284,280,281,0,0,0,0,0,0,0,0,0,0,0,0,0,0,0,0,0,0,273,0,0,0,0,0,0,0,0,0,0,0,0,0,0,0,0,0,0,0,0,0,0,0,0,0,0,0,0,0,0,0,0,0,0,0,0,0,0,0,0,0,0,0,0,0,0,0,0,0,0,0,0,0,0,0,0,0,0,0,0,0,0,0,0,0,0,0,0,0,0,0,0,0,0,0,279,280,282,
279,280,282,0,0,0,0,0,0,0,0,0,0,0,0,0,0,0,0,260,270,291,0,0,0,0,0,0,0,0,0,0,0,0,0,0,0,0,0,0,0,0,0,0,0,0,0,0,0,0,0,0,0,0,0,0,0,0,0,0,0,0,0,0,0,0,0,0,0,0,0,0,0,0,0,0,0,0,0,0,0,0,0,0,0,0,0,0,0,0,0,0,0,0,0,0,0,284,280,281,
279,280,281,0,0,0,0,0,0,0,0,269,259,0,0,0,0,257,258,291,0,0,0,0,0,0,0,0,0,0,0,0,0,0,0,0,0,0,423,0,0,0,0,0,0,0,0,0,0,0,0,0,0,0,0,0,0,0,0,0,0,0,0,0,0,0,0,0,0,0,0,0,0,0,0,0,0,0,0,0,0,0,0,0,0,0,0,0,0,0,0,0,0,0,0,0,0,284,280,282,
279,280,281,0,0,0,0,0,0,0,0,0,289,258,290,290,290,291,0,0,0,0,0,0,0,0,0,0,0,0,0,0,0,0,0,0,0,0,0,0,0,0,0,0,0,0,0,0,0,0,0,0,0,0,0,0,0,0,0,0,0,0,0,0,0,0,0,0,0,0,0,0,0,0,0,0,0,0,0,0,0,0,0,0,0,0,0,0,0,0,0,0,0,0,0,0,0,284,280,282,
284,280,281,0,0,0,0,0,0,0,0,0,0,0,0,0,0,0,0,0,0,0,0,0,0,0,0,0,0,0,0,0,0,0,0,0,0,0,0,0,0,0,0,0,0,0,0,0,0,0,0,0,0,0,0,0,0,0,0,0,0,0,0,0,0,0,0,0,0,0,0,0,0,0,0,0,0,0,0,0,0,0,0,0,0,0,0,0,0,0,0,0,0,0,0,0,0,284,280,281,
279,280,282,0,0,0,0,0,0,0,0,0,0,0,0,0,0,0,0,0,0,0,0,0,0,0,0,0,0,0,0,0,0,0,0,0,0,0,0,0,0,0,0,0,0,0,0,0,0,0,0,0,0,0,0,0,0,0,0,0,0,0,0,0,0,0,0,0,0,0,0,0,0,0,0,0,0,0,0,0,0,0,0,0,0,0,0,0,0,0,0,0,0,0,0,0,0,279,280,282,
279,280,281,0,0,0,0,0,0,0,0,0,0,0,0,0,0,0,0,0,0,0,0,0,0,0,0,0,0,0,0,0,0,0,0,0,0,0,0,0,0,0,0,0,0,0,0,0,0,0,0,0,0,0,0,0,0,0,0,0,0,0,0,0,0,0,0,0,0,0,0,0,0,0,0,0,0,0,0,0,0,0,0,0,0,0,0,0,0,0,0,0,0,0,0,0,0,284,280,281,
284,280,281,0,0,0,0,0,0,0,0,0,0,0,0,0,0,0,0,0,0,0,0,0,0,0,0,0,0,0,0,0,0,0,0,0,0,0,0,0,0,0,0,0,0,0,0,0,0,0,0,0,0,0,0,0,0,0,0,0,0,0,0,0,0,0,0,0,0,0,0,0,0,0,0,0,0,0,0,0,0,0,0,0,0,0,0,0,0,0,0,0,0,0,0,0,0,284,280,281,
284,280,282,0,0,0,0,0,0,0,0,0,0,0,0,0,0,0,0,0,0,0,0,0,0,0,0,0,0,0,0,0,0,0,0,0,0,0,0,0,0,0,0,0,0,0,0,0,0,0,0,0,0,0,0,0,0,0,0,0,0,0,0,0,0,0,0,0,0,0,0,0,0,0,0,0,0,0,0,0,0,0,0,0,0,0,0,0,0,0,0,0,0,0,0,0,0,284,280,282,
279,280,282,0,0,0,0,0,0,0,0,0,0,0,0,0,0,0,0,0,0,0,0,0,0,0,0,0,0,0,0,0,0,0,0,0,0,0,0,0,0,0,0,0,0,0,0,0,0,0,0,0,0,0,0,0,0,0,0,0,0,0,0,0,0,0,0,0,0,0,0,0,0,0,0,0,0,0,0,0,0,0,0,0,0,0,0,0,0,0,0,0,0,0,0,0,0,279,280,282,
284,280,282,0,0,0,0,0,0,0,0,0,0,0,0,0,0,0,0,0,0,0,0,0,0,0,0,0,0,0,0,0,0,0,0,0,0,0,0,0,0,0,0,0,0,0,0,0,0,0,0,0,0,0,0,0,0,0,0,0,0,0,0,0,0,0,0,0,0,0,0,0,0,0,0,0,0,0,0,0,0,0,0,0,0,0,0,0,0,0,0,0,0,0,0,0,0,279,280,282,
279,280,282,0,0,0,0,0,0,0,0,0,0,0,0,0,0,0,0,0,0,0,0,0,0,0,0,0,0,0,0,0,0,0,0,0,0,0,0,0,0,0,0,0,0,0,0,0,0,0,0,0,0,0,0,0,0,0,0,0,0,0,0,0,0,0,0,0,0,0,0,0,0,0,0,0,0,0,0,0,0,0,0,0,0,0,0,0,0,0,0,0,0,0,0,0,0,284,280,282,
284,280,281,0,0,0,0,0,0,0,0,0,0,0,0,0,0,0,0,0,0,0,0,0,0,0,0,0,0,0,0,0,0,0,0,0,0,0,0,0,0,0,0,0,0,0,0,0,0,0,0,0,0,0,0,0,0,0,0,0,0,0,0,0,0,0,0,0,0,0,0,0,0,0,0,0,0,0,0,0,0,0,0,0,0,0,0,0,0,0,0,0,0,0,0,0,0,284,280,281,
284,280,282,0,0,0,0,0,0,0,0,0,0,0,0,0,0,0,0,0,0,0,0,0,0,0,0,0,0,0,0,0,0,0,0,0,0,0,0,0,0,0,0,0,0,0,0,0,0,0,0,0,0,0,0,0,0,0,0,0,0,0,0,0,0,0,0,0,0,0,0,0,0,0,0,0,0,0,0,0,0,0,0,0,0,0,0,0,0,0,0,0,0,0,0,0,0,284,280,281,
279,280,282,0,0,0,0,0,0,0,0,0,0,0,0,0,0,0,0,0,0,0,0,0,0,0,0,0,0,0,0,0,0,0,0,0,0,0,0,0,0,0,0,0,0,0,0,0,0,0,0,0,0,0,0,0,0,0,0,0,0,0,0,0,0,0,0,0,0,0,0,0,0,0,0,0,0,0,0,0,0,0,0,0,0,0,0,0,0,0,0,0,0,0,0,0,0,284,280,281,
279,280,281,0,0,0,0,0,0,0,0,0,0,0,0,0,0,0,0,0,0,0,0,0,0,0,0,0,0,0,0,0,0,0,0,0,0,0,0,0,0,0,0,0,0,0,0,0,0,0,0,0,0,0,0,0,0,0,0,0,0,0,0,0,0,0,0,0,0,0,0,0,0,0,0,0,0,0,0,0,0,0,0,0,0,0,0,0,0,0,0,0,0,0,0,0,0,279,280,282,
279,280,281,0,0,0,0,0,0,0,0,0,0,0,0,0,0,0,0,0,0,0,0,0,0,0,0,0,0,0,0,0,0,0,0,0,0,0,0,0,0,0,0,0,0,0,0,0,0,0,0,0,0,0,0,0,0,0,0,0,0,0,0,0,0,0,0,0,0,0,0,0,0,0,0,0,0,0,0,0,0,0,0,0,0,0,0,0,0,0,0,0,0,0,0,0,0,284,280,281,
279,280,282,0,0,0,0,0,0,0,0,0,0,0,0,0,0,0,0,0,0,0,0,0,0,0,0,0,0,0,0,0,0,0,0,0,0,0,0,0,0,0,0,0,0,0,0,0,0,0,0,0,0,0,0,0,0,0,0,0,0,0,0,0,0,0,0,0,0,0,0,0,0,0,0,0,0,0,0,0,0,0,0,0,0,0,0,0,0,0,0,0,0,0,0,0,0,279,280,281,
284,280,281,0,0,0,0,0,0,0,0,0,0,0,0,0,0,0,0,0,0,0,0,0,0,0,0,0,0,0,0,0,0,0,0,0,0,0,0,0,0,0,0,0,0,0,0,0,0,0,0,0,0,0,0,0,0,0,0,0,0,0,0,0,0,0,0,0,0,0,0,0,0,0,0,0,0,0,0,0,0,0,0,0,0,0,0,0,0,0,0,0,0,0,0,0,0,279,280,282,
279,280,282,0,0,0,0,0,0,0,0,0,0,0,0,0,0,0,0,0,0,0,0,0,0,0,0,0,0,0,0,0,0,0,0,0,0,0,0,0,0,0,0,0,0,0,0,0,0,0,0,0,0,0,0,0,0,0,0,0,0,0,0,0,0,0,0,0,0,0,0,0,0,0,0,0,0,0,0,0,0,0,0,0,0,0,0,0,0,0,0,0,0,0,0,0,0,279,280,281,
284,280,282,0,0,0,0,0,0,0,0,0,0,0,0,0,0,0,0,0,0,0,0,0,0,0,0,0,0,0,0,0,0,0,0,0,0,0,0,0,0,0,0,0,0,0,0,0,0,0,0,0,0,0,0,0,0,0,0,0,0,0,0,0,0,0,0,0,0,0,0,0,0,0,0,0,0,0,0,0,0,0,0,0,0,0,0,0,0,0,0,0,0,0,0,0,0,279,280,282,
279,280,282,0,0,0,0,0,0,0,0,0,0,0,0,0,0,0,0,0,0,0,0,0,0,0,0,0,0,0,0,0,0,0,0,0,0,0,0,0,0,0,0,0,0,0,0,0,0,0,0,0,0,0,0,0,0,0,0,0,0,0,0,0,0,0,0,0,0,0,0,0,0,0,0,0,0,0,0,0,0,0,0,0,0,0,0,0,0,0,0,0,0,0,0,0,0,284,280,282,
279,280,282,0,0,0,0,0,0,0,0,0,0,0,0,0,0,0,0,0,0,0,0,0,0,0,0,0,0,0,0,0,0,0,0,0,0,0,0,0,0,0,0,0,0,0,0,0,0,0,0,0,0,0,0,0,0,0,0,0,0,0,0,0,0,0,0,0,0,0,0,0,0,0,0,0,0,0,0,0,0,0,0,0,0,0,0,0,0,0,0,0,0,0,0,0,0,284,280,281,
284,280,282,0,0,0,0,0,0,0,0,0,0,0,0,0,0,0,0,0,0,0,0,0,0,0,0,0,0,0,0,0,0,0,0,0,0,0,0,0,0,0,0,0,0,0,0,0,0,0,0,0,0,0,0,0,0,0,0,0,0,0,0,0,0,0,0,0,0,0,0,0,0,0,0,0,0,0,0,0,0,0,0,0,0,0,0,0,0,0,0,0,0,0,0,0,0,284,280,282,
279,280,282,0,0,0,0,0,0,0,0,0,0,0,0,0,0,0,0,0,0,0,0,0,0,0,0,0,0,0,0,0,0,0,0,0,0,0,0,0,0,0,0,0,0,0,0,0,0,0,0,0,0,0,0,0,0,0,0,0,0,0,0,0,0,0,0,0,0,0,0,0,0,0,0,0,0,0,0,0,0,0,0,0,0,0,0,0,0,0,0,0,0,0,0,0,0,284,280,282,
279,280,281,0,0,0,0,0,0,0,0,0,0,0,0,0,0,0,0,0,0,0,0,0,0,0,0,0,0,0,0,0,0,0,0,0,0,0,0,0,0,0,0,0,0,0,0,0,0,0,0,0,0,0,0,0,0,0,0,0,0,0,0,0,0,0,0,0,0,0,0,0,0,0,0,0,0,0,0,0,0,0,0,0,0,0,0,0,0,0,0,0,0,0,0,0,0,279,280,281,
284,280,282,0,0,0,0,0,0,0,0,0,0,0,0,0,0,0,0,0,0,0,0,0,0,0,0,0,0,0,0,0,0,0,0,0,0,0,0,0,0,0,0,0,0,0,0,0,0,0,0,0,0,0,0,0,0,0,0,0,0,0,0,0,0,0,0,0,0,0,0,0,0,0,0,0,0,0,0,0,0,0,0,0,0,0,0,0,0,0,0,0,0,0,0,0,0,284,280,281,
279,280,282,0,0,0,0,0,0,0,0,0,0,0,0,0,0,0,0,0,0,0,0,0,0,0,0,0,0,0,0,0,0,0,0,0,0,0,0,0,0,0,0,0,0,0,0,0,0,0,0,0,0,0,0,0,0,0,0,0,0,0,0,0,0,0,0,0,0,0,0,0,0,0,0,0,0,0,0,0,0,0,0,0,0,0,0,0,0,0,0,0,0,0,0,0,0,279,280,281,
279,280,281,0,0,0,0,0,0,0,0,0,0,0,0,0,0,0,0,0,0,0,0,0,0,0,0,0,0,0,0,0,0,0,0,0,0,0,0,0,0,0,0,0,0,0,0,0,0,0,0,0,0,0,0,0,0,0,0,0,0,0,0,0,0,0,0,0,0,0,0,0,0,0,0,0,0,0,0,0,0,0,0,0,0,0,0,0,0,0,0,0,0,0,0,0,0,284,280,282,
284,280,282,0,0,0,0,0,0,0,0,0,0,0,0,0,0,0,0,0,0,0,0,0,0,0,0,0,0,0,0,0,0,0,0,0,0,0,0,0,0,0,0,0,0,0,0,0,0,0,0,0,0,0,0,0,0,0,0,0,0,0,0,0,0,0,0,0,0,0,0,0,0,0,0,0,0,0,0,0,0,0,0,0,0,0,0,0,0,0,0,0,0,0,0,0,0,284,280,282,
279,280,281,0,0,0,0,0,0,0,0,0,0,0,0,0,0,0,0,0,0,0,0,0,0,0,0,0,0,0,0,0,0,0,0,0,0,0,0,0,0,0,0,0,0,0,0,0,0,0,0,0,0,0,0,0,0,0,0,0,0,0,0,0,0,0,0,0,0,0,0,0,0,0,0,0,0,0,0,0,0,0,0,0,0,0,0,0,0,0,0,0,0,0,0,0,0,279,280,281,
284,280,282,0,0,0,0,0,0,0,0,0,0,0,0,0,0,0,0,0,0,0,0,0,0,0,0,0,0,0,0,0,0,0,0,0,0,0,0,0,0,0,0,0,0,0,0,0,0,0,0,0,0,0,0,0,0,0,0,0,0,0,0,0,0,0,0,0,0,0,0,0,0,0,0,0,0,0,0,0,0,0,0,0,0,0,0,0,0,0,0,0,0,0,0,0,0,284,280,281,
284,280,281,0,0,0,0,0,0,0,0,0,0,0,0,0,0,0,0,0,0,0,0,0,0,0,0,0,0,0,0,0,0,0,0,0,0,0,0,0,0,0,0,0,0,0,0,0,0,0,0,0,0,0,0,0,0,0,0,0,0,0,0,0,0,0,0,0,0,0,0,0,0,0,0,0,0,0,0,0,0,0,0,0,0,0,0,0,0,0,0,0,0,0,0,0,0,284,280,281,
279,280,281,0,0,0,0,0,0,0,0,0,0,0,0,0,0,0,0,0,0,0,0,0,0,0,0,0,0,0,0,0,0,0,0,0,0,0,0,0,0,0,0,0,0,0,0,0,0,0,0,0,0,0,0,0,0,0,0,0,0,0,0,0,0,0,0,0,0,0,0,0,0,0,0,0,0,0,0,0,0,0,0,0,0,0,0,0,0,0,0,0,0,0,0,0,0,284,280,282,
279,280,281,0,0,0,0,0,0,0,0,0,0,0,0,0,0,0,0,0,0,0,0,0,0,0,0,0,0,0,0,0,0,0,0,0,0,0,0,0,0,0,0,0,0,0,0,0,0,0,0,0,0,0,0,0,0,0,0,0,0,0,0,0,0,0,0,0,0,0,0,0,0,0,0,0,0,0,0,0,0,0,0,0,0,0,0,0,0,0,0,0,0,0,0,0,0,284,280,281,
284,280,281,0,0,0,0,0,0,0,0,0,0,0,0,0,0,0,0,0,0,0,0,0,0,0,0,0,0,0,0,0,0,0,0,0,0,0,0,0,0,0,0,0,0,0,0,0,0,0,0,0,0,0,0,0,0,0,0,0,0,0,0,0,0,0,0,0,0,0,0,0,0,0,0,0,0,0,0,0,0,0,0,0,0,0,0,0,0,0,0,0,0,0,0,0,0,279,280,282,
284,280,282,0,0,0,0,0,0,0,0,0,0,0,0,0,0,0,0,0,0,0,0,0,0,0,0,0,0,0,0,0,0,0,0,0,0,0,0,0,0,0,0,0,0,0,0,0,0,0,0,0,0,0,0,0,0,0,0,0,0,0,0,0,0,0,0,0,0,0,0,0,0,0,0,0,0,0,0,0,0,0,0,0,0,0,0,0,0,0,0,0,0,0,0,0,0,279,280,281,
279,280,282,0,0,0,0,0,0,0,0,0,0,0,0,0,0,0,0,0,0,0,0,0,0,0,0,0,0,0,0,0,0,0,0,0,0,0,0,0,0,0,0,0,0,0,0,0,0,0,0,0,0,0,0,0,0,0,0,0,0,0,0,0,0,0,0,0,0,0,0,0,0,0,0,0,0,0,0,0,0,0,0,0,0,0,0,0,0,0,0,0,0,0,0,0,0,284,280,282,
284,280,281,0,0,0,0,0,0,0,0,0,0,0,0,0,0,0,0,0,0,0,0,0,0,0,0,0,0,0,0,0,0,0,0,0,0,0,0,0,0,0,0,0,0,0,0,0,0,0,0,0,0,0,0,0,0,0,0,0,0,0,0,0,0,0,0,0,0,0,0,0,0,0,0,0,0,0,0,0,0,0,0,0,0,0,0,0,0,0,0,0,0,0,0,0,0,279,280,282,
279,280,281,0,0,0,0,0,0,0,0,0,0,0,0,0,0,0,0,0,0,0,0,0,0,0,0,0,0,0,0,0,0,0,0,0,0,0,0,0,0,0,0,0,0,0,0,0,0,0,0,0,0,0,0,0,0,0,0,0,0,0,0,0,0,0,0,0,0,0,0,0,0,0,0,0,0,0,0,0,0,0,0,0,0,0,0,0,0,0,0,0,0,0,0,0,0,284,280,282,
279,280,281,0,0,0,0,0,0,0,0,0,0,0,0,0,0,0,0,0,0,0,0,0,0,0,0,0,0,0,0,0,0,0,0,0,0,0,0,0,0,0,0,0,0,0,0,0,0,0,0,0,0,0,0,0,0,0,0,0,0,0,0,0,0,0,0,0,0,0,0,0,0,0,0,0,0,0,0,0,0,0,0,0,0,0,0,0,0,0,0,0,0,0,0,0,0,284,280,282,
279,280,282,0,0,0,0,0,0,0,0,0,0,0,0,0,0,0,0,0,0,0,0,0,0,0,0,0,0,0,0,0,0,0,0,0,0,0,0,0,0,0,0,0,0,0,0,0,0,0,0,0,0,0,0,0,0,0,0,0,0,0,0,0,0,0,0,0,0,0,0,0,0,0,0,0,0,0,0,0,0,0,0,0,0,0,0,0,0,0,0,0,0,0,0,0,0,284,280,282,
284,280,281,0,0,0,0,0,0,0,0,0,0,0,0,0,0,0,0,0,0,0,0,0,0,0,0,0,0,0,0,0,0,0,0,0,0,0,0,0,0,0,0,0,0,0,0,0,0,0,0,0,0,0,0,0,0,0,0,0,0,0,0,0,0,0,0,0,0,0,0,0,0,0,0,0,0,0,0,0,0,0,0,0,0,0,0,0,0,0,0,0,0,0,0,0,0,279,280,281,
284,280,282,0,0,0,0,0,0,0,0,0,0,0,0,0,0,0,0,0,0,0,0,0,0,0,0,0,0,0,0,0,0,0,0,0,0,0,0,0,0,0,0,0,0,0,0,0,0,0,0,0,0,0,0,0,0,0,0,0,0,0,0,0,0,0,0,0,0,0,0,0,0,0,0,0,0,0,0,0,0,0,0,0,0,0,0,0,0,0,0,0,0,0,0,0,0,279,280,281,
284,280,282,0,0,0,0,0,0,0,0,0,0,0,0,0,0,0,0,0,0,0,0,0,0,0,0,0,0,0,0,0,0,0,0,0,0,0,0,0,0,0,0,0,0,0,0,0,0,0,0,0,0,0,0,0,0,0,0,0,0,0,0,0,0,0,0,0,0,0,0,0,0,0,0,0,0,0,0,0,0,0,0,0,0,0,0,0,0,0,0,0,0,0,0,0,0,284,280,282,
284,280,282,0,0,0,0,0,0,0,0,0,0,0,0,0,0,0,0,0,0,0,0,0,0,0,0,0,0,0,0,0,0,0,0,0,0,0,0,0,0,0,0,0,0,0,0,0,0,0,0,0,0,0,0,0,0,0,0,0,0,0,0,0,0,0,0,0,0,0,0,0,0,0,0,0,0,0,0,0,0,0,0,0,0,0,0,0,0,0,0,0,0,0,0,0,0,284,280,281,
279,280,281,0,0,0,0,0,0,0,0,0,0,0,0,0,0,0,0,0,0,0,0,0,0,0,0,0,0,0,0,0,0,0,0,0,0,0,0,0,0,0,0,0,0,0,0,0,0,0,0,0,0,0,0,0,0,0,0,0,0,0,0,0,0,0,0,0,0,0,0,0,0,0,0,0,0,0,0,0,0,0,0,0,0,0,0,0,0,0,0,0,0,0,0,0,0,284,280,282,
284,280,282,0,0,0,0,0,0,0,0,0,0,0,0,0,0,0,0,0,0,0,0,0,0,0,0,0,0,0,0,0,0,0,0,0,0,0,0,0,0,0,0,0,0,0,0,0,0,0,0,0,0,0,0,0,0,0,0,0,0,0,0,0,0,0,0,0,0,0,0,0,0,0,0,0,0,0,0,0,0,0,0,0,0,0,0,0,0,0,0,0,0,0,0,0,0,284,280,281,
284,280,281,0,0,0,0,0,0,0,0,0,0,0,0,0,0,0,0,0,0,0,0,0,0,0,0,0,0,0,0,0,0,0,0,0,0,0,0,0,0,0,0,0,0,0,0,0,0,0,0,0,0,0,0,0,0,0,0,0,0,0,0,0,0,0,0,0,0,0,0,0,0,0,0,0,0,0,0,0,0,0,0,0,0,0,0,0,0,0,0,0,0,0,0,0,0,279,280,281,
284,280,282,0,0,0,0,0,0,0,0,0,0,0,0,0,0,0,0,0,0,0,0,0,0,0,0,0,0,0,0,0,0,0,0,0,0,0,0,0,0,0,0,0,0,0,0,0,0,0,0,0,0,0,0,0,0,0,0,0,0,0,0,0,0,0,0,0,0,0,0,0,0,0,0,0,0,0,0,0,0,0,0,0,0,0,0,0,0,0,0,0,0,0,0,0,0,279,280,281,
284,280,281,0,0,0,0,0,0,0,0,0,0,0,0,0,0,0,0,0,0,0,0,0,0,0,0,0,0,0,0,0,0,0,0,0,0,0,0,0,0,0,0,0,0,0,0,0,0,0,0,0,0,0,0,0,0,0,0,0,0,0,0,0,0,0,0,0,0,0,0,0,0,0,0,0,0,0,0,0,0,0,0,0,0,0,0,0,0,0,0,0,0,0,0,0,0,284,280,281,
279,280,282,0,0,0,0,0,0,0,0,0,0,0,0,0,0,0,0,0,0,0,0,0,0,0,0,0,0,0,0,0,0,0,0,0,0,0,0,0,0,0,0,0,0,0,0,0,0,0,0,0,0,0,0,0,0,0,0,0,0,0,0,0,0,0,0,0,0,0,0,0,0,0,0,0,0,0,0,0,0,0,0,0,0,0,0,0,0,0,0,0,0,0,0,0,0,279,280,282,
284,280,282,0,0,0,0,0,0,0,0,0,0,0,0,0,0,0,0,0,0,0,0,0,0,0,0,0,0,0,0,0,0,0,0,0,0,0,0,0,0,0,0,0,0,0,0,0,0,0,0,0,0,0,0,0,0,0,0,0,0,0,0,0,0,0,0,0,0,0,0,0,0,0,0,0,0,0,0,0,0,0,0,0,0,0,0,0,0,0,0,0,0,0,0,0,0,279,280,282,
279,280,281,0,0,0,0,0,0,0,0,0,0,0,0,0,0,0,0,0,0,0,0,0,0,0,0,0,0,0,0,0,0,0,0,0,0,0,0,0,0,0,0,0,0,0,0,0,0,0,0,0,0,0,0,0,0,0,0,0,0,0,0,0,0,0,0,0,0,0,0,0,0,0,0,0,0,0,0,0,0,0,0,0,0,0,0,0,0,0,0,0,0,0,0,0,0,279,280,281,
284,280,281,0,0,0,0,0,0,0,0,0,0,0,0,0,0,0,0,0,0,0,0,0,0,0,0,0,0,0,0,0,0,0,0,0,0,0,0,0,0,0,0,0,0,0,0,0,0,0,0,0,0,0,0,0,0,0,0,0,0,0,0,0,0,0,0,0,0,0,0,0,0,0,0,0,0,0,0,0,0,0,0,0,0,0,0,0,0,0,0,0,0,0,0,0,0,284,280,281,
284,280,282,0,0,0,0,0,0,0,0,0,0,0,0,0,0,0,0,0,0,0,0,0,0,0,0,0,0,0,0,0,0,0,0,0,0,0,0,0,0,0,0,0,0,0,0,0,0,0,0,0,0,0,0,0,0,0,0,0,0,0,0,0,0,0,0,0,0,0,0,0,0,0,0,0,0,0,0,0,0,0,0,0,0,0,0,0,0,0,0,0,0,0,0,0,0,284,280,282,
279,280,281,0,0,0,0,0,0,0,0,0,0,0,0,0,0,0,0,0,0,0,0,0,0,0,0,0,0,0,0,0,0,0,0,0,0,0,0,0,0,0,0,0,0,0,0,0,0,0,0,0,0,0,0,0,0,0,0,0,0,0,0,0,0,0,0,0,0,0,0,0,0,0,0,0,0,0,0,0,0,0,0,0,0,0,0,0,0,0,0,0,0,0,0,0,0,279,280,282,
284,280,281,0,0,0,0,0,0,0,0,0,0,0,0,0,0,0,0,0,0,0,0,0,0,0,0,0,0,0,0,0,0,0,0,0,0,0,0,0,0,0,0,0,0,0,0,0,0,0,0,0,0,0,0,0,0,0,0,0,0,0,0,0,0,0,0,0,0,0,0,0,0,0,0,0,0,0,0,0,0,0,0,0,0,0,0,0,0,0,0,0,0,0,0,0,0,279,280,282,
284,280,282,0,0,0,0,0,0,0,0,0,0,0,0,0,0,0,0,0,0,0,0,0,0,0,0,0,0,0,0,0,0,0,0,0,0,0,0,0,0,0,0,0,0,0,0,0,0,0,0,0,0,0,0,0,0,0,0,0,0,0,0,0,0,0,0,0,0,0,0,0,0,0,0,0,0,0,0,0,0,0,0,0,0,0,0,0,0,0,0,0,0,0,0,0,0,279,280,282,
279,280,282,0,0,0,0,0,0,0,0,0,0,0,0,0,0,0,0,0,0,0,0,0,0,0,0,0,0,0,0,0,0,0,0,0,0,0,0,0,0,0,0,0,0,0,0,0,0,0,0,0,0,0,0,0,0,0,0,0,0,0,0,0,0,0,0,0,0,0,0,0,0,0,0,0,0,0,0,0,0,0,0,0,0,0,0,0,0,0,0,0,0,0,0,0,0,279,280,281,
279,280,281,0,0,0,0,0,0,0,0,0,0,0,0,0,0,0,0,0,0,0,0,0,0,0,0,0,0,0,0,0,0,0,0,0,0,0,0,0,0,0,0,0,0,0,0,0,0,0,0,0,0,0,0,0,0,0,0,0,0,0,0,0,0,0,0,0,0,0,0,0,0,0,0,0,0,0,0,0,0,0,0,0,0,0,0,0,0,0,0,0,0,0,0,0,0,279,280,281,
279,280,282,0,0,0,0,0,0,0,0,0,0,0,0,0,0,0,0,0,0,0,0,0,0,0,0,0,0,0,0,0,0,0,0,0,0,0,0,0,0,0,0,0,0,0,0,0,0,0,0,0,0,0,0,0,0,0,0,0,0,0,0,0,0,0,0,0,0,0,0,0,0,0,0,0,0,0,0,0,0,0,0,0,0,0,0,0,0,0,0,0,0,0,0,0,0,279,280,282,
279,280,282,0,0,0,0,0,0,0,0,0,0,0,0,0,0,0,0,0,0,0,0,0,0,0,0,0,0,0,0,0,0,0,0,0,0,0,0,0,0,0,0,0,0,0,0,0,0,0,0,0,0,0,0,0,0,0,0,0,0,0,0,0,0,0,0,0,0,0,0,0,0,0,0,0,0,0,0,0,0,0,0,0,0,0,0,0,0,0,0,0,0,0,0,0,0,284,280,282,
284,280,281,0,0,0,0,0,0,0,0,0,0,0,0,0,0,0,0,0,0,0,0,0,0,0,0,0,0,0,0,0,0,0,0,0,0,0,0,0,0,0,0,0,0,0,0,0,0,0,0,0,0,0,0,0,0,0,0,0,0,0,0,0,0,0,0,0,0,0,0,0,0,0,0,0,0,0,0,0,0,0,0,0,0,0,0,0,0,0,0,0,0,0,0,0,0,284,280,282,
284,280,281,0,0,0,0,0,0,0,0,0,0,0,0,0,0,0,0,0,0,0,0,0,0,0,0,0,0,0,0,0,0,0,0,0,0,0,0,0,0,0,0,0,0,0,0,0,0,0,0,0,0,0,0,0,0,0,0,0,0,0,0,0,0,0,0,0,0,0,0,0,0,0,0,0,0,0,0,0,0,0,0,0,0,0,0,0,0,0,0,0,0,0,0,0,0,279,280,281,
284,280,282,0,0,0,0,0,0,0,0,0,0,0,0,0,0,0,0,0,0,0,0,0,0,0,0,0,0,0,0,0,0,0,0,0,0,0,0,0,0,0,0,0,0,0,0,0,0,0,0,0,0,0,0,0,0,0,0,0,0,0,0,0,0,0,0,0,0,0,0,0,0,0,0,0,0,0,0,0,0,0,0,0,0,0,0,0,0,0,0,0,0,0,0,0,0,284,280,282,
284,280,281,0,0,0,0,0,0,0,0,0,0,0,0,0,0,0,0,0,0,0,0,0,0,0,0,0,0,0,0,0,0,0,0,0,0,0,0,0,0,0,0,0,0,0,0,0,0,0,0,0,0,0,0,0,0,0,0,0,0,0,0,0,0,0,0,0,0,0,0,0,0,0,0,0,0,0,0,0,0,0,0,0,0,0,0,0,0,0,0,0,0,0,0,0,0,279,280,282,
284,280,281,0,0,0,0,0,0,0,0,0,0,0,0,0,0,0,0,0,0,0,0,0,0,0,0,0,0,0,0,0,0,0,0,0,0,0,0,0,0,0,0,0,0,0,0,0,0,0,0,0,0,0,0,0,0,0,0,0,0,0,0,0,0,0,0,0,0,0,0,0,0,0,0,0,0,0,0,0,0,0,0,0,0,0,0,0,0,0,0,0,0,0,0,0,0,279,280,282,
284,280,282,0,0,0,0,0,0,0,0,0,0,0,0,0,0,0,0,0,0,0,0,0,0,0,0,0,0,0,0,0,0,0,0,0,0,0,0,0,0,0,0,0,0,0,0,0,0,0,0,0,0,0,0,0,0,0,0,0,0,0,0,0,0,0,0,0,0,0,0,0,0,0,0,0,0,0,0,0,0,0,0,0,0,0,0,0,0,0,0,0,0,0,0,0,0,284,280,282,
279,280,281,0,0,0,0,0,0,0,0,0,0,0,0,0,0,0,0,0,0,0,0,0,0,0,0,0,0,0,0,0,0,0,0,0,0,0,0,0,0,0,0,0,0,0,0,0,0,0,0,0,0,0,0,0,0,0,0,0,0,0,0,0,0,0,0,0,0,0,0,0,0,0,0,0,0,0,0,0,0,0,0,0,0,0,0,0,0,0,0,0,0,0,0,0,0,279,280,282,
284,280,282,0,0,0,0,0,0,0,0,0,0,0,0,0,0,0,0,0,0,0,0,0,0,0,0,0,0,0,0,0,0,0,0,0,0,0,0,0,0,0,0,0,0,0,0,0,0,0,0,0,0,0,0,0,0,0,0,0,0,0,0,0,0,0,0,0,0,0,0,0,0,0,0,0,0,0,0,0,0,0,0,0,0,0,0,0,0,0,0,0,0,0,0,0,0,284,280,282,
284,280,282,0,0,0,0,0,0,0,0,0,0,0,0,0,0,0,0,0,0,0,0,0,0,0,0,0,0,0,0,0,0,0,0,0,0,0,0,0,0,0,0,0,0,0,0,0,0,0,0,0,0,0,0,0,0,0,0,0,0,0,0,0,0,0,0,0,0,0,0,0,0,0,0,0,0,0,0,0,0,0,0,0,0,0,0,0,0,0,0,0,0,0,0,0,0,279,280,281,
279,280,282,0,0,0,0,0,0,0,0,0,0,0,0,0,0,0,0,0,0,0,0,0,0,0,0,0,0,0,0,0,0,0,0,0,0,0,0,0,0,0,0,0,0,0,0,0,0,0,0,0,0,0,0,0,0,0,0,0,0,0,0,0,0,0,0,0,0,0,0,0,0,0,0,0,0,0,0,0,0,0,0,0,0,0,0,0,0,0,0,0,0,0,0,0,0,284,280,281,
284,280,281,0,0,0,0,0,0,0,0,0,0,0,0,0,0,0,0,0,0,0,0,0,0,0,0,0,0,0,0,0,0,0,0,0,0,0,0,0,0,0,0,0,0,0,0,0,0,0,0,0,0,0,0,0,0,0,0,0,0,0,0,0,0,0,0,0,0,0,0,0,0,0,0,0,0,0,0,0,0,0,0,0,0,0,0,0,0,0,0,0,0,0,0,0,0,284,280,282,
279,280,282,0,0,0,0,0,0,0,0,0,0,0,0,0,0,0,0,0,0,0,0,0,0,0,0,0,0,0,0,0,0,0,0,0,0,0,0,0,0,0,0,0,0,0,0,0,0,0,0,0,0,0,0,0,0,0,0,0,0,0,0,0,0,0,0,0,0,0,0,0,0,0,0,0,0,0,0,0,0,0,0,0,0,0,0,0,0,0,0,0,0,0,0,0,0,284,280,281,
279,280,281,0,0,0,0,0,0,0,0,0,0,0,0,0,0,0,0,0,0,0,0,0,0,0,0,0,0,0,0,0,0,0,0,0,0,0,0,0,0,0,0,0,0,0,0,0,0,0,0,0,0,0,0,0,0,0,0,0,0,0,0,0,0,0,0,0,0,0,0,0,0,0,0,0,0,0,0,0,0,0,0,0,0,0,0,0,0,0,0,0,0,0,0,0,0,279,280,282,
279,280,281,0,0,0,0,0,0,0,0,0,0,0,0,0,0,0,0,0,0,0,0,0,0,0,0,0,0,0,0,0,0,0,0,0,0,0,0,0,0,0,0,0,0,0,0,0,0,0,0,0,0,0,0,0,0,0,0,0,0,0,0,0,0,422,423,424,0,0,0,0,0,0,0,0,0,0,0,0,0,0,0,0,0,0,0,0,0,0,0,0,0,0,0,0,0,284,280,282,
279,280,282,0,0,0,0,0,0,0,0,0,0,0,0,0,0,0,0,0,0,0,0,0,0,0,0,0,0,0,0,0,0,0,0,0,0,0,0,0,0,0,0,0,0,0,0,0,0,0,0,0,0,0,0,0,0,0,0,0,0,0,0,0,0,0,0,0,0,0,0,0,0,0,0,0,0,0,0,0,0,0,0,0,0,0,0,0,0,0,0,0,0,0,0,0,0,284,280,281,
284,280,298,265,0,0,0,0,0,0,0,0,0,0,0,0,0,0,0,0,0,0,0,0,0,0,0,0,0,0,0,0,0,0,0,0,0,0,0,0,0,0,0,0,0,0,0,0,0,0,0,0,0,0,0,0,0,0,0,0,0,0,0,0,0,0,0,0,0,0,0,0,0,0,0,0,0,0,0,0,0,0,0,0,0,0,0,0,0,0,0,0,0,0,0,0,263,300,280,282,
279,280,280,298,299,299,299,299,299,299,264,264,264,299,299,264,299,264,264,264,264,299,264,299,264,299,264,299,264,299,299,299,299,299,264,299,299,264,264,299,264,264,264,299,264,264,264,299,299,264,299,299,299,299,264,299,264,264,264,299,264,264,299,264,264,299,264,299,299,299,264,264,264,299,264,299,264,299,264,264,299,264,264,264,264,299,264,299,299,264,299,264,264,264,264,264,300,280,280,281,
284,280,280,280,280,280,280,280,280,280,280,280,280,280,280,280,280,280,280,280,280,280,280,280,280,280,280,280,280,280,280,280,280,280,280,280,280,280,280,280,280,280,280,280,280,280,280,280,280,280,280,280,280,280,280,280,280,280,280,280,280,280,280,280,280,280,280,280,280,280,280,280,280,280,280,280,280,280,280,280,280,280,280,280,280,280,280,280,280,280,280,280,280,280,280,280,280,280,280,281,
295,267,296,296,296,296,296,267,296,267,267,267,296,267,267,296,296,267,296,267,296,267,267,267,267,296,296,267,296,296,296,296,267,267,267,296,267,296,267,296,267,267,296,296,267,296,267,296,267,296,267,267,267,267,267,267,296,296,296,267,267,296,267,296,267,296,267,296,267,267,296,267,296,267,296,267,296,267,296,267,267,267,267,296,296,267,267,267,267,296,296,296,296,267,296,267,296,267,296,297
</data>
 </layer>
 <objectgroup id="3" name="Interactables" locked="1">
  <object id="1" name="Teleport In" type="TeleportIn" x="336" y="368">
   <properties>
    <property name="travelType" type="int" propertytype="TravelType" value="0"/>
   </properties>
   <point/>
  </object>
  <object id="2" name="Teleport Out" type="TeleportOut" x="528" y="368">
   <point/>
  </object>
 </objectgroup>
</map>
